; generated by PrusaSlicer 2.3.1+win64 on 2021-07-14 at 23:44:09 UTC

; 

; external perimeters extrusion width = 0.45mm
; perimeters extrusion width = 0.45mm
; infill extrusion width = 0.45mm
; solid infill extrusion width = 0.45mm
; top infill extrusion width = 0.40mm
; support material extrusion width = 0.35mm
; first layer extrusion width = 0.42mm

M107
M190 S80 ; set bed temperature and wait for it to be reached
M104 S230 ; set temperature
;TYPE:Custom
G28 ; home all axes
G1 Z5 F5000 ; lift nozzle
M109 S230 ; set temperature and wait for it to be reached
G21 ; set units to millimeters
G90 ; use absolute coordinates
M82 ; use absolute distances for extrusion
G92 E0
; Filament gcode
;LAYER_CHANGE
;Z:0.35
;HEIGHT:0.35
G1 Z0.350 F6600.000
G1 E-4.00000 F2400.000
G92 E0
G1 Z0.450 F6600.000
G1 X130.240 Y76.388
G1 Z0.350
G1 E4.00000 F2400.000
;TYPE:Skirt
;WIDTH:0.42
G1 X132.105 Y74.481 E4.13387
G1 X132.888 Y74.056 E4.17861
G1 X134.422 Y73.823 E4.25646
G1 X170.263 Y73.984 E6.05518
G1 X170.855 Y74.120 E6.08567
G1 X171.383 Y74.427 E6.11632
G1 X173.721 Y76.757 E6.28197
G1 X174.075 Y77.362 E6.31717
G1 X174.202 Y78.052 E6.35236
G1 X174.045 Y114.249 E8.16896
G1 X173.832 Y115.291 E8.22231
G1 X173.571 Y115.847 E8.25314
G1 X171.670 Y117.792 E8.38965
G1 X171.068 Y118.145 E8.42467
G1 X170.383 Y118.273 E8.45969
G1 X133.577 Y118.271 E10.30681
G1 X132.969 Y118.142 E10.33799
G1 X132.426 Y117.833 E10.36935
G1 X130.078 Y115.495 E10.53561
G1 X129.724 Y114.890 E10.57081
G1 X129.597 Y114.197 E10.60618
G1 X129.763 Y77.891 E12.42825
G1 X129.978 Y76.925 E12.47792
G1 X130.214 Y76.442 E12.50487
G1 X130.522 Y76.593 F6600.000
G1 F2400.000
G1 X132.333 Y74.740 E12.63492
G1 X132.998 Y74.383 E12.67279
G1 X134.422 Y74.168 E12.74507
G1 X170.233 Y74.328 E14.54227
G1 X170.738 Y74.444 E14.56828
G1 X171.184 Y74.708 E14.59429
G1 X173.452 Y76.973 E14.75515
G1 X173.751 Y77.479 E14.78465
G1 X173.857 Y78.061 E14.81431
G1 X173.700 Y114.233 E16.62967
G1 X173.502 Y115.193 E16.67886
G1 X173.277 Y115.667 E16.70519
G1 X171.454 Y117.523 E16.83574
G1 X170.951 Y117.821 E16.86508
G1 X170.373 Y117.929 E16.89459
G1 X133.596 Y117.926 E18.74026
G1 X133.078 Y117.814 E18.76690
G1 X132.622 Y117.548 E18.79338
G1 X130.347 Y115.279 E18.95461
G1 X130.049 Y114.773 E18.98412
G1 X129.942 Y114.191 E19.01378
G1 X130.105 Y77.936 E20.83331
G1 X130.305 Y77.035 E20.87964
G1 X130.495 Y76.647 E20.90132
G1 X130.803 Y76.798 F6600.000
G1 F2400.000
G1 X130.821 Y76.761 E20.90337
G1 X132.559 Y75.000 E21.02757
G1 X133.104 Y74.712 E21.05850
G1 X134.422 Y74.513 E21.12537
G1 X170.202 Y74.672 E22.92104
G1 X170.616 Y74.767 E22.94237
G1 X170.977 Y74.985 E22.96356
G1 X173.187 Y77.194 E23.12034
G1 X173.428 Y77.601 E23.14408
G1 X173.513 Y78.066 E23.16783
G1 X173.356 Y114.215 E24.98198
G1 X173.171 Y115.093 E25.02704
G1 X172.984 Y115.484 E25.04880
G1 X171.234 Y117.258 E25.17385
G1 X170.829 Y117.498 E25.19746
G1 X170.367 Y117.584 E25.22106
G1 X133.618 Y117.582 E27.06533
G1 X133.194 Y117.489 E27.08709
G1 X132.824 Y117.269 E27.10871
G1 X130.612 Y115.059 E27.26563
G1 X130.372 Y114.651 E27.28938
G1 X130.287 Y114.186 E27.31312
G1 X130.448 Y77.978 E29.13028
G1 X130.632 Y77.145 E29.17307
G1 X130.776 Y76.852 E29.18949
G1 E25.18949
G92 E0
G1 Z0.450 F6600.000
G1 X134.419 Y75.858
G1 Z0.350
G1 E4.00000 F2400.000
;TYPE:Support material
G1 X146.299 Y87.738 E4.84317
G1 X146.299 Y87.041 E4.87814
G1 X135.271 Y76.013 E5.66083
G1 X135.968 Y76.013 E5.69580
G1 X146.299 Y86.345 E6.42905
G1 X146.299 Y85.648 E6.46402
G1 X136.664 Y76.013 E7.14781
G1 X137.361 Y76.013 E7.18278
G1 X146.299 Y84.951 E7.81712
G1 X146.299 Y84.254 E7.85208
G1 X138.058 Y76.013 E8.43697
G1 X138.755 Y76.013 E8.47194
G1 X146.299 Y83.557 E9.00737
G1 X146.299 Y82.861 E9.04234
G1 X139.452 Y76.013 E9.52832
G1 X140.148 Y76.013 E9.56329
G1 X146.299 Y82.164 E9.99982
G1 X146.299 Y81.467 E10.03478
G1 X140.845 Y76.013 E10.42186
G1 X141.542 Y76.013 E10.45683
G1 X146.299 Y80.770 E10.79445
G1 X146.299 Y80.073 E10.82942
G1 X142.239 Y76.013 E11.11758
G1 X142.935 Y76.013 E11.15255
G1 X146.299 Y79.377 E11.39127
G1 X146.299 Y78.680 E11.42623
G1 X143.632 Y76.013 E11.61549
G1 X144.329 Y76.013 E11.65046
G1 X146.454 Y78.138 E11.80129
G1 E7.80129
G92 E0
G1 Z0.450 F6600.000
G1 X172.168 Y78.071
G1 Z0.350
G1 E4.00000 F2400.000
G1 X170.110 Y76.013 E4.14606
G1 X169.413 Y76.013 E4.18103
G1 X172.013 Y78.613 E4.36552
G1 X172.013 Y79.310 E4.40049
G1 X168.716 Y76.013 E4.63444
G1 X168.020 Y76.013 E4.66941
G1 X172.013 Y80.006 E4.95281
G1 X172.013 Y80.703 E4.98777
G1 X167.323 Y76.013 E5.32063
G1 X166.626 Y76.013 E5.35560
G1 X172.013 Y81.400 E5.73790
G1 X172.013 Y82.097 E5.77287
G1 X165.929 Y76.013 E6.20463
G1 X165.232 Y76.013 E6.23960
G1 X172.013 Y82.793 E6.72082
G1 X172.013 Y83.490 E6.75578
G1 X164.536 Y76.013 E7.28645
G1 X163.839 Y76.013 E7.32142
G1 X172.013 Y84.187 E7.90154
G1 X172.013 Y84.884 E7.93651
G1 X163.142 Y76.013 E8.56608
G1 X162.445 Y76.013 E8.60105
G1 X172.013 Y85.581 E9.28007
G1 X172.013 Y86.277 E9.31504
G1 X161.748 Y76.013 E10.04352
G1 X161.052 Y76.013 E10.07849
G1 X172.013 Y86.974 E10.85642
G1 X172.013 Y87.671 E10.89139
G1 X160.355 Y76.013 E11.71878
G1 X159.658 Y76.013 E11.75374
G1 X172.013 Y88.368 E12.63058
G1 X172.013 Y89.065 E12.66555
G1 X159.059 Y76.111 E13.58490
G1 X158.711 Y76.459 E13.60963
G1 X172.013 Y89.761 E14.55371
G1 X172.013 Y90.458 E14.58868
G1 X158.362 Y76.808 E15.55748
G1 X158.014 Y77.156 E15.58221
G1 X172.013 Y91.155 E16.57574
G1 X172.013 Y91.852 E16.61071
G1 X157.666 Y77.505 E17.62897
G1 X157.501 Y77.670 E17.64068
G1 X157.501 Y78.036 E17.65908
G1 X172.013 Y92.548 E18.68905
G1 X172.013 Y93.245 E18.72402
G1 X157.501 Y78.733 E19.75399
G1 X157.501 Y79.430 E19.78896
G1 X172.013 Y93.942 E20.81893
G1 X172.013 Y94.639 E20.85390
G1 X157.501 Y80.127 E21.88387
G1 X157.501 Y80.824 E21.91884
G1 X172.013 Y95.336 E22.94881
G1 X172.013 Y96.032 E22.98377
G1 X157.501 Y81.520 E24.01374
G1 X157.501 Y82.217 E24.04871
G1 X172.013 Y96.729 E25.07868
G1 X172.013 Y97.426 E25.11365
G1 X157.501 Y82.914 E26.14362
G1 X157.501 Y83.611 E26.17859
G1 X172.013 Y98.123 E27.20856
G1 X172.013 Y98.819 E27.24353
G1 X157.501 Y84.307 E28.27350
G1 X157.501 Y85.004 E28.30846
G1 X172.013 Y99.516 E29.33843
G1 X172.013 Y100.213 E29.37340
G1 X157.501 Y85.701 E30.40337
G1 X157.501 Y86.398 E30.43834
G1 X172.013 Y100.910 E31.46831
G1 X172.013 Y101.607 E31.50328
G1 X157.501 Y87.095 E32.53325
G1 X157.501 Y87.791 E32.56822
G1 X172.013 Y102.303 E33.59818
G1 X172.013 Y103.000 E33.63315
G1 X157.501 Y88.488 E34.66312
G1 X157.501 Y88.870 E34.68229
G1 X157.186 Y88.870 E34.69809
G1 X172.013 Y103.697 E35.75040
G1 X172.013 Y104.394 E35.78537
G1 X156.489 Y88.870 E36.88713
G1 X155.792 Y88.870 E36.92210
G1 X172.013 Y105.091 E38.07332
G1 X172.013 Y105.787 E38.10829
G1 X155.095 Y88.870 E39.30896
G1 X154.399 Y88.870 E39.34393
G1 X172.013 Y106.484 E40.59405
G1 X172.013 Y107.181 E40.62902
G1 X153.702 Y88.870 E41.92860
G1 X153.005 Y88.870 E41.96356
G1 X172.013 Y107.878 E43.31259
G1 X172.013 Y108.574 E43.34756
G1 X152.308 Y88.870 E44.74604
G1 X151.612 Y88.870 E44.78101
G1 X172.013 Y109.271 E46.22895
G1 X172.013 Y109.968 E46.26392
G1 X150.915 Y88.870 E47.76131
G1 X150.218 Y88.870 E47.79627
G1 X172.013 Y110.665 E49.34312
G1 X172.013 Y111.362 E49.37808
G1 X149.521 Y88.870 E50.97438
G1 X148.824 Y88.870 E51.00935
G1 X172.013 Y112.058 E52.65510
G1 X172.013 Y112.755 E52.69006
G1 X148.128 Y88.870 E54.38527
G1 X147.431 Y88.870 E54.42023
G1 X172.013 Y113.452 E56.16489
G1 X172.013 Y114.149 E56.19986
G1 X146.734 Y88.870 E57.99396
G1 X146.299 Y88.870 E58.01581
G1 X146.299 Y88.435 E58.03765
G1 X133.877 Y76.013 E58.91925
G1 X133.443 Y76.013 E58.94104
G1 X133.312 Y76.145 E58.95036
G1 X171.881 Y114.714 E61.68777
G1 X171.533 Y115.062 E61.71249
G1 X132.963 Y76.493 E64.44990
G1 X132.615 Y76.841 E64.47463
G1 X171.184 Y115.411 E67.21203
G1 X170.836 Y115.759 E67.23676
G1 X132.267 Y77.190 E69.97416
G1 X131.918 Y77.538 E69.99889
G1 X170.488 Y116.108 E72.73630
G1 X170.356 Y116.239 E72.74562
G1 X169.922 Y116.239 E72.76740
G1 X131.787 Y78.104 E75.47401
G1 X131.787 Y78.800 E75.50897
G1 X169.225 Y116.239 E78.16612
G1 X168.529 Y116.239 E78.20109
G1 X131.787 Y79.497 E80.80879
G1 X131.787 Y80.194 E80.84376
G1 X167.832 Y116.239 E83.40200
G1 X167.135 Y116.239 E83.43697
G1 X131.787 Y80.891 E85.94576
G1 X131.787 Y81.587 E85.98073
G1 X166.438 Y116.239 E88.44007
G1 X165.741 Y116.239 E88.47503
G1 X131.787 Y82.284 E90.88492
G1 X131.787 Y82.981 E90.91989
G1 X165.045 Y116.239 E93.28032
G1 X164.348 Y116.239 E93.31529
G1 X131.787 Y83.678 E95.62627
G1 X131.787 Y84.375 E95.66123
G1 X163.651 Y116.239 E97.92276
G1 X162.954 Y116.239 E97.95773
G1 X131.787 Y85.071 E100.16980
G1 X131.787 Y85.768 E100.20477
G1 X162.258 Y116.239 E102.36739
G1 X161.561 Y116.239 E102.40236
G1 X131.787 Y86.465 E104.51552
G1 X131.787 Y87.162 E104.55049
G1 X160.864 Y116.239 E106.61420
G1 X160.167 Y116.239 E106.64917
G1 X131.787 Y87.859 E108.66343
G1 X131.787 Y88.555 E108.69840
G1 X159.470 Y116.239 E110.66321
G1 X158.774 Y116.239 E110.69817
G1 X131.787 Y89.252 E112.61353
G1 X131.787 Y89.949 E112.64850
G1 X158.077 Y116.239 E114.51440
G1 X157.380 Y116.239 E114.54936
G1 X131.787 Y90.646 E116.36581
G1 X131.787 Y91.342 E116.40078
G1 X156.683 Y116.239 E118.16777
G1 X155.987 Y116.239 E118.20274
G1 X131.787 Y92.039 E119.92028
G1 X131.787 Y92.736 E119.95525
G1 X155.290 Y116.239 E121.62334
G1 X154.593 Y116.239 E121.65831
G1 X131.787 Y93.433 E123.27694
G1 X131.787 Y94.130 E123.31191
G1 X153.896 Y116.239 E124.88109
G1 X153.199 Y116.239 E124.91606
G1 X131.787 Y94.826 E126.43579
G1 X131.787 Y95.523 E126.47076
G1 X152.503 Y116.239 E127.94103
G1 X151.806 Y116.239 E127.97600
G1 X131.787 Y96.220 E129.39683
G1 X131.787 Y96.917 E129.43179
G1 X151.109 Y116.239 E130.80316
G1 X150.412 Y116.239 E130.83813
G1 X131.787 Y97.613 E132.16005
G1 X131.787 Y98.310 E132.19502
G1 X149.715 Y116.239 E133.46748
G1 X149.019 Y116.239 E133.50245
G1 X131.787 Y99.007 E134.72546
G1 X131.787 Y99.704 E134.76043
G1 X148.322 Y116.239 E135.93398
G1 X147.625 Y116.239 E135.96895
G1 X131.787 Y100.401 E137.09306
G1 X131.787 Y101.097 E137.12802
G1 X146.928 Y116.239 E138.20267
G1 X146.232 Y116.239 E138.23764
G1 X131.787 Y101.794 E139.26284
G1 X131.787 Y102.491 E139.29781
G1 X145.535 Y116.239 E140.27355
G1 X144.838 Y116.239 E140.30852
G1 X131.787 Y103.188 E141.23481
G1 X131.787 Y103.885 E141.26978
G1 X144.141 Y116.239 E142.14662
G1 X143.444 Y116.239 E142.18159
G1 X131.787 Y104.581 E143.00897
G1 X131.787 Y105.278 E143.04394
G1 X142.748 Y116.239 E143.82187
G1 X142.051 Y116.239 E143.85684
G1 X131.787 Y105.975 E144.58532
G1 X131.787 Y106.672 E144.62029
G1 X141.354 Y116.239 E145.29932
G1 X140.657 Y116.239 E145.33429
G1 X131.787 Y107.368 E145.96386
G1 X131.787 Y108.065 E145.99883
G1 X139.961 Y116.239 E146.57895
G1 X139.264 Y116.239 E146.61391
G1 X131.787 Y108.762 E147.14458
G1 X131.787 Y109.459 E147.17955
G1 X138.567 Y116.239 E147.66076
G1 X137.870 Y116.239 E147.69573
G1 X131.787 Y110.156 E148.12749
G1 X131.787 Y110.852 E148.16246
G1 X137.173 Y116.239 E148.54477
G1 X136.477 Y116.239 E148.57974
G1 X131.787 Y111.549 E148.91259
G1 X131.787 Y112.246 E148.94756
G1 X135.780 Y116.239 E149.23096
G1 X135.083 Y116.239 E149.26593
G1 X131.787 Y112.943 E149.49988
G1 X131.787 Y113.639 E149.53485
G1 X134.386 Y116.239 E149.71934
G1 X133.690 Y116.239 E149.75431
G1 X131.632 Y114.181 E149.90037
;LAYER_CHANGE
;Z:0.65
;HEIGHT:0.3
G1 Z0.650 F6600.000
M104 S200 ; set temperature
M140 S60 ; set bed temperature
G1 E145.90037 F2400.000
G92 E0
G1 Z0.750 F6600.000
G1 X129.661 Y114.543
G1 Z0.650
G1 E4.00000 F2400.000
;TYPE:Skirt
G1 F3600.000
G1 X129.597 Y114.197 E4.01563
G1 X129.763 Y77.891 E5.62599
G1 X129.978 Y76.925 E5.66990
G1 X130.240 Y76.388 E5.69637
G1 X132.105 Y74.481 E5.81469
G1 X132.888 Y74.056 E5.85423
G1 X134.422 Y73.823 E5.92303
G1 X170.263 Y73.984 E7.51277
G1 X170.855 Y74.120 E7.53971
G1 X171.383 Y74.427 E7.56680
G1 X173.721 Y76.757 E7.71320
G1 X174.075 Y77.362 E7.74431
G1 X174.202 Y78.052 E7.77541
G1 X174.045 Y114.249 E9.38095
G1 X173.832 Y115.291 E9.42809
G1 X173.571 Y115.847 E9.45534
G1 X171.670 Y117.792 E9.57599
G1 X171.068 Y118.145 E9.60694
G1 X170.383 Y118.273 E9.63789
G1 X133.577 Y118.271 E11.27040
G1 X132.969 Y118.142 E11.29796
G1 X132.426 Y117.833 E11.32567
G1 X130.078 Y115.495 E11.47262
G1 X129.724 Y114.890 E11.50372
G1 X129.672 Y114.602 E11.51669
G1 X130.006 Y114.541 F6600.000
G1 F3600.000
G1 X129.942 Y114.191 E11.53244
G1 X130.105 Y77.936 E13.14057
G1 X130.305 Y77.035 E13.18151
G1 X130.532 Y76.572 E13.20436
G1 X132.333 Y74.740 E13.31833
G1 X132.998 Y74.383 E13.35180
G1 X134.422 Y74.168 E13.41568
G1 X170.233 Y74.328 E15.00407
G1 X170.738 Y74.444 E15.02705
G1 X171.184 Y74.708 E15.05004
G1 X173.452 Y76.973 E15.19220
G1 X173.751 Y77.479 E15.21828
G1 X173.857 Y78.061 E15.24450
G1 X173.700 Y114.233 E16.84893
G1 X173.502 Y115.193 E16.89241
G1 X173.277 Y115.667 E16.91567
G1 X171.454 Y117.523 E17.03105
G1 X170.951 Y117.821 E17.05699
G1 X170.373 Y117.929 E17.08307
G1 X133.596 Y117.926 E18.71429
G1 X133.078 Y117.814 E18.73783
G1 X132.622 Y117.548 E18.76124
G1 X130.347 Y115.279 E18.90373
G1 X130.049 Y114.773 E18.92981
G1 X130.017 Y114.600 E18.93761
G1 X130.351 Y114.539 F6600.000
G1 F3600.000
G1 X130.287 Y114.186 E18.95353
G1 X130.448 Y77.978 E20.55955
G1 X130.632 Y77.145 E20.59737
G1 X130.821 Y76.761 E20.61635
G1 X132.559 Y75.000 E20.72612
G1 X133.104 Y74.712 E20.75345
G1 X134.422 Y74.513 E20.81255
G1 X170.202 Y74.672 E22.39958
G1 X170.616 Y74.767 E22.41844
G1 X170.977 Y74.985 E22.43717
G1 X173.187 Y77.194 E22.57573
G1 X173.428 Y77.601 E22.59672
G1 X173.513 Y78.066 E22.61770
G1 X173.356 Y114.215 E24.22106
G1 X173.171 Y115.093 E24.26089
G1 X172.984 Y115.484 E24.28012
G1 X171.234 Y117.258 E24.39065
G1 X170.829 Y117.498 E24.41151
G1 X170.367 Y117.584 E24.43237
G1 X133.618 Y117.582 E26.06235
G1 X133.194 Y117.489 E26.08158
G1 X132.824 Y117.269 E26.10069
G1 X130.612 Y115.059 E26.23938
G1 X130.372 Y114.651 E26.26037
G1 X130.362 Y114.598 E26.26277
G1 E22.26277 F2400.000
G92 E0
G1 Z0.750 F6600.000
G1 X168.613 Y113.397
G1 Z0.650
G1 E4.00000 F2400.000
;TYPE:Support material interface
;WIDTH:0.35
G1 F3600.000
G1 X168.613 Y78.984 E5.22595
G1 X167.327 Y78.984 E5.27175
G1 X167.327 Y113.269 E6.49312
G1 X166.042 Y113.269 E6.53892
G1 X166.042 Y78.984 E7.76028
G1 X164.756 Y78.984 E7.80608
G1 X164.756 Y113.269 E9.02745
G1 X163.470 Y113.269 E9.07325
G1 X163.470 Y78.984 E10.29462
G1 X162.185 Y78.984 E10.34042
G1 X162.185 Y113.269 E11.56179
G1 X160.899 Y113.269 E11.60759
G1 X160.899 Y78.984 E12.82896
G1 X160.471 Y78.984 E12.84421
G1 X160.471 Y91.840 E13.30222
G1 X159.613 Y91.840 E13.33277
G1 X159.613 Y113.269 E14.09613
G1 X158.328 Y113.269 E14.14192
G1 X158.328 Y91.840 E14.90528
G1 X157.042 Y91.840 E14.95108
G1 X157.042 Y113.269 E15.71444
G1 X155.757 Y113.269 E15.76023
G1 X155.757 Y91.840 E16.52359
G1 X154.471 Y91.840 E16.56939
G1 X154.471 Y113.269 E17.33275
G1 X153.185 Y113.269 E17.37854
G1 X153.185 Y91.840 E18.14190
G1 X151.900 Y91.840 E18.18770
G1 X151.900 Y113.269 E18.95106
G1 X150.614 Y113.269 E18.99685
G1 X150.614 Y91.840 E19.76021
G1 X149.328 Y91.840 E19.80601
G1 X149.328 Y113.269 E20.56937
G1 X148.043 Y113.269 E20.61516
G1 X148.043 Y91.840 E21.37852
G1 X146.757 Y91.840 E21.42432
G1 X146.757 Y113.269 E22.18768
G1 X145.472 Y113.269 E22.23348
G1 X145.472 Y91.840 E22.99683
G1 X144.186 Y91.840 E23.04263
G1 X144.186 Y113.269 E23.80599
G1 X142.900 Y113.269 E23.85179
G1 X142.900 Y78.984 E25.07315
G1 X141.615 Y78.984 E25.11895
G1 X141.615 Y113.269 E26.34032
G1 X140.329 Y113.269 E26.38612
G1 X140.329 Y78.984 E27.60749
G1 X139.044 Y78.984 E27.65329
G1 X139.044 Y113.269 E28.87466
G1 X137.758 Y113.269 E28.92046
G1 X137.758 Y78.984 E30.14183
G1 X136.472 Y78.984 E30.18763
G1 X136.472 Y113.269 E31.40900
G1 X135.187 Y113.269 E31.45479
G1 X135.187 Y78.855 E32.68074
;LAYER_CHANGE
;Z:1.25
;HEIGHT:0.6
G1 Z1.250 F6600.000
G1 E28.68074 F2400.000
G92 E0
G1 Z1.350 F6600.000
G1 X137.853 Y87.779
G1 Z1.250
G1 E4.00000 F2400.000
;TYPE:Overhang perimeter
;WIDTH:0.4
;HEIGHT:0.4
G1 F3600.000
G1 X138.946 Y87.779 E4.05712
G1 X138.946 Y94.371 E4.40152
G1 X164.853 Y94.371 E5.75501
G1 X164.853 Y87.779 E6.09941
