; generated by PrusaSlicer 2.3.1+win64 on 2021-07-16 at 12:00:52 UTC

; 

; external perimeters extrusion width = 0.45mm
; perimeters extrusion width = 0.45mm
; infill extrusion width = 0.45mm
; solid infill extrusion width = 0.45mm
; top infill extrusion width = 0.40mm
; support material extrusion width = 0.35mm
; first layer extrusion width = 0.42mm

M107
M190 S80 ; set bed temperature and wait for it to be reached
M104 S230 ; set temperature
;TYPE:Custom
G28 ; home all axes
G1 Z5 F5000 ; lift nozzle
M109 S230 ; set temperature and wait for it to be reached
G21 ; set units to millimeters
G90 ; use absolute coordinates
M82 ; use absolute distances for extrusion
G92 E0
; Filament gcode
;LAYER_CHANGE
;Z:0.35
;HEIGHT:0.35
G1 Z0.350 F6600.000
G1 E-4.00000 F2400.000
G92 E0
G1 Z0.450 F6600.000
G1 X122.769 Y86.040
G1 Z0.350
G1 E4.00000 F2400.000
;TYPE:Skirt
;WIDTH:0.42
G1 X124.634 Y84.132 E4.13387
G1 X125.417 Y83.707 E4.17861
G1 X126.951 Y83.475 E4.25646
G1 X162.792 Y83.636 E6.05518
G1 X163.384 Y83.772 E6.08567
G1 X163.913 Y84.078 E6.11632
G1 X166.250 Y86.409 E6.28197
G1 X166.604 Y87.014 E6.31717
G1 X166.731 Y87.704 E6.35236
G1 X166.574 Y123.901 E8.16896
G1 X166.361 Y124.942 E8.22231
G1 X166.100 Y125.498 E8.25314
G1 X164.200 Y127.444 E8.38965
G1 X163.597 Y127.797 E8.42467
G1 X162.912 Y127.925 E8.45969
G1 X126.106 Y127.922 E10.30681
G1 X125.498 Y127.793 E10.33799
G1 X124.955 Y127.485 E10.36935
G1 X122.608 Y125.147 E10.53561
G1 X122.254 Y124.542 E10.57081
G1 X122.126 Y123.848 E10.60618
G1 X122.292 Y87.542 E12.42825
G1 X122.507 Y86.576 E12.47792
G1 X122.743 Y86.094 E12.50487
G1 X123.051 Y86.245 F6600.000
G1 F2400.000
G1 X124.862 Y84.391 E12.63492
G1 X125.527 Y84.035 E12.67279
G1 X126.951 Y83.820 E12.74507
G1 X162.762 Y83.980 E14.54227
G1 X163.267 Y84.096 E14.56828
G1 X163.713 Y84.360 E14.59429
G1 X165.981 Y86.625 E14.75515
G1 X166.280 Y87.131 E14.78465
G1 X166.387 Y87.712 E14.81431
G1 X166.229 Y123.885 E16.62967
G1 X166.031 Y124.845 E16.67886
G1 X165.806 Y125.318 E16.70519
G1 X163.984 Y127.175 E16.83574
G1 X163.480 Y127.472 E16.86508
G1 X162.902 Y127.580 E16.89459
G1 X126.126 Y127.578 E18.74026
G1 X125.607 Y127.466 E18.76690
G1 X125.151 Y127.200 E18.79338
G1 X122.877 Y124.931 E18.95461
G1 X122.578 Y124.424 E18.98412
G1 X122.471 Y123.843 E19.01378
G1 X122.635 Y87.588 E20.83331
G1 X122.834 Y86.686 E20.87964
G1 X123.024 Y86.298 E20.90132
G1 X123.332 Y86.449 F6600.000
G1 F2400.000
G1 X123.350 Y86.413 E20.90337
G1 X125.088 Y84.651 E21.02757
G1 X125.633 Y84.363 E21.05850
G1 X126.951 Y84.165 E21.12537
G1 X162.731 Y84.323 E22.92104
G1 X163.145 Y84.419 E22.94237
G1 X163.506 Y84.637 E22.96356
G1 X165.716 Y86.845 E23.12034
G1 X165.957 Y87.253 E23.14408
G1 X166.042 Y87.718 E23.16783
G1 X165.885 Y123.866 E24.98198
G1 X165.701 Y124.745 E25.02704
G1 X165.513 Y125.136 E25.04880
G1 X163.763 Y126.910 E25.17385
G1 X163.358 Y127.150 E25.19746
G1 X162.896 Y127.235 E25.22106
G1 X126.147 Y127.234 E27.06533
G1 X125.723 Y127.141 E27.08709
G1 X125.354 Y126.920 E27.10871
G1 X123.142 Y124.710 E27.26563
G1 X122.901 Y124.303 E27.28938
G1 X122.816 Y123.837 E27.31312
G1 X122.977 Y87.629 E29.13028
G1 X123.161 Y86.797 E29.17307
G1 X123.305 Y86.503 E29.18949
G1 E25.18949
G92 E0
G1 Z0.450 F6600.000
G1 X126.948 Y85.510
G1 Z0.350
G1 E4.00000 F2400.000
;TYPE:Support material
G1 X138.828 Y97.390 E4.84317
G1 X138.828 Y96.693 E4.87814
G1 X127.800 Y85.665 E5.66083
G1 X128.497 Y85.665 E5.69580
G1 X138.828 Y95.996 E6.42905
G1 X138.828 Y95.299 E6.46402
G1 X129.193 Y85.665 E7.14781
G1 X129.890 Y85.665 E7.18278
G1 X138.828 Y94.603 E7.81712
G1 X138.828 Y93.906 E7.85208
G1 X130.587 Y85.665 E8.43697
G1 X131.284 Y85.665 E8.47194
G1 X138.828 Y93.209 E9.00737
G1 X138.828 Y92.512 E9.04234
G1 X131.981 Y85.665 E9.52832
G1 X132.677 Y85.665 E9.56329
G1 X138.828 Y91.815 E9.99982
G1 X138.828 Y91.119 E10.03478
G1 X133.374 Y85.665 E10.42186
G1 X134.071 Y85.665 E10.45683
G1 X138.828 Y90.422 E10.79445
G1 X138.828 Y89.725 E10.82942
G1 X134.768 Y85.665 E11.11758
G1 X135.465 Y85.665 E11.15255
G1 X138.828 Y89.028 E11.39127
G1 X138.828 Y88.332 E11.42623
G1 X136.161 Y85.665 E11.61549
G1 X136.858 Y85.665 E11.65046
G1 X138.983 Y87.790 E11.80129
G1 E7.80129
G92 E0
G1 Z0.450 F6600.000
G1 X164.697 Y87.723
G1 Z0.350
G1 E4.00000 F2400.000
G1 X162.639 Y85.665 E4.14606
G1 X161.942 Y85.665 E4.18103
G1 X164.542 Y88.264 E4.36552
G1 X164.542 Y88.961 E4.40049
G1 X161.245 Y85.665 E4.63444
G1 X160.549 Y85.665 E4.66941
G1 X164.542 Y89.658 E4.95281
G1 X164.542 Y90.355 E4.98777
G1 X159.852 Y85.665 E5.32063
G1 X159.155 Y85.665 E5.35560
G1 X164.542 Y91.052 E5.73790
G1 X164.542 Y91.748 E5.77287
G1 X158.458 Y85.665 E6.20463
G1 X157.761 Y85.665 E6.23960
G1 X164.542 Y92.445 E6.72082
G1 X164.542 Y93.142 E6.75578
G1 X157.065 Y85.665 E7.28645
G1 X156.368 Y85.665 E7.32142
G1 X164.542 Y93.839 E7.90154
G1 X164.542 Y94.535 E7.93651
G1 X155.671 Y85.665 E8.56608
G1 X154.974 Y85.665 E8.60105
G1 X164.542 Y95.232 E9.28007
G1 X164.542 Y95.929 E9.31504
G1 X154.278 Y85.665 E10.04352
G1 X153.581 Y85.665 E10.07849
G1 X164.542 Y96.626 E10.85642
G1 X164.542 Y97.323 E10.89139
G1 X152.884 Y85.665 E11.71878
G1 X152.187 Y85.665 E11.75374
G1 X164.542 Y98.019 E12.63058
G1 X164.542 Y98.716 E12.66555
G1 X151.588 Y85.763 E13.58490
G1 X151.240 Y86.111 E13.60963
G1 X164.542 Y99.413 E14.55371
G1 X164.542 Y100.110 E14.58868
G1 X150.891 Y86.459 E15.55748
G1 X150.543 Y86.808 E15.58221
G1 X164.542 Y100.806 E16.57574
G1 X164.542 Y101.503 E16.61071
G1 X150.195 Y87.156 E17.62897
G1 X150.030 Y87.321 E17.64068
G1 X150.030 Y87.688 E17.65908
G1 X164.542 Y102.200 E18.68905
G1 X164.542 Y102.897 E18.72402
G1 X150.030 Y88.385 E19.75399
G1 X150.030 Y89.082 E19.78896
G1 X164.542 Y103.594 E20.81893
G1 X164.542 Y104.290 E20.85390
G1 X150.030 Y89.778 E21.88387
G1 X150.030 Y90.475 E21.91884
G1 X164.542 Y104.987 E22.94881
G1 X164.542 Y105.684 E22.98377
G1 X150.030 Y91.172 E24.01374
G1 X150.030 Y91.869 E24.04871
G1 X164.542 Y106.381 E25.07868
G1 X164.542 Y107.078 E25.11365
G1 X150.030 Y92.566 E26.14362
G1 X150.030 Y93.262 E26.17859
G1 X164.542 Y107.774 E27.20856
G1 X164.542 Y108.471 E27.24353
G1 X150.030 Y93.959 E28.27350
G1 X150.030 Y94.656 E28.30846
G1 X164.542 Y109.168 E29.33843
G1 X164.542 Y109.865 E29.37340
G1 X150.030 Y95.353 E30.40337
G1 X150.030 Y96.049 E30.43834
G1 X164.542 Y110.561 E31.46831
G1 X164.542 Y111.258 E31.50328
G1 X150.030 Y96.746 E32.53325
G1 X150.030 Y97.443 E32.56822
G1 X164.542 Y111.955 E33.59818
G1 X164.542 Y112.652 E33.63315
G1 X150.030 Y98.140 E34.66312
G1 X150.030 Y98.522 E34.68229
G1 X149.715 Y98.522 E34.69809
G1 X164.542 Y113.349 E35.75040
G1 X164.542 Y114.045 E35.78537
G1 X149.018 Y98.522 E36.88713
G1 X148.321 Y98.522 E36.92210
G1 X164.542 Y114.742 E38.07332
G1 X164.542 Y115.439 E38.10829
G1 X147.625 Y98.522 E39.30896
G1 X146.928 Y98.522 E39.34393
G1 X164.542 Y116.136 E40.59405
G1 X164.542 Y116.832 E40.62902
G1 X146.231 Y98.522 E41.92860
G1 X145.534 Y98.522 E41.96356
G1 X164.542 Y117.529 E43.31259
G1 X164.542 Y118.226 E43.34756
G1 X144.837 Y98.522 E44.74604
G1 X144.141 Y98.522 E44.78101
G1 X164.542 Y118.923 E46.22895
G1 X164.542 Y119.620 E46.26392
G1 X143.444 Y98.522 E47.76131
G1 X142.747 Y98.522 E47.79627
G1 X164.542 Y120.316 E49.34312
G1 X164.542 Y121.013 E49.37808
G1 X142.050 Y98.522 E50.97438
G1 X141.354 Y98.522 E51.00935
G1 X164.542 Y121.710 E52.65510
G1 X164.542 Y122.407 E52.69006
G1 X140.657 Y98.522 E54.38527
G1 X139.960 Y98.522 E54.42023
G1 X164.542 Y123.104 E56.16489
G1 X164.542 Y123.800 E56.19986
G1 X139.263 Y98.522 E57.99396
G1 X138.828 Y98.522 E58.01581
G1 X138.828 Y98.087 E58.03765
G1 X126.406 Y85.665 E58.91925
G1 X125.972 Y85.665 E58.94104
G1 X125.841 Y85.796 E58.95036
G1 X164.410 Y124.366 E61.68777
G1 X164.062 Y124.714 E61.71249
G1 X125.493 Y86.145 E64.44990
G1 X125.144 Y86.493 E64.47463
G1 X163.713 Y125.062 E67.21203
G1 X163.365 Y125.411 E67.23676
G1 X124.796 Y86.841 E69.97416
G1 X124.447 Y87.190 E69.99889
G1 X163.017 Y125.759 E72.73630
G1 X162.885 Y125.891 E72.74562
G1 X162.451 Y125.891 E72.76740
G1 X124.316 Y87.755 E75.47401
G1 X124.316 Y88.452 E75.50897
G1 X161.754 Y125.891 E78.16612
G1 X161.058 Y125.891 E78.20109
G1 X124.316 Y89.149 E80.80879
G1 X124.316 Y89.846 E80.84376
G1 X160.361 Y125.891 E83.40200
G1 X159.664 Y125.891 E83.43697
G1 X124.316 Y90.542 E85.94576
G1 X124.316 Y91.239 E85.98073
G1 X158.967 Y125.891 E88.44007
G1 X158.271 Y125.891 E88.47503
G1 X124.316 Y91.936 E90.88492
G1 X124.316 Y92.633 E90.91989
G1 X157.574 Y125.891 E93.28032
G1 X156.877 Y125.891 E93.31529
G1 X124.316 Y93.329 E95.62627
G1 X124.316 Y94.026 E95.66123
G1 X156.180 Y125.891 E97.92276
G1 X155.483 Y125.891 E97.95773
G1 X124.316 Y94.723 E100.16980
G1 X124.316 Y95.420 E100.20477
G1 X154.787 Y125.891 E102.36739
G1 X154.090 Y125.891 E102.40236
G1 X124.316 Y96.117 E104.51552
G1 X124.316 Y96.813 E104.55049
G1 X153.393 Y125.891 E106.61420
G1 X152.696 Y125.891 E106.64917
G1 X124.316 Y97.510 E108.66343
G1 X124.316 Y98.207 E108.69840
G1 X152.000 Y125.891 E110.66321
G1 X151.303 Y125.891 E110.69817
G1 X124.316 Y98.904 E112.61353
G1 X124.316 Y99.600 E112.64850
G1 X150.606 Y125.891 E114.51440
G1 X149.909 Y125.891 E114.54936
G1 X124.316 Y100.297 E116.36581
G1 X124.316 Y100.994 E116.40078
G1 X149.212 Y125.891 E118.16777
G1 X148.516 Y125.891 E118.20274
G1 X124.316 Y101.691 E119.92028
G1 X124.316 Y102.388 E119.95525
G1 X147.819 Y125.891 E121.62334
G1 X147.122 Y125.891 E121.65831
G1 X124.316 Y103.084 E123.27694
G1 X124.316 Y103.781 E123.31191
G1 X146.425 Y125.891 E124.88109
G1 X145.729 Y125.891 E124.91606
G1 X124.316 Y104.478 E126.43579
G1 X124.316 Y105.175 E126.47076
G1 X145.032 Y125.891 E127.94103
G1 X144.335 Y125.891 E127.97600
G1 X124.316 Y105.872 E129.39683
G1 X124.316 Y106.568 E129.43179
G1 X143.638 Y125.891 E130.80316
G1 X142.941 Y125.891 E130.83813
G1 X124.316 Y107.265 E132.16005
G1 X124.316 Y107.962 E132.19502
G1 X142.245 Y125.891 E133.46748
G1 X141.548 Y125.891 E133.50245
G1 X124.316 Y108.659 E134.72546
G1 X124.316 Y109.355 E134.76043
G1 X140.851 Y125.891 E135.93398
G1 X140.154 Y125.891 E135.96895
G1 X124.316 Y110.052 E137.09306
G1 X124.316 Y110.749 E137.12802
G1 X139.457 Y125.891 E138.20267
G1 X138.761 Y125.891 E138.23764
G1 X124.316 Y111.446 E139.26284
G1 X124.316 Y112.143 E139.29781
G1 X138.064 Y125.891 E140.27355
G1 X137.367 Y125.891 E140.30852
G1 X124.316 Y112.839 E141.23481
G1 X124.316 Y113.536 E141.26978
G1 X136.670 Y125.891 E142.14662
G1 X135.974 Y125.891 E142.18159
G1 X124.316 Y114.233 E143.00897
G1 X124.316 Y114.930 E143.04394
G1 X135.277 Y125.891 E143.82187
G1 X134.580 Y125.891 E143.85684
G1 X124.316 Y115.626 E144.58532
G1 X124.316 Y116.323 E144.62029
G1 X133.883 Y125.891 E145.29932
G1 X133.186 Y125.891 E145.33429
G1 X124.316 Y117.020 E145.96386
G1 X124.316 Y117.717 E145.99883
G1 X132.490 Y125.891 E146.57895
G1 X131.793 Y125.891 E146.61391
G1 X124.316 Y118.414 E147.14458
G1 X124.316 Y119.110 E147.17955
G1 X131.096 Y125.891 E147.66076
G1 X130.399 Y125.891 E147.69573
G1 X124.316 Y119.807 E148.12749
G1 X124.316 Y120.504 E148.16246
G1 X129.703 Y125.891 E148.54477
G1 X129.006 Y125.891 E148.57974
G1 X124.316 Y121.201 E148.91259
G1 X124.316 Y121.898 E148.94756
G1 X128.309 Y125.891 E149.23096
G1 X127.612 Y125.891 E149.26593
G1 X124.316 Y122.594 E149.49988
G1 X124.316 Y123.291 E149.53485
G1 X126.915 Y125.891 E149.71934
G1 X126.219 Y125.891 E149.75431
G1 X124.161 Y123.833 E149.90037
;LAYER_CHANGE
;Z:0.65
;HEIGHT:0.3
G1 Z0.650 F6600.000
M104 S200 ; set temperature
M140 S60 ; set bed temperature
G1 E145.90037 F2400.000
G92 E0
G1 Z0.750 F6600.000
G1 X122.190 Y124.195
G1 Z0.650
G1 E4.00000 F2400.000
;TYPE:Skirt
G1 F3600.000
G1 X122.126 Y123.848 E4.01563
G1 X122.292 Y87.542 E5.62599
G1 X122.507 Y86.576 E5.66990
G1 X122.769 Y86.040 E5.69637
G1 X124.634 Y84.132 E5.81469
G1 X125.417 Y83.707 E5.85423
G1 X126.951 Y83.475 E5.92303
G1 X162.792 Y83.636 E7.51277
G1 X163.384 Y83.772 E7.53971
G1 X163.913 Y84.078 E7.56680
G1 X166.250 Y86.409 E7.71320
G1 X166.604 Y87.014 E7.74431
G1 X166.731 Y87.704 E7.77541
G1 X166.574 Y123.901 E9.38095
G1 X166.361 Y124.942 E9.42809
G1 X166.100 Y125.498 E9.45534
G1 X164.200 Y127.444 E9.57599
G1 X163.597 Y127.797 E9.60694
G1 X162.912 Y127.925 E9.63789
G1 X126.106 Y127.922 E11.27040
G1 X125.498 Y127.793 E11.29796
G1 X124.955 Y127.485 E11.32567
G1 X122.608 Y125.147 E11.47262
G1 X122.254 Y124.542 E11.50372
G1 X122.201 Y124.254 E11.51669
G1 X122.535 Y124.192 F6600.000
G1 F3600.000
G1 X122.471 Y123.843 E11.53244
G1 X122.635 Y87.588 E13.14057
G1 X122.834 Y86.686 E13.18151
G1 X123.061 Y86.224 E13.20436
G1 X124.862 Y84.391 E13.31833
G1 X125.527 Y84.035 E13.35180
G1 X126.951 Y83.820 E13.41568
G1 X162.762 Y83.980 E15.00407
G1 X163.267 Y84.096 E15.02705
G1 X163.713 Y84.360 E15.05004
G1 X165.981 Y86.625 E15.19220
G1 X166.280 Y87.131 E15.21828
G1 X166.387 Y87.712 E15.24450
G1 X166.229 Y123.885 E16.84893
G1 X166.031 Y124.845 E16.89241
G1 X165.806 Y125.318 E16.91567
G1 X163.984 Y127.175 E17.03105
G1 X163.480 Y127.472 E17.05699
G1 X162.902 Y127.580 E17.08307
G1 X126.126 Y127.578 E18.71429
G1 X125.607 Y127.466 E18.73783
G1 X125.151 Y127.200 E18.76124
G1 X122.877 Y124.931 E18.90373
G1 X122.578 Y124.424 E18.92981
G1 X122.546 Y124.251 E18.93761
G1 X122.880 Y124.191 F6600.000
G1 F3600.000
G1 X122.816 Y123.837 E18.95353
G1 X122.977 Y87.629 E20.55955
G1 X123.161 Y86.797 E20.59737
G1 X123.350 Y86.413 E20.61635
G1 X125.088 Y84.651 E20.72612
G1 X125.633 Y84.363 E20.75345
G1 X126.951 Y84.165 E20.81255
G1 X162.731 Y84.323 E22.39958
G1 X163.145 Y84.419 E22.41844
G1 X163.506 Y84.637 E22.43717
G1 X165.716 Y86.845 E22.57573
G1 X165.957 Y87.253 E22.59672
G1 X166.042 Y87.718 E22.61770
G1 X165.885 Y123.866 E24.22106
G1 X165.701 Y124.745 E24.26089
G1 X165.513 Y125.136 E24.28012
G1 X163.763 Y126.910 E24.39065
G1 X163.358 Y127.150 E24.41151
G1 X162.896 Y127.235 E24.43237
G1 X126.147 Y127.234 E26.06235
G1 X125.723 Y127.141 E26.08158
G1 X125.354 Y126.920 E26.10069
G1 X123.142 Y124.710 E26.23938
G1 X122.901 Y124.303 E26.26037
G1 X122.891 Y124.250 E26.26277
G1 E22.26277 F2400.000
G92 E0
G1 Z0.750 F6600.000
G1 X161.142 Y123.049
G1 Z0.650
G1 E4.00000 F2400.000
;TYPE:Support material interface
;WIDTH:0.35
G1 F3600.000
G1 X161.142 Y88.635 E5.22595
G1 X159.856 Y88.635 E5.27175
G1 X159.856 Y122.920 E6.49312
G1 X158.571 Y122.920 E6.53892
G1 X158.571 Y88.635 E7.76028
G1 X157.285 Y88.635 E7.80608
G1 X157.285 Y122.920 E9.02745
G1 X155.999 Y122.920 E9.07325
G1 X155.999 Y88.635 E10.29462
G1 X154.714 Y88.635 E10.34042
G1 X154.714 Y122.920 E11.56179
G1 X153.428 Y122.920 E11.60759
G1 X153.428 Y88.635 E12.82896
G1 X153.000 Y88.635 E12.84421
G1 X153.000 Y101.492 E13.30222
G1 X152.143 Y101.492 E13.33277
G1 X152.143 Y122.920 E14.09613
G1 X150.857 Y122.920 E14.14192
G1 X150.857 Y101.492 E14.90528
G1 X149.571 Y101.492 E14.95108
G1 X149.571 Y122.920 E15.71444
G1 X148.286 Y122.920 E15.76023
G1 X148.286 Y101.492 E16.52359
G1 X147.000 Y101.492 E16.56939
G1 X147.000 Y122.920 E17.33275
G1 X145.714 Y122.920 E17.37854
G1 X145.714 Y101.492 E18.14190
G1 X144.429 Y101.492 E18.18770
G1 X144.429 Y122.920 E18.95106
G1 X143.143 Y122.920 E18.99685
G1 X143.143 Y101.492 E19.76021
G1 X141.858 Y101.492 E19.80601
G1 X141.858 Y122.920 E20.56937
G1 X140.572 Y122.920 E20.61516
G1 X140.572 Y101.492 E21.37852
G1 X139.286 Y101.492 E21.42432
G1 X139.286 Y122.920 E22.18768
G1 X138.001 Y122.920 E22.23348
G1 X138.001 Y101.492 E22.99683
G1 X136.715 Y101.492 E23.04263
G1 X136.715 Y122.920 E23.80599
G1 X135.429 Y122.920 E23.85179
G1 X135.429 Y88.635 E25.07315
G1 X134.144 Y88.635 E25.11895
G1 X134.144 Y122.920 E26.34032
G1 X132.858 Y122.920 E26.38612
G1 X132.858 Y88.635 E27.60749
G1 X131.573 Y88.635 E27.65329
G1 X131.573 Y122.920 E28.87466
G1 X130.287 Y122.920 E28.92046
G1 X130.287 Y88.635 E30.14183
G1 X129.001 Y88.635 E30.18763
G1 X129.001 Y122.920 E31.40900
G1 X127.716 Y122.920 E31.45479
G1 X127.716 Y88.507 E32.68074
;LAYER_CHANGE
;Z:1.25
;HEIGHT:0.6
G1 Z1.250 F6600.000
G1 E28.68074 F2400.000
G92 E0
G1 Z1.350 F6600.000
G1 X130.382 Y96.431
G1 Z1.250
G1 E4.00000 F2400.000
;TYPE:Overhang perimeter
;WIDTH:0.4
;HEIGHT:0.4
G1 F3600.000
G1 X131.476 Y96.431 E4.05712
G1 X131.476 Y105.110 E4.51056
