; generated by PrusaSlicer 2.3.1+win64 on 2021-07-17 at 19:43:10 UTC

; 

; external perimeters extrusion width = 0.45mm
; perimeters extrusion width = 0.45mm
; infill extrusion width = 0.45mm
; solid infill extrusion width = 0.45mm
; top infill extrusion width = 0.40mm
; support material extrusion width = 0.35mm
; first layer extrusion width = 0.42mm

M107
M190 S80 ; set bed temperature and wait for it to be reached
M104 S230 ; set temperature
;TYPE:Custom
G28 ; home all axes
G1 Z5 F5000 ; lift nozzle
M109 S230 ; set temperature and wait for it to be reached
G21 ; set units to millimeters
G90 ; use absolute coordinates
M82 ; use absolute distances for extrusion
G92 E0
; Filament gcode
;LAYER_CHANGE
;Z:0.35
;HEIGHT:0.35
G1 Z0.350 F6600.000
G1 E-4.00000 F2400.000
G92 E0
G1 Z0.450 F6600.000
G1 X129.600 Y69.939
G1 Z0.350
G1 E4.00000 F2400.000
;TYPE:Skirt
;WIDTH:0.42
G1 X129.902 Y69.380 E4.03188
G1 X131.895 Y67.411 E4.17247
G1 X132.452 Y67.144 E4.20348
G1 X133.483 Y66.929 E4.25636
G1 X169.846 Y66.925 E6.08122
G1 X170.586 Y67.065 E6.11903
G1 X171.224 Y67.466 E6.15683
G1 X173.462 Y69.714 E6.31605
G1 X173.749 Y70.168 E6.34303
G1 X173.907 Y70.682 E6.37001
G1 X173.778 Y90.438 E7.36146
G1 X173.674 Y91.018 E7.39107
G1 X168.884 Y105.060 E8.13564
G1 X168.576 Y105.635 E8.16839
G1 X168.256 Y105.967 E8.19151
G1 X167.873 Y106.217 E8.21445
G1 X167.441 Y106.376 E8.23757
G1 X166.984 Y106.434 E8.26069
G1 X141.147 Y106.434 E9.55737
G1 X140.511 Y106.321 E9.58978
G1 X139.942 Y106.016 E9.62218
G1 X138.744 Y104.788 E9.70827
G1 X129.652 Y90.808 E10.54518
G1 X129.401 Y90.244 E10.57618
G1 X129.329 Y89.700 E10.60369
G1 X129.485 Y70.567 E11.56392
G1 X129.589 Y69.998 E11.59296
G1 X129.924 Y70.059 F6600.000
G1 F2400.000
G1 X130.182 Y69.582 E11.62017
G1 X132.081 Y67.703 E11.75424
G1 X132.559 Y67.472 E11.78089
G1 X133.513 Y67.272 E11.82981
G1 X169.845 Y67.270 E13.65318
G1 X170.466 Y67.389 E13.68490
G1 X170.997 Y67.726 E13.71647
G1 X173.188 Y69.924 E13.87223
G1 X173.437 Y70.316 E13.89553
G1 X173.570 Y70.757 E13.91866
G1 X173.433 Y90.440 E14.90648
G1 X173.347 Y90.909 E14.93042
G1 X168.557 Y104.948 E15.67485
G1 X168.297 Y105.432 E15.70245
G1 X167.714 Y105.911 E15.74032
G1 X166.977 Y106.089 E15.77835
G1 X141.156 Y106.089 E17.07421
G1 X140.620 Y105.994 E17.10149
G1 X140.145 Y105.737 E17.12861
G1 X139.031 Y104.596 E17.20866
G1 X129.944 Y90.623 E18.04513
G1 X129.735 Y90.156 E18.07082
G1 X129.674 Y89.699 E18.09395
G1 X129.830 Y70.579 E19.05352
G1 X129.914 Y70.118 E19.07705
G1 X130.249 Y70.179 F6600.000
G1 F2400.000
G1 X130.458 Y69.789 E19.09928
G1 X132.268 Y67.992 E19.22726
G1 X132.661 Y67.802 E19.24916
G1 X133.535 Y67.617 E19.29399
G1 X169.845 Y67.614 E21.11626
G1 X170.343 Y67.711 E21.14170
G1 X170.767 Y67.983 E21.16700
G1 X172.915 Y70.135 E21.31962
G1 X173.123 Y70.457 E21.33882
G1 X173.231 Y70.827 E21.35816
G1 X173.088 Y90.437 E22.34235
G1 X173.019 Y90.802 E22.36098
G1 X168.231 Y104.836 E23.10517
G1 X168.021 Y105.225 E23.12736
G1 X167.554 Y105.606 E23.15758
G1 X166.971 Y105.744 E23.18767
G1 X141.164 Y105.744 E24.48280
G1 X140.734 Y105.669 E24.50470
G1 X140.351 Y105.460 E24.52661
G1 X139.317 Y104.404 E24.60077
G1 X130.233 Y90.436 E25.43696
G1 X130.068 Y90.066 E25.45730
G1 X130.019 Y89.701 E25.47579
G1 X130.174 Y70.590 E26.43490
G1 X130.238 Y70.238 E26.45286
G1 E22.45286
G92 E0
G1 Z0.450 F6600.000
G1 X146.186 Y71.084
G1 Z0.350
G1 E4.00000 F2400.000
;TYPE:Support material
G1 X144.061 Y68.959 E4.15082
G1 X143.364 Y68.959 E4.18579
G1 X146.031 Y71.626 E4.37505
G1 X146.031 Y72.323 E4.41002
G1 X142.668 Y68.959 E4.64874
G1 X141.971 Y68.959 E4.68370
G1 X146.031 Y73.020 E4.97187
G1 X146.031 Y73.716 E5.00684
G1 X141.274 Y68.959 E5.34446
G1 X140.577 Y68.959 E5.37943
G1 X146.031 Y74.413 E5.76650
G1 X146.031 Y75.110 E5.80147
G1 X139.881 Y68.959 E6.23800
G1 X139.184 Y68.959 E6.27297
G1 X146.031 Y75.807 E6.75895
G1 X146.031 Y76.503 E6.79391
G1 X138.487 Y68.959 E7.32935
G1 X137.790 Y68.959 E7.36432
G1 X146.031 Y77.200 E7.94920
G1 X146.031 Y77.531 E7.96578
G1 X146.361 Y77.531 E7.98236
G1 X160.873 Y92.043 E9.01232
G1 X161.570 Y92.043 E9.04729
G1 X147.058 Y77.531 E10.07726
G1 X147.755 Y77.531 E10.11223
G1 X162.267 Y92.043 E11.14219
G1 X162.964 Y92.043 E11.17716
G1 X148.452 Y77.531 E12.20712
G1 X149.148 Y77.531 E12.24209
G1 X163.660 Y92.043 E13.27206
G1 X164.357 Y92.043 E13.30703
G1 X149.845 Y77.531 E14.33699
G1 X150.542 Y77.531 E14.37196
G1 X165.054 Y92.043 E15.40193
G1 X165.751 Y92.043 E15.43689
G1 X151.239 Y77.531 E16.46686
G1 X151.936 Y77.531 E16.50183
G1 X166.448 Y92.043 E17.53179
G1 X167.144 Y92.043 E17.56676
G1 X152.632 Y77.531 E18.59673
G1 X153.329 Y77.531 E18.63170
G1 X167.841 Y92.043 E19.66166
G1 X168.538 Y92.043 E19.69663
G1 X154.026 Y77.531 E20.72660
G1 X154.723 Y77.531 E20.76156
G1 X169.235 Y92.043 E21.79153
G1 X169.931 Y92.043 E21.82650
G1 X155.420 Y77.531 E22.85646
G1 X156.116 Y77.531 E22.89143
G1 X170.358 Y91.773 E23.90224
G1 X170.707 Y91.424 E23.92697
G1 X156.813 Y77.531 E24.91305
G1 X157.233 Y77.531 E24.93411
G1 X157.233 Y77.253 E24.94802
G1 X171.055 Y91.076 E25.92904
G1 X171.403 Y90.727 E25.95377
G1 X157.233 Y76.557 E26.95952
G1 X157.233 Y75.860 E26.99448
G1 X171.745 Y90.372 E28.02445
G1 X171.745 Y89.675 E28.05942
G1 X157.233 Y75.163 E29.08939
G1 X157.233 Y74.466 E29.12436
G1 X171.745 Y88.978 E30.15433
G1 X171.745 Y88.282 E30.18930
G1 X157.233 Y73.770 E31.21927
G1 X157.233 Y73.073 E31.25424
G1 X171.745 Y87.585 E32.28420
G1 X171.745 Y86.888 E32.31917
G1 X157.233 Y72.376 E33.34914
G1 X157.233 Y71.679 E33.38411
G1 X171.745 Y86.191 E34.41408
G1 X171.745 Y85.494 E34.44905
G1 X157.233 Y70.982 E35.47902
G1 X157.233 Y70.616 E35.49743
G1 X157.398 Y70.451 E35.50914
G1 X171.745 Y84.798 E36.52739
G1 X171.745 Y84.101 E36.56236
G1 X157.746 Y70.102 E37.55589
G1 X158.095 Y69.754 E37.58062
G1 X171.745 Y83.404 E38.54943
G1 X171.745 Y82.707 E38.58440
G1 X158.443 Y69.405 E39.52847
G1 X158.791 Y69.057 E39.55320
G1 X171.745 Y82.011 E40.47255
G1 X171.745 Y81.314 E40.50752
G1 X159.390 Y68.959 E41.38436
G1 X160.087 Y68.959 E41.41933
G1 X171.745 Y80.617 E42.24671
G1 X171.745 Y79.920 E42.28168
G1 X160.784 Y68.959 E43.05961
G1 X161.481 Y68.959 E43.09458
G1 X171.745 Y79.223 E43.82306
G1 X171.745 Y78.527 E43.85803
G1 X162.177 Y68.959 E44.53705
G1 X162.874 Y68.959 E44.57202
G1 X171.745 Y77.830 E45.20160
G1 X171.745 Y77.133 E45.23656
G1 X163.571 Y68.959 E45.81668
G1 X164.268 Y68.959 E45.85165
G1 X171.745 Y76.436 E46.38232
G1 X171.745 Y75.740 E46.41729
G1 X164.965 Y68.959 E46.89850
G1 X165.661 Y68.959 E46.93347
G1 X171.745 Y75.043 E47.36523
G1 X171.745 Y74.346 E47.40020
G1 X166.358 Y68.959 E47.78251
G1 X167.055 Y68.959 E47.81747
G1 X171.745 Y73.649 E48.15033
G1 X171.745 Y72.952 E48.18530
G1 X167.752 Y68.959 E48.46870
G1 X168.449 Y68.959 E48.50367
G1 X171.745 Y72.256 E48.73761
G1 X171.745 Y71.559 E48.77258
G1 X169.145 Y68.959 E48.95708
G1 X169.842 Y68.959 E48.99205
G1 X171.900 Y71.017 E49.13810
G1 E45.13810
G92 E0
G1 Z0.450 F6600.000
G1 X131.364 Y89.708
G1 Z0.350
G1 E4.00000 F2400.000
G1 X133.699 Y92.043 E4.16572
G1 X134.396 Y92.043 E4.20069
G1 X131.519 Y89.166 E4.40485
G1 X131.519 Y88.469 E4.43982
G1 X135.092 Y92.043 E4.69344
G1 X135.789 Y92.043 E4.72840
G1 X131.519 Y87.772 E5.03147
G1 X131.519 Y87.076 E5.06644
G1 X136.486 Y92.043 E5.41896
G1 X137.183 Y92.043 E5.45393
G1 X131.519 Y86.379 E5.85590
G1 X131.519 Y85.682 E5.89087
G1 X137.880 Y92.043 E6.34230
G1 X138.576 Y92.043 E6.37727
G1 X131.519 Y84.985 E6.87815
G1 X131.519 Y84.288 E6.91312
G1 X139.273 Y92.043 E7.46345
G1 X139.970 Y92.043 E7.49842
G1 X131.519 Y83.592 E8.09820
G1 X131.519 Y82.895 E8.13317
G1 X140.667 Y92.043 E8.78241
G1 X141.363 Y92.043 E8.81738
G1 X131.519 Y82.198 E9.51607
G1 X131.519 Y81.501 E9.55104
G1 X142.060 Y92.043 E10.29919
G1 X142.757 Y92.043 E10.33416
G1 X131.519 Y80.805 E11.13175
G1 X131.519 Y80.108 E11.16672
G1 X143.454 Y92.043 E12.01378
G1 X144.151 Y92.043 E12.04874
G1 X131.519 Y79.411 E12.94525
G1 X131.519 Y78.714 E12.98022
G1 X144.847 Y92.043 E13.92618
G1 X145.544 Y92.043 E13.96114
G1 X131.519 Y78.017 E14.95655
G1 X131.519 Y77.321 E14.99152
G1 X146.241 Y92.043 E16.03639
G1 X146.938 Y92.043 E16.07136
G1 X131.519 Y76.624 E17.16567
G1 X131.519 Y75.927 E17.20064
G1 X147.634 Y92.043 E18.34441
G1 X148.331 Y92.043 E18.37938
G1 X131.519 Y75.230 E19.57260
G1 X131.519 Y74.534 E19.60757
G1 X149.028 Y92.043 E20.85025
G1 X149.725 Y92.043 E20.88522
G1 X131.519 Y73.837 E22.17735
G1 X131.519 Y73.140 E22.21232
G1 X150.422 Y92.043 E23.55390
G1 X151.118 Y92.043 E23.58887
G1 X131.519 Y72.443 E24.97990
G1 X131.519 Y71.746 E25.01487
G1 X151.815 Y92.043 E26.45536
G1 X152.512 Y92.043 E26.49033
G1 X131.519 Y71.050 E27.98027
G1 X131.519 Y70.616 E28.00205
G1 X131.650 Y70.484 E28.01138
G1 X153.209 Y92.043 E29.54144
G1 X153.905 Y92.043 E29.57641
G1 X131.999 Y70.136 E31.13120
G1 X132.347 Y69.787 E31.15593
G1 X154.602 Y92.043 E32.73545
G1 X155.299 Y92.043 E32.77042
G1 X132.696 Y69.439 E34.37467
G1 X133.044 Y69.091 E34.39939
G1 X155.996 Y92.043 E36.02837
G1 X156.693 Y92.043 E36.06333
G1 X133.609 Y68.959 E37.70163
G1 X134.306 Y68.959 E37.73660
G1 X157.389 Y92.043 E39.37489
G1 X158.086 Y92.043 E39.40986
G1 X135.003 Y68.959 E41.04816
G1 X135.700 Y68.959 E41.08313
G1 X158.783 Y92.043 E42.72142
G1 X159.480 Y92.043 E42.75639
G1 X136.397 Y68.959 E44.39469
G1 X137.093 Y68.959 E44.42966
G1 X160.332 Y92.198 E46.07897
G1 E42.07897
G92 E0
G1 Z0.450 F6600.000
G1 X167.114 Y95.496
G1 Z0.350
G1 E4.00000 F2400.000
G1 X166.791 Y95.173 E4.02296
G1 X166.094 Y95.173 E4.05793
G1 X166.959 Y96.038 E4.11932
G1 X166.959 Y96.735 E4.15429
G1 X165.397 Y95.173 E4.26514
G1 X164.701 Y95.173 E4.30011
G1 X166.959 Y97.432 E4.46041
G1 X166.959 Y98.128 E4.49538
G1 X164.004 Y95.173 E4.70514
G1 X163.307 Y95.173 E4.74011
G1 X166.959 Y98.825 E4.99931
G1 X166.959 Y99.522 E5.03428
G1 X162.610 Y95.173 E5.34295
G1 X161.913 Y95.173 E5.37791
G1 X166.959 Y100.219 E5.73603
G1 X166.959 Y100.916 E5.77100
G1 X161.217 Y95.173 E6.17857
G1 X160.520 Y95.173 E6.21353
G1 X166.959 Y101.612 E6.67056
G1 X166.959 Y102.309 E6.70552
G1 X159.823 Y95.173 E7.21200
G1 X159.126 Y95.173 E7.24697
G1 X166.959 Y103.006 E7.80289
G1 X166.959 Y103.703 E7.83786
G1 X158.430 Y95.173 E8.44324
G1 X157.733 Y95.173 E8.47821
G1 X166.959 Y104.399 E9.13304
G1 X166.262 Y104.399 E9.16801
G1 X157.036 Y95.173 E9.82284
G1 X156.339 Y95.173 E9.85781
G1 X165.566 Y104.399 E10.51264
G1 X164.869 Y104.399 E10.54761
G1 X155.642 Y95.173 E11.20244
G1 X154.946 Y95.173 E11.23740
G1 X164.172 Y104.399 E11.89223
G1 X163.475 Y104.399 E11.92720
G1 X154.249 Y95.173 E12.58203
G1 X153.552 Y95.173 E12.61700
G1 X162.778 Y104.399 E13.27183
G1 X162.082 Y104.399 E13.30680
G1 X152.855 Y95.173 E13.96163
G1 X152.158 Y95.173 E13.99660
G1 X161.385 Y104.399 E14.65143
G1 X160.688 Y104.399 E14.68639
G1 X151.462 Y95.173 E15.34122
G1 X150.765 Y95.173 E15.37619
G1 X159.991 Y104.399 E16.03102
G1 X159.295 Y104.399 E16.06599
G1 X150.068 Y95.173 E16.72082
G1 X149.371 Y95.173 E16.75579
G1 X158.598 Y104.399 E17.41062
G1 X157.901 Y104.399 E17.44559
G1 X148.675 Y95.173 E18.10042
G1 X147.978 Y95.173 E18.13538
G1 X157.204 Y104.399 E18.79021
G1 X156.507 Y104.399 E18.82518
G1 X147.281 Y95.173 E19.48001
G1 X146.584 Y95.173 E19.51498
G1 X155.811 Y104.399 E20.16981
G1 X155.114 Y104.399 E20.20478
G1 X145.887 Y95.173 E20.85961
G1 X145.191 Y95.173 E20.89458
G1 X154.417 Y104.399 E21.54941
G1 X153.720 Y104.399 E21.58437
G1 X144.494 Y95.173 E22.23920
G1 X143.797 Y95.173 E22.27417
G1 X153.023 Y104.399 E22.92900
G1 X152.327 Y104.399 E22.96397
G1 X143.100 Y95.173 E23.61880
G1 X142.404 Y95.173 E23.65377
G1 X151.630 Y104.399 E24.30860
G1 X150.933 Y104.399 E24.34357
G1 X141.707 Y95.173 E24.99840
G1 X141.010 Y95.173 E25.03336
G1 X150.236 Y104.399 E25.68819
G1 X149.540 Y104.399 E25.72316
G1 X140.590 Y95.450 E26.35833
G1 X140.590 Y96.147 E26.39330
G1 X148.843 Y104.399 E26.97901
G1 X148.146 Y104.399 E27.01398
G1 X140.590 Y96.844 E27.55024
G1 X140.590 Y97.540 E27.58521
G1 X147.449 Y104.399 E28.07201
G1 X146.752 Y104.399 E28.10698
G1 X140.590 Y98.237 E28.54434
G1 X140.590 Y98.934 E28.57930
G1 X146.056 Y104.399 E28.96720
G1 X145.359 Y104.399 E29.00217
G1 X140.590 Y99.631 E29.34062
G1 X140.590 Y100.328 E29.37559
G1 X144.662 Y104.399 E29.66458
G1 X143.965 Y104.399 E29.69955
G1 X140.590 Y101.024 E29.93909
G1 X140.590 Y101.721 E29.97406
G1 X143.269 Y104.399 E30.16415
G1 X142.572 Y104.399 E30.19912
G1 X140.590 Y102.418 E30.33975
G1 X140.590 Y103.115 E30.37472
G1 X141.875 Y104.399 E30.46590
G1 X141.178 Y104.399 E30.50087
G1 X140.435 Y103.656 E30.55362
;LAYER_CHANGE
;Z:0.65
;HEIGHT:0.3
G1 Z0.650 F6600.000
M104 S200 ; set temperature
M140 S60 ; set bed temperature
G1 E26.55362 F2400.000
G92 E0
G1 Z0.750 F6600.000
G1 X139.003 Y105.053
G1 Z0.650
G1 E4.00000 F2400.000
;TYPE:Skirt
G1 F3600.000
G1 X138.744 Y104.788 E4.01646
G1 X129.652 Y90.808 E4.75613
G1 X129.401 Y90.244 E4.78353
G1 X129.329 Y89.700 E4.80784
G1 X129.485 Y70.567 E5.65650
G1 X129.600 Y69.939 E5.68483
G1 X129.902 Y69.380 E5.71301
G1 X131.895 Y67.411 E5.83726
G1 X132.452 Y67.144 E5.86467
G1 X133.483 Y66.929 E5.91140
G1 X169.846 Y66.925 E7.52424
G1 X170.586 Y67.065 E7.55765
G1 X171.224 Y67.466 E7.59106
G1 X173.462 Y69.714 E7.73178
G1 X173.749 Y70.168 E7.75562
G1 X173.907 Y70.682 E7.77947
G1 X173.778 Y90.438 E8.65573
G1 X173.674 Y91.018 E8.68189
G1 X168.884 Y105.060 E9.33995
G1 X168.576 Y105.635 E9.36890
G1 X168.256 Y105.967 E9.38933
G1 X167.873 Y106.217 E9.40961
G1 X167.441 Y106.376 E9.43004
G1 X166.984 Y106.434 E9.45047
G1 X141.147 Y106.434 E10.59649
G1 X140.511 Y106.321 E10.62513
G1 X139.942 Y106.016 E10.65377
G1 X139.045 Y105.096 E10.71074
G1 X139.288 Y104.859 F6600.000
G1 F3600.000
G1 X139.031 Y104.596 E10.72706
G1 X129.944 Y90.623 E11.46634
G1 X129.735 Y90.156 E11.48904
G1 X129.674 Y89.699 E11.50949
G1 X129.830 Y70.579 E12.35757
G1 X129.925 Y70.054 E12.38126
G1 X130.182 Y69.582 E12.40509
G1 X132.081 Y67.703 E12.52358
G1 X132.559 Y67.472 E12.54713
G1 X133.513 Y67.272 E12.59036
G1 X169.845 Y67.270 E14.20188
G1 X170.466 Y67.389 E14.22992
G1 X170.997 Y67.726 E14.25782
G1 X173.188 Y69.924 E14.39548
G1 X173.437 Y70.316 E14.41607
G1 X173.570 Y70.757 E14.43652
G1 X173.433 Y90.440 E15.30956
G1 X173.347 Y90.909 E15.33072
G1 X168.557 Y104.948 E15.98865
G1 X168.297 Y105.432 E16.01304
G1 X167.714 Y105.911 E16.04652
G1 X166.977 Y106.089 E16.08013
G1 X141.156 Y106.089 E17.22542
G1 X140.620 Y105.994 E17.24953
G1 X140.145 Y105.737 E17.27350
G1 X139.330 Y104.902 E17.32526
G1 X139.572 Y104.665 F6600.000
G1 F3600.000
G1 X139.317 Y104.404 E17.34145
G1 X130.233 Y90.436 E18.08048
G1 X130.068 Y90.066 E18.09846
G1 X130.019 Y89.701 E18.11480
G1 X130.174 Y70.590 E18.96247
G1 X130.251 Y70.167 E18.98157
G1 X130.458 Y69.789 E19.00068
G1 X132.268 Y67.992 E19.11379
G1 X132.661 Y67.802 E19.13315
G1 X133.535 Y67.617 E19.17277
G1 X169.845 Y67.614 E20.78331
G1 X170.343 Y67.711 E20.80579
G1 X170.767 Y67.983 E20.82815
G1 X172.915 Y70.135 E20.96304
G1 X173.123 Y70.457 E20.98001
G1 X173.231 Y70.827 E20.99711
G1 X173.088 Y90.437 E21.86694
G1 X173.019 Y90.802 E21.88341
G1 X168.231 Y104.836 E22.54113
G1 X168.021 Y105.225 E22.56074
G1 X167.554 Y105.606 E22.58745
G1 X166.971 Y105.744 E22.61404
G1 X141.164 Y105.744 E23.75869
G1 X140.734 Y105.669 E23.77805
G1 X140.351 Y105.460 E23.79741
G1 X139.614 Y104.707 E23.84411
G1 E19.84411 F2400.000
G92 E0
G1 Z0.750 F6600.000
G1 X164.457 Y101.897
G1 Z0.650
G1 E4.00000 F2400.000
;TYPE:Support material
;WIDTH:0.35
G1 F3600.000
G1 X164.457 Y97.676 E4.15038
G1 X143.093 Y97.676 E4.91144
G1 X143.093 Y101.897 E5.06182
G1 X164.457 Y101.897 E5.82289
G1 E1.82289 F2400.000
G92 E0
G1 Z0.750 F6600.000
G1 X168.345 Y89.201
G1 Z0.650
G1 E4.00000 F2400.000
;TYPE:Support material interface
G1 F3600.000
G1 X168.345 Y71.930 E4.61526
G1 X167.059 Y71.930 E4.66106
G1 X167.059 Y89.072 E5.27175
G1 X165.774 Y89.072 E5.31755
G1 X165.774 Y71.930 E5.92823
G1 X164.488 Y71.930 E5.97403
G1 X164.488 Y89.072 E6.58472
G1 X163.203 Y89.072 E6.63052
G1 X163.203 Y71.930 E7.24120
G1 X161.917 Y71.930 E7.28700
G1 X161.917 Y89.072 E7.89768
G1 X160.631 Y89.072 E7.94348
G1 X160.631 Y71.930 E8.55417
G1 X160.203 Y71.930 E8.56942
G1 X160.203 Y80.501 E8.87476
