; generated by PrusaSlicer 2.3.1+win64 on 2021-07-14 at 19:38:59 UTC

; 

; external perimeters extrusion width = 0.45mm
; perimeters extrusion width = 0.45mm
; infill extrusion width = 0.45mm
; solid infill extrusion width = 0.45mm
; top infill extrusion width = 0.40mm
; support material extrusion width = 0.35mm
; first layer extrusion width = 0.42mm

M107
M190 S80 ; set bed temperature and wait for it to be reached
M104 S230 ; set temperature
;TYPE:Custom
G28 ; home all axes
G1 Z5 F5000 ; lift nozzle
M109 S230 ; set temperature and wait for it to be reached
G21 ; set units to millimeters
G90 ; use absolute coordinates
M82 ; use absolute distances for extrusion
G92 E0
; Filament gcode
;LAYER_CHANGE
;Z:0.35
;HEIGHT:0.35
G1 Z0.350 F6600.000
G1 E-4.00000 F2400.000
G92 E0
G1 Z0.450 F6600.000
G1 X128.999 Y74.759
G1 Z0.350
G1 E4.00000 F2400.000
;TYPE:Skirt
;WIDTH:0.42
G1 X130.734 Y73.008 E4.12370
G1 X131.294 Y72.641 E4.15732
G1 X132.003 Y72.471 E4.19391
G1 X137.273 Y72.313 E4.45848
G1 X168.956 Y72.476 E6.04856
G1 X169.547 Y72.618 E6.07905
G1 X170.066 Y72.926 E6.10935
G1 X172.467 Y75.340 E6.28021
G1 X172.767 Y75.912 E6.31262
G1 X172.873 Y76.548 E6.34502
G1 X172.715 Y112.749 E8.16180
G1 X172.500 Y113.790 E8.21515
G1 X172.230 Y114.354 E8.24651
G1 X170.248 Y116.356 E8.38794
G1 X169.680 Y116.656 E8.42017
G1 X169.050 Y116.763 E8.45222
G1 X132.241 Y116.760 E10.29952
G1 X131.630 Y116.628 E10.33088
G1 X131.086 Y116.314 E10.36241
G1 X128.675 Y113.891 E10.53395
G1 X128.374 Y113.320 E10.56635
G1 X128.268 Y112.683 E10.59875
G1 X128.465 Y76.182 E12.43061
G1 X128.684 Y75.314 E12.47552
G1 X128.969 Y74.811 E12.50456
G1 X129.267 Y74.978 F6600.000
G1 F2400.000
G1 X130.966 Y73.263 E12.62571
G1 X131.454 Y72.947 E12.65489
G1 X132.030 Y72.815 E12.68456
G1 X137.274 Y72.658 E12.94787
G1 X168.921 Y72.819 E14.53609
G1 X169.421 Y72.939 E14.56194
G1 X169.863 Y73.205 E14.58779
G1 X172.187 Y75.543 E14.75324
G1 X172.440 Y76.020 E14.78036
G1 X172.528 Y76.553 E14.80749
G1 X172.371 Y112.726 E16.62284
G1 X172.171 Y113.689 E16.67220
G1 X171.940 Y114.167 E16.69884
G1 X170.045 Y116.077 E16.83388
G1 X169.571 Y116.329 E16.86084
G1 X169.041 Y116.418 E16.88780
G1 X132.261 Y116.415 E18.73363
G1 X131.743 Y116.301 E18.76027
G1 X131.285 Y116.032 E18.78692
G1 X128.954 Y113.689 E18.95279
G1 X128.702 Y113.211 E18.97991
G1 X128.613 Y112.678 E19.00703
G1 X128.802 Y76.257 E20.83485
G1 X129.002 Y75.448 E20.87668
G1 X129.237 Y75.030 E20.90075
G1 X129.535 Y75.196 F6600.000
G1 F2400.000
G1 X131.196 Y73.520 E21.01916
G1 X131.604 Y73.258 E21.04347
G1 X132.052 Y73.159 E21.06650
G1 X137.273 Y73.003 E21.32864
G1 X168.888 Y73.162 E22.91527
G1 X169.298 Y73.261 E22.93646
G1 X169.655 Y73.481 E22.95751
G1 X171.908 Y75.746 E23.11782
G1 X172.112 Y76.128 E23.13958
G1 X172.184 Y76.556 E23.16134
G1 X172.027 Y112.707 E24.97563
G1 X171.842 Y113.586 E25.02070
G1 X171.650 Y113.981 E25.04274
G1 X169.842 Y115.798 E25.17137
G1 X169.462 Y116.001 E25.19299
G1 X169.038 Y116.073 E25.21461
G1 X132.283 Y116.071 E27.05917
G1 X131.860 Y115.977 E27.08093
G1 X131.491 Y115.755 E27.10254
G1 X129.233 Y113.486 E27.26319
G1 X129.029 Y113.103 E27.28495
G1 X128.958 Y112.675 E27.30671
G1 X129.139 Y76.331 E29.13070
G1 X129.320 Y75.583 E29.16933
G1 X129.506 Y75.248 E29.18856
G1 E25.18856
G92 E0
G1 Z0.450 F6600.000
G1 X137.271 Y74.348
G1 Z0.350
G1 E4.00000 F2400.000
;TYPE:Support material
G1 X149.255 Y86.333 E4.85061
G1 X149.255 Y85.636 E4.88558
G1 X138.122 Y74.503 E5.67573
G1 X138.819 Y74.503 E5.71070
G1 X149.255 Y84.939 E6.45139
G1 X149.255 Y84.242 E6.48636
G1 X139.516 Y74.503 E7.17760
G1 X140.213 Y74.503 E7.21257
G1 X149.255 Y83.545 E7.85435
G1 X149.255 Y82.849 E7.88932
G1 X140.910 Y74.503 E8.48166
G1 X141.606 Y74.503 E8.51663
G1 X149.255 Y82.152 E9.05951
G1 X149.255 Y81.455 E9.09447
G1 X142.303 Y74.503 E9.58790
G1 X143.000 Y74.503 E9.62287
G1 X149.255 Y80.758 E10.06685
G1 X149.255 Y80.062 E10.10181
G1 X143.697 Y74.503 E10.49634
G1 X144.394 Y74.503 E10.53130
G1 X149.255 Y79.365 E10.87637
G1 X149.255 Y78.668 E10.91134
G1 X145.090 Y74.503 E11.20696
G1 X145.787 Y74.503 E11.24192
G1 X149.255 Y77.971 E11.48809
G1 X149.255 Y77.274 E11.52305
G1 X146.484 Y74.503 E11.71976
G1 X147.181 Y74.503 E11.75473
G1 X149.411 Y76.733 E11.91300
G1 E7.91300
G92 E0
G1 Z0.450 F6600.000
G1 X170.839 Y76.561
G1 Z0.350
G1 E4.00000 F2400.000
G1 X168.781 Y74.503 E4.14606
G1 X168.084 Y74.503 E4.18103
G1 X170.684 Y77.102 E4.36552
G1 X170.684 Y77.799 E4.40049
G1 X167.387 Y74.503 E4.63444
G1 X166.690 Y74.503 E4.66941
G1 X170.684 Y78.496 E4.95281
G1 X170.684 Y79.193 E4.98777
G1 X165.994 Y74.503 E5.32063
G1 X165.297 Y74.503 E5.35560
G1 X170.684 Y79.889 E5.73790
G1 X170.684 Y80.586 E5.77287
G1 X164.600 Y74.503 E6.20463
G1 X163.903 Y74.503 E6.23960
G1 X170.684 Y81.283 E6.72082
G1 X170.684 Y81.980 E6.75578
G1 X163.207 Y74.503 E7.28645
G1 X162.510 Y74.503 E7.32142
G1 X170.684 Y82.677 E7.90154
G1 X170.684 Y83.373 E7.93651
G1 X161.813 Y74.503 E8.56608
G1 X161.116 Y74.503 E8.60105
G1 X170.684 Y84.070 E9.28007
G1 X170.684 Y84.767 E9.31504
G1 X160.419 Y74.503 E10.04352
G1 X159.723 Y74.503 E10.07849
G1 X170.684 Y85.464 E10.85642
G1 X170.684 Y86.160 E10.89139
G1 X159.026 Y74.503 E11.71878
G1 X158.329 Y74.503 E11.75374
G1 X170.684 Y86.857 E12.63058
G1 X170.684 Y87.554 E12.66555
G1 X157.730 Y74.601 E13.58490
G1 X157.382 Y74.949 E13.60963
G1 X170.684 Y88.251 E14.55371
G1 X170.684 Y88.948 E14.58868
G1 X157.033 Y75.297 E15.55748
G1 X156.685 Y75.646 E15.58221
G1 X170.684 Y89.644 E16.57574
G1 X170.684 Y90.341 E16.61071
G1 X156.337 Y75.994 E17.62897
G1 X156.172 Y76.159 E17.64068
G1 X156.172 Y76.526 E17.65908
G1 X170.684 Y91.038 E18.68905
G1 X170.684 Y91.735 E18.72402
G1 X156.172 Y77.223 E19.75399
G1 X156.172 Y77.919 E19.78896
G1 X170.684 Y92.432 E20.81893
G1 X170.684 Y93.128 E20.85390
G1 X156.172 Y78.616 E21.88387
G1 X156.172 Y79.313 E21.91884
G1 X170.684 Y93.825 E22.94881
G1 X170.684 Y94.522 E22.98377
G1 X156.172 Y80.010 E24.01374
G1 X156.172 Y80.707 E24.04871
G1 X170.684 Y95.219 E25.07868
G1 X170.684 Y95.915 E25.11365
G1 X156.172 Y81.403 E26.14362
G1 X156.172 Y82.100 E26.17859
G1 X170.684 Y96.612 E27.20856
G1 X170.684 Y97.309 E27.24353
G1 X156.172 Y82.797 E28.27350
G1 X156.172 Y83.494 E28.30846
G1 X170.684 Y98.006 E29.33843
G1 X170.684 Y98.703 E29.37340
G1 X156.172 Y84.191 E30.40337
G1 X156.172 Y84.887 E30.43834
G1 X170.684 Y99.399 E31.46831
G1 X170.684 Y100.096 E31.50328
G1 X156.172 Y85.584 E32.53325
G1 X156.172 Y86.281 E32.56822
G1 X170.684 Y100.793 E33.59818
G1 X170.684 Y101.490 E33.63315
G1 X156.172 Y86.978 E34.66312
G1 X156.172 Y87.360 E34.68229
G1 X155.857 Y87.360 E34.69809
G1 X170.684 Y102.186 E35.75040
G1 X170.684 Y102.883 E35.78537
G1 X155.160 Y87.360 E36.88713
G1 X154.463 Y87.360 E36.92210
G1 X170.684 Y103.580 E38.07332
G1 X170.684 Y104.277 E38.10829
G1 X153.766 Y87.360 E39.30896
G1 X153.070 Y87.360 E39.34393
G1 X170.684 Y104.974 E40.59405
G1 X170.684 Y105.670 E40.62902
G1 X152.373 Y87.360 E41.92860
G1 X151.676 Y87.360 E41.96356
G1 X170.684 Y106.367 E43.31259
G1 X170.684 Y107.064 E43.34756
G1 X150.979 Y87.360 E44.74604
G1 X150.283 Y87.360 E44.78101
G1 X170.684 Y107.761 E46.22895
G1 X170.684 Y108.458 E46.26392
G1 X149.586 Y87.360 E47.76131
G1 X149.255 Y87.360 E47.77788
G1 X149.255 Y87.029 E47.79446
G1 X136.729 Y74.503 E48.68351
G1 X136.032 Y74.503 E48.71848
G1 X170.684 Y109.154 E51.17782
G1 X170.684 Y109.851 E51.21279
G1 X135.335 Y74.503 E53.72158
G1 X134.639 Y74.503 E53.75655
G1 X170.684 Y110.548 E56.31479
G1 X170.684 Y111.245 E56.34976
G1 X133.942 Y74.503 E58.95745
G1 X133.245 Y74.503 E58.99242
G1 X170.684 Y111.941 E61.64957
G1 X170.684 Y112.638 E61.68454
G1 X132.548 Y74.503 E64.39114
G1 X132.114 Y74.503 E64.41293
G1 X131.983 Y74.634 E64.42225
G1 X170.552 Y113.204 E67.15966
G1 X170.204 Y113.552 E67.18438
G1 X131.634 Y74.983 E69.92179
G1 X131.286 Y75.331 E69.94652
G1 X169.855 Y113.900 E72.68392
G1 X169.507 Y114.249 E72.70865
G1 X130.938 Y75.679 E75.44605
G1 X130.589 Y76.028 E75.47078
G1 X169.159 Y114.597 E78.20818
G1 X169.027 Y114.729 E78.21751
G1 X168.593 Y114.729 E78.23929
G1 X130.458 Y76.593 E80.94589
G1 X130.458 Y77.290 E80.98086
G1 X167.896 Y114.729 E83.63801
G1 X167.200 Y114.729 E83.67298
G1 X130.458 Y77.987 E86.28068
G1 X130.458 Y78.683 E86.31565
G1 X166.503 Y114.729 E88.87389
G1 X165.806 Y114.729 E88.90886
G1 X130.458 Y79.380 E91.41765
G1 X130.458 Y80.077 E91.45262
G1 X165.109 Y114.729 E93.91196
G1 X164.412 Y114.729 E93.94692
G1 X130.458 Y80.774 E96.35681
G1 X130.458 Y81.471 E96.39178
G1 X163.716 Y114.729 E98.75221
G1 X163.019 Y114.729 E98.78718
G1 X130.458 Y82.167 E101.09815
G1 X130.458 Y82.864 E101.13312
G1 X162.322 Y114.729 E103.39465
G1 X161.625 Y114.729 E103.42962
G1 X130.458 Y83.561 E105.64169
G1 X130.458 Y84.258 E105.67666
G1 X160.929 Y114.729 E107.83928
G1 X160.232 Y114.729 E107.87424
G1 X130.458 Y84.954 E109.98741
G1 X130.458 Y85.651 E110.02238
G1 X159.535 Y114.729 E112.08609
G1 X158.838 Y114.729 E112.12106
G1 X130.458 Y86.348 E114.13532
G1 X130.458 Y87.045 E114.17029
G1 X158.141 Y114.729 E116.13509
G1 X157.445 Y114.729 E116.17006
G1 X130.458 Y87.742 E118.08542
G1 X130.458 Y88.438 E118.12038
G1 X156.748 Y114.729 E119.98629
G1 X156.051 Y114.729 E120.02125
G1 X130.458 Y89.135 E121.83770
G1 X130.458 Y89.832 E121.87267
G1 X155.354 Y114.729 E123.63966
G1 X154.657 Y114.729 E123.67463
G1 X130.458 Y90.529 E125.39217
G1 X130.458 Y91.226 E125.42714
G1 X153.961 Y114.729 E127.09523
G1 X153.264 Y114.729 E127.13020
G1 X130.458 Y91.922 E128.74883
G1 X130.458 Y92.619 E128.78380
G1 X152.567 Y114.729 E130.35298
G1 X151.870 Y114.729 E130.38795
G1 X130.458 Y93.316 E131.90768
G1 X130.458 Y94.013 E131.94265
G1 X151.174 Y114.729 E133.41292
G1 X150.477 Y114.729 E133.44789
G1 X130.458 Y94.709 E134.86871
G1 X130.458 Y95.406 E134.90368
G1 X149.780 Y114.729 E136.27505
G1 X149.083 Y114.729 E136.31002
G1 X130.458 Y96.103 E137.63194
G1 X130.458 Y96.800 E137.66691
G1 X148.386 Y114.729 E138.93937
G1 X147.690 Y114.729 E138.97434
G1 X130.458 Y97.497 E140.19735
G1 X130.458 Y98.193 E140.23232
G1 X146.993 Y114.729 E141.40587
G1 X146.296 Y114.729 E141.44084
G1 X130.458 Y98.890 E142.56494
G1 X130.458 Y99.587 E142.59991
G1 X145.599 Y114.729 E143.67456
G1 X144.903 Y114.729 E143.70953
G1 X130.458 Y100.284 E144.73473
G1 X130.458 Y100.980 E144.76970
G1 X144.206 Y114.729 E145.74544
G1 X143.509 Y114.729 E145.78041
G1 X130.458 Y101.677 E146.70670
G1 X130.458 Y102.374 E146.74167
G1 X142.812 Y114.729 E147.61851
G1 X142.115 Y114.729 E147.65348
G1 X130.458 Y103.071 E148.48086
G1 X130.458 Y103.768 E148.51583
G1 X141.419 Y114.729 E149.29376
G1 X140.722 Y114.729 E149.32873
G1 X130.458 Y104.464 E150.05721
G1 X130.458 Y105.161 E150.09218
G1 X140.025 Y114.729 E150.77121
G1 X139.328 Y114.729 E150.80617
G1 X130.458 Y105.858 E151.43575
G1 X130.458 Y106.555 E151.47072
G1 X138.632 Y114.729 E152.05084
G1 X137.935 Y114.729 E152.08580
G1 X130.458 Y107.252 E152.61647
G1 X130.458 Y107.948 E152.65144
G1 X137.238 Y114.729 E153.13265
G1 X136.541 Y114.729 E153.16762
G1 X130.458 Y108.645 E153.59938
G1 X130.458 Y109.342 E153.63435
G1 X135.844 Y114.729 E154.01666
G1 X135.148 Y114.729 E154.05163
G1 X130.458 Y110.039 E154.38448
G1 X130.458 Y110.735 E154.41945
G1 X134.451 Y114.729 E154.70285
G1 X133.754 Y114.729 E154.73782
G1 X130.458 Y111.432 E154.97177
G1 X130.458 Y112.129 E155.00673
G1 X133.057 Y114.729 E155.19123
G1 X132.361 Y114.729 E155.22620
G1 X130.303 Y112.671 E155.37225
;LAYER_CHANGE
;Z:0.65
;HEIGHT:0.3
G1 Z0.650 F6600.000
M104 S200 ; set temperature
M140 S60 ; set bed temperature
G1 E151.37225 F2400.000
G92 E0
G1 Z0.750 F6600.000
G1 X128.524 Y113.605
G1 Z0.650
G1 E4.00000 F2400.000
;TYPE:Skirt
G1 F3600.000
G1 X128.374 Y113.320 E4.01432
G1 X128.268 Y112.683 E4.04296
G1 X128.465 Y76.182 E5.66197
G1 X128.684 Y75.314 E5.70166
G1 X128.999 Y74.759 E5.72999
G1 X130.734 Y73.008 E5.83932
G1 X131.294 Y72.641 E5.86904
G1 X132.003 Y72.471 E5.90137
G1 X137.273 Y72.313 E6.13520
G1 X168.956 Y72.476 E7.54054
G1 X169.547 Y72.618 E7.56748
G1 X170.066 Y72.926 E7.59426
G1 X172.467 Y75.340 E7.74527
G1 X172.767 Y75.912 E7.77391
G1 X172.873 Y76.548 E7.80255
G1 X172.715 Y112.749 E9.40824
G1 X172.500 Y113.790 E9.45539
G1 X172.230 Y114.354 E9.48310
G1 X170.248 Y116.356 E9.60810
G1 X169.680 Y116.656 E9.63658
G1 X169.050 Y116.763 E9.66491
G1 X132.241 Y116.760 E11.29758
G1 X131.630 Y116.628 E11.32529
G1 X131.086 Y116.314 E11.35316
G1 X128.675 Y113.891 E11.50476
G1 X128.552 Y113.659 E11.51642
G1 X128.854 Y113.499 F6600.000
G1 F3600.000
G1 X128.702 Y113.211 E11.53088
G1 X128.613 Y112.678 E11.55485
G1 X128.802 Y76.257 E13.17030
G1 X129.002 Y75.448 E13.20727
G1 X129.270 Y74.972 E13.23152
G1 X130.966 Y73.263 E13.33828
G1 X131.454 Y72.947 E13.36407
G1 X132.030 Y72.815 E13.39029
G1 X137.274 Y72.658 E13.62301
G1 X168.921 Y72.819 E15.02670
G1 X169.421 Y72.939 E15.04954
G1 X169.863 Y73.205 E15.07238
G1 X172.187 Y75.543 E15.21862
G1 X172.440 Y76.020 E15.24259
G1 X172.528 Y76.553 E15.26656
G1 X172.371 Y112.726 E16.87099
G1 X172.171 Y113.689 E16.91461
G1 X171.940 Y114.167 E16.93815
G1 X170.045 Y116.077 E17.05750
G1 X169.571 Y116.329 E17.08133
G1 X169.041 Y116.418 E17.10516
G1 X132.261 Y116.415 E18.73652
G1 X131.743 Y116.301 E18.76007
G1 X131.285 Y116.032 E18.78362
G1 X128.954 Y113.689 E18.93022
G1 X128.882 Y113.552 E18.93706
G1 X129.183 Y113.392 F6600.000
G1 F3600.000
G1 X129.029 Y113.103 E18.95158
G1 X128.958 Y112.675 E18.97081
G1 X129.139 Y76.331 E20.58287
G1 X129.320 Y75.583 E20.61702
G1 X129.540 Y75.186 E20.63713
G1 X131.196 Y73.520 E20.74134
G1 X131.604 Y73.258 E20.76283
G1 X132.052 Y73.159 E20.78319
G1 X137.273 Y73.003 E21.01487
G1 X168.888 Y73.162 E22.41714
G1 X169.298 Y73.261 E22.43587
G1 X169.655 Y73.481 E22.45448
G1 X171.908 Y75.746 E22.59616
G1 X172.112 Y76.128 E22.61539
G1 X172.184 Y76.556 E22.63463
G1 X172.027 Y112.707 E24.23812
G1 X171.842 Y113.586 E24.27794
G1 X171.650 Y113.981 E24.29743
G1 X169.842 Y115.798 E24.41111
G1 X169.462 Y116.001 E24.43022
G1 X169.038 Y116.073 E24.44932
G1 X132.283 Y116.071 E26.07956
G1 X131.860 Y115.977 E26.09879
G1 X131.491 Y115.755 E26.11790
G1 X129.233 Y113.486 E26.25988
G1 X129.211 Y113.445 E26.26193
G1 E22.26193 F2400.000
G92 E0
G1 Z0.750 F6600.000
G1 X167.284 Y111.887
G1 Z0.650
G1 E4.00000 F2400.000
;TYPE:Support material interface
;WIDTH:0.35
G1 F3600.000
G1 X167.284 Y77.473 E5.22595
G1 X165.998 Y77.473 E5.27175
G1 X165.998 Y111.758 E6.49312
G1 X164.712 Y111.758 E6.53892
G1 X164.712 Y77.473 E7.76028
G1 X163.427 Y77.473 E7.80608
G1 X163.427 Y111.758 E9.02745
G1 X162.141 Y111.758 E9.07325
G1 X162.141 Y77.473 E10.29462
G1 X160.856 Y77.473 E10.34042
G1 X160.856 Y111.758 E11.56179
G1 X159.570 Y111.758 E11.60759
G1 X159.570 Y77.473 E12.82896
G1 X159.142 Y77.473 E12.84421
G1 X159.142 Y90.330 E13.30222
G1 X158.284 Y90.330 E13.33277
G1 X158.284 Y111.758 E14.09613
G1 X156.999 Y111.758 E14.14192
G1 X156.999 Y90.330 E14.90528
G1 X155.713 Y90.330 E14.95108
G1 X155.713 Y111.758 E15.71444
G1 X154.428 Y111.758 E15.76023
G1 X154.428 Y90.330 E16.52359
G1 X153.142 Y90.330 E16.56939
G1 X153.142 Y111.758 E17.33275
G1 X151.856 Y111.758 E17.37854
G1 X151.856 Y90.330 E18.14190
G1 X150.571 Y90.330 E18.18770
G1 X150.571 Y111.758 E18.95106
G1 X149.285 Y111.758 E18.99685
G1 X149.285 Y90.330 E19.76021
G1 X147.999 Y90.330 E19.80601
G1 X147.999 Y111.758 E20.56937
G1 X146.714 Y111.758 E20.61517
G1 X146.714 Y90.330 E21.37852
G1 X146.285 Y90.330 E21.39380
G1 X146.285 Y77.473 E21.85181
G1 X145.428 Y77.473 E21.88233
G1 X145.428 Y111.758 E23.10370
G1 X144.143 Y111.758 E23.14950
G1 X144.143 Y77.473 E24.37087
G1 X142.857 Y77.473 E24.41667
G1 X142.857 Y111.758 E25.63804
G1 X141.571 Y111.758 E25.68384
G1 X141.571 Y77.473 E26.90521
G1 X140.286 Y77.473 E26.95101
G1 X140.286 Y111.758 E28.17238
G1 X139.000 Y111.758 E28.21817
G1 X139.000 Y77.473 E29.43954
G1 X137.714 Y77.473 E29.48534
G1 X137.714 Y111.758 E30.70671
G1 X136.429 Y111.758 E30.75251
G1 X136.429 Y77.473 E31.97388
G1 X135.143 Y77.473 E32.01968
G1 X135.143 Y111.758 E33.24105
G1 X133.858 Y111.758 E33.28685
G1 X133.858 Y77.345 E34.51279
;LAYER_CHANGE
;Z:1.25
;HEIGHT:0.6
G1 Z1.250 F6600.000
G1 E30.51279 F2400.000
G92 E0
G1 Z1.350 F6600.000
G1 X136.524 Y83.069
