; generated by PrusaSlicer 2.3.1+win64 on 2021-07-16 at 16:09:00 UTC

; 

; external perimeters extrusion width = 0.45mm
; perimeters extrusion width = 0.45mm
; infill extrusion width = 0.45mm
; solid infill extrusion width = 0.45mm
; top infill extrusion width = 0.40mm
; support material extrusion width = 0.35mm
; first layer extrusion width = 0.42mm

M107
M190 S80 ; set bed temperature and wait for it to be reached
M104 S230 ; set temperature
;TYPE:Custom
G28 ; home all axes
G1 Z5 F5000 ; lift nozzle
M109 S230 ; set temperature and wait for it to be reached
G21 ; set units to millimeters
G90 ; use absolute coordinates
M82 ; use absolute distances for extrusion
G92 E0
; Filament gcode
;LAYER_CHANGE
;Z:0.35
;HEIGHT:0.35
G1 Z0.350 F6600.000
G1 E-4.00000 F2400.000
G92 E0
G1 Z0.450 F6600.000
G1 X114.462 Y77.341
G1 Z0.350
G1 E4.00000 F2400.000
;TYPE:Skirt
;WIDTH:0.42
G1 X116.327 Y75.434 E4.13387
G1 X117.111 Y75.009 E4.17861
G1 X118.644 Y74.776 E4.25646
G1 X154.485 Y74.937 E6.05518
G1 X155.077 Y75.073 E6.08567
G1 X155.606 Y75.379 E6.11632
G1 X157.943 Y77.710 E6.28197
G1 X158.297 Y78.315 E6.31717
G1 X158.424 Y79.005 E6.35236
G1 X158.267 Y115.202 E8.16896
G1 X158.055 Y116.243 E8.22231
G1 X157.794 Y116.800 E8.25314
G1 X155.893 Y118.745 E8.38965
G1 X155.291 Y119.098 E8.42467
G1 X154.605 Y119.226 E8.45969
G1 X117.799 Y119.223 E10.30681
G1 X117.191 Y119.095 E10.33799
G1 X116.648 Y118.786 E10.36935
G1 X114.301 Y116.448 E10.53561
G1 X113.947 Y115.843 E10.57081
G1 X113.819 Y115.150 E10.60618
G1 X113.985 Y78.844 E12.42825
G1 X114.201 Y77.877 E12.47792
G1 X114.436 Y77.395 E12.50487
G1 X114.744 Y77.546 F6600.000
G1 F2400.000
G1 X116.555 Y75.692 E12.63492
G1 X117.220 Y75.336 E12.67279
G1 X118.644 Y75.121 E12.74507
G1 X154.455 Y75.281 E14.54227
G1 X154.960 Y75.397 E14.56828
G1 X155.406 Y75.661 E14.59429
G1 X157.674 Y77.926 E14.75515
G1 X157.973 Y78.432 E14.78465
G1 X158.080 Y79.014 E14.81431
G1 X157.922 Y115.186 E16.62967
G1 X157.724 Y116.146 E16.67886
G1 X157.499 Y116.620 E16.70519
G1 X155.677 Y118.476 E16.83574
G1 X155.173 Y118.773 E16.86508
G1 X154.595 Y118.881 E16.89459
G1 X117.819 Y118.879 E18.74026
G1 X117.300 Y118.767 E18.76690
G1 X116.844 Y118.501 E18.79338
G1 X114.570 Y116.232 E18.95461
G1 X114.271 Y115.726 E18.98412
G1 X114.164 Y115.144 E19.01378
G1 X114.328 Y78.889 E20.83331
G1 X114.527 Y77.988 E20.87964
G1 X114.717 Y77.600 E20.90132
G1 X115.025 Y77.750 F6600.000
G1 F2400.000
G1 X115.043 Y77.714 E20.90337
G1 X116.781 Y75.953 E21.02757
G1 X117.326 Y75.665 E21.05850
G1 X118.644 Y75.466 E21.12537
G1 X154.424 Y75.624 E22.92104
G1 X154.838 Y75.720 E22.94237
G1 X155.199 Y75.938 E22.96356
G1 X157.409 Y78.147 E23.12034
G1 X157.650 Y78.554 E23.14408
G1 X157.735 Y79.019 E23.16783
G1 X157.578 Y115.167 E24.98198
G1 X157.394 Y116.046 E25.02704
G1 X157.206 Y116.437 E25.04880
G1 X155.456 Y118.211 E25.17385
G1 X155.051 Y118.451 E25.19746
G1 X154.589 Y118.537 E25.22106
G1 X117.840 Y118.535 E27.06533
G1 X117.417 Y118.442 E27.08709
G1 X117.047 Y118.222 E27.10871
G1 X114.835 Y116.011 E27.26563
G1 X114.594 Y115.604 E27.28938
G1 X114.509 Y115.139 E27.31312
G1 X114.670 Y78.930 E29.13028
G1 X114.854 Y78.098 E29.17307
G1 X114.998 Y77.804 E29.18949
G1 E25.18949
G92 E0
G1 Z0.450 F6600.000
G1 X118.641 Y76.811
G1 Z0.350
G1 E4.00000 F2400.000
;TYPE:Support material
G1 X130.521 Y88.691 E4.84317
G1 X130.521 Y87.994 E4.87814
G1 X119.493 Y76.966 E5.66083
G1 X120.190 Y76.966 E5.69580
G1 X130.521 Y87.297 E6.42905
G1 X130.521 Y86.601 E6.46402
G1 X120.887 Y76.966 E7.14781
G1 X121.583 Y76.966 E7.18278
G1 X130.521 Y85.904 E7.81712
G1 X130.521 Y85.207 E7.85208
G1 X122.280 Y76.966 E8.43697
G1 X122.977 Y76.966 E8.47194
G1 X130.521 Y84.510 E9.00737
G1 X130.521 Y83.813 E9.04234
G1 X123.674 Y76.966 E9.52832
G1 X124.370 Y76.966 E9.56329
G1 X130.521 Y83.117 E9.99982
G1 X130.521 Y82.420 E10.03478
G1 X125.067 Y76.966 E10.42186
G1 X125.764 Y76.966 E10.45683
G1 X130.521 Y81.723 E10.79445
G1 X130.521 Y81.026 E10.82942
G1 X126.461 Y76.966 E11.11758
G1 X127.158 Y76.966 E11.15255
G1 X130.521 Y80.330 E11.39127
G1 X130.521 Y79.633 E11.42623
G1 X127.854 Y76.966 E11.61549
G1 X128.551 Y76.966 E11.65046
G1 X130.676 Y79.091 E11.80129
G1 E7.80129
G92 E0
G1 Z0.450 F6600.000
G1 X156.390 Y79.024
G1 Z0.350
G1 E4.00000 F2400.000
G1 X154.332 Y76.966 E4.14606
G1 X153.635 Y76.966 E4.18103
G1 X156.235 Y79.566 E4.36552
G1 X156.235 Y80.262 E4.40049
G1 X152.938 Y76.966 E4.63444
G1 X152.242 Y76.966 E4.66941
G1 X156.235 Y80.959 E4.95281
G1 X156.235 Y81.656 E4.98777
G1 X151.545 Y76.966 E5.32063
G1 X150.848 Y76.966 E5.35560
G1 X156.235 Y82.353 E5.73790
G1 X156.235 Y83.050 E5.77287
G1 X150.151 Y76.966 E6.20463
G1 X149.455 Y76.966 E6.23960
G1 X156.235 Y83.746 E6.72082
G1 X156.235 Y84.443 E6.75578
G1 X148.758 Y76.966 E7.28645
G1 X148.061 Y76.966 E7.32142
G1 X156.235 Y85.140 E7.90154
G1 X156.235 Y85.837 E7.93651
G1 X147.364 Y76.966 E8.56608
G1 X146.667 Y76.966 E8.60105
G1 X156.235 Y86.533 E9.28007
G1 X156.235 Y87.230 E9.31504
G1 X145.971 Y76.966 E10.04352
G1 X145.274 Y76.966 E10.07849
G1 X156.235 Y87.927 E10.85642
G1 X156.235 Y88.624 E10.89139
G1 X144.577 Y76.966 E11.71878
G1 X143.880 Y76.966 E11.75374
G1 X156.235 Y89.321 E12.63058
G1 X156.235 Y90.017 E12.66555
G1 X143.281 Y77.064 E13.58490
G1 X142.933 Y77.412 E13.60963
G1 X156.235 Y90.714 E14.55371
G1 X156.235 Y91.411 E14.58868
G1 X142.585 Y77.761 E15.55748
G1 X142.236 Y78.109 E15.58221
G1 X156.235 Y92.108 E16.57574
G1 X156.235 Y92.804 E16.61071
G1 X141.888 Y78.457 E17.62897
G1 X141.723 Y78.622 E17.64068
G1 X141.723 Y78.989 E17.65908
G1 X156.235 Y93.501 E18.68905
G1 X156.235 Y94.198 E18.72402
G1 X141.723 Y79.686 E19.75399
G1 X141.723 Y80.383 E19.78896
G1 X156.235 Y94.895 E20.81893
G1 X156.235 Y95.592 E20.85390
G1 X141.723 Y81.080 E21.88387
G1 X141.723 Y81.776 E21.91884
G1 X156.235 Y96.288 E22.94881
G1 X156.235 Y96.985 E22.98377
G1 X141.723 Y82.473 E24.01374
G1 X141.723 Y83.170 E24.04871
G1 X156.235 Y97.682 E25.07868
G1 X156.235 Y98.379 E25.11365
G1 X141.723 Y83.867 E26.14362
G1 X141.723 Y84.563 E26.17859
G1 X156.235 Y99.076 E27.20856
G1 X156.235 Y99.772 E27.24353
G1 X141.723 Y85.260 E28.27350
G1 X141.723 Y85.957 E28.30846
G1 X156.235 Y100.469 E29.33843
G1 X156.235 Y101.166 E29.37340
G1 X141.723 Y86.654 E30.40337
G1 X141.723 Y87.351 E30.43834
G1 X156.235 Y101.863 E31.46831
G1 X156.235 Y102.559 E31.50328
G1 X141.723 Y88.047 E32.53325
G1 X141.723 Y88.744 E32.56822
G1 X156.235 Y103.256 E33.59818
G1 X156.235 Y103.953 E33.63315
G1 X141.723 Y89.441 E34.66312
G1 X141.723 Y89.823 E34.68229
G1 X141.408 Y89.823 E34.69809
G1 X156.235 Y104.650 E35.75040
G1 X156.235 Y105.347 E35.78537
G1 X140.711 Y89.823 E36.88713
G1 X140.014 Y89.823 E36.92210
G1 X156.235 Y106.043 E38.07332
G1 X156.235 Y106.740 E38.10829
G1 X139.318 Y89.823 E39.30896
G1 X138.621 Y89.823 E39.34393
G1 X156.235 Y107.437 E40.59405
G1 X156.235 Y108.134 E40.62902
G1 X137.924 Y89.823 E41.92860
G1 X137.227 Y89.823 E41.96356
G1 X156.235 Y108.830 E43.31259
G1 X156.235 Y109.527 E43.34756
G1 X136.530 Y89.823 E44.74604
G1 X135.834 Y89.823 E44.78101
G1 X156.235 Y110.224 E46.22895
G1 X156.235 Y110.921 E46.26392
G1 X135.137 Y89.823 E47.76131
G1 X134.440 Y89.823 E47.79627
G1 X156.235 Y111.618 E49.34312
G1 X156.235 Y112.314 E49.37808
G1 X133.743 Y89.823 E50.97438
G1 X133.047 Y89.823 E51.00935
G1 X156.235 Y113.011 E52.65510
G1 X156.235 Y113.708 E52.69006
G1 X132.350 Y89.823 E54.38527
G1 X131.653 Y89.823 E54.42023
G1 X156.235 Y114.405 E56.16489
G1 X156.235 Y115.102 E56.19986
G1 X130.956 Y89.823 E57.99396
G1 X130.521 Y89.823 E58.01581
G1 X130.521 Y89.388 E58.03765
G1 X118.099 Y76.966 E58.91925
G1 X117.665 Y76.966 E58.94104
G1 X117.534 Y77.097 E58.95036
G1 X156.103 Y115.667 E61.68777
G1 X155.755 Y116.015 E61.71249
G1 X117.186 Y77.446 E64.44990
G1 X116.837 Y77.794 E64.47463
G1 X155.406 Y116.364 E67.21203
G1 X155.058 Y116.712 E67.23676
G1 X116.489 Y78.143 E69.97416
G1 X116.140 Y78.491 E69.99889
G1 X154.710 Y117.060 E72.73630
G1 X154.578 Y117.192 E72.74562
G1 X154.144 Y117.192 E72.76740
G1 X116.009 Y79.056 E75.47401
G1 X116.009 Y79.753 E75.50897
G1 X153.448 Y117.192 E78.16612
G1 X152.751 Y117.192 E78.20109
G1 X116.009 Y80.450 E80.80879
G1 X116.009 Y81.147 E80.84376
G1 X152.054 Y117.192 E83.40200
G1 X151.357 Y117.192 E83.43697
G1 X116.009 Y81.844 E85.94576
G1 X116.009 Y82.540 E85.98073
G1 X150.660 Y117.192 E88.44007
G1 X149.964 Y117.192 E88.47503
G1 X116.009 Y83.237 E90.88492
G1 X116.009 Y83.934 E90.91989
G1 X149.267 Y117.192 E93.28032
G1 X148.570 Y117.192 E93.31529
G1 X116.009 Y84.631 E95.62627
G1 X116.009 Y85.327 E95.66123
G1 X147.873 Y117.192 E97.92276
G1 X147.176 Y117.192 E97.95773
G1 X116.009 Y86.024 E100.16980
G1 X116.009 Y86.721 E100.20477
G1 X146.480 Y117.192 E102.36739
G1 X145.783 Y117.192 E102.40236
G1 X116.009 Y87.418 E104.51552
G1 X116.009 Y88.115 E104.55049
G1 X145.086 Y117.192 E106.61420
G1 X144.389 Y117.192 E106.64917
G1 X116.009 Y88.811 E108.66343
G1 X116.009 Y89.508 E108.69840
G1 X143.693 Y117.192 E110.66321
G1 X142.996 Y117.192 E110.69817
G1 X116.009 Y90.205 E112.61353
G1 X116.009 Y90.902 E112.64850
G1 X142.299 Y117.192 E114.51440
G1 X141.602 Y117.192 E114.54936
G1 X116.009 Y91.598 E116.36581
G1 X116.009 Y92.295 E116.40078
G1 X140.905 Y117.192 E118.16777
G1 X140.209 Y117.192 E118.20274
G1 X116.009 Y92.992 E119.92028
G1 X116.009 Y93.689 E119.95525
G1 X139.512 Y117.192 E121.62334
G1 X138.815 Y117.192 E121.65831
G1 X116.009 Y94.386 E123.27694
G1 X116.009 Y95.082 E123.31191
G1 X138.118 Y117.192 E124.88109
G1 X137.422 Y117.192 E124.91606
G1 X116.009 Y95.779 E126.43579
G1 X116.009 Y96.476 E126.47076
G1 X136.725 Y117.192 E127.94103
G1 X136.028 Y117.192 E127.97600
G1 X116.009 Y97.173 E129.39683
G1 X116.009 Y97.870 E129.43179
G1 X135.331 Y117.192 E130.80316
G1 X134.634 Y117.192 E130.83813
G1 X116.009 Y98.566 E132.16005
G1 X116.009 Y99.263 E132.19502
G1 X133.938 Y117.192 E133.46748
G1 X133.241 Y117.192 E133.50245
G1 X116.009 Y99.960 E134.72546
G1 X116.009 Y100.657 E134.76043
G1 X132.544 Y117.192 E135.93398
G1 X131.847 Y117.192 E135.96895
G1 X116.009 Y101.353 E137.09306
G1 X116.009 Y102.050 E137.12802
G1 X131.151 Y117.192 E138.20267
G1 X130.454 Y117.192 E138.23764
G1 X116.009 Y102.747 E139.26284
G1 X116.009 Y103.444 E139.29781
G1 X129.757 Y117.192 E140.27355
G1 X129.060 Y117.192 E140.30852
G1 X116.009 Y104.141 E141.23481
G1 X116.009 Y104.837 E141.26978
G1 X128.363 Y117.192 E142.14662
G1 X127.667 Y117.192 E142.18159
G1 X116.009 Y105.534 E143.00897
G1 X116.009 Y106.231 E143.04394
G1 X126.970 Y117.192 E143.82187
G1 X126.273 Y117.192 E143.85684
G1 X116.009 Y106.928 E144.58532
G1 X116.009 Y107.624 E144.62029
G1 X125.576 Y117.192 E145.29932
G1 X124.880 Y117.192 E145.33429
G1 X116.009 Y108.321 E145.96386
G1 X116.009 Y109.018 E145.99883
G1 X124.183 Y117.192 E146.57895
G1 X123.486 Y117.192 E146.61391
G1 X116.009 Y109.715 E147.14458
G1 X116.009 Y110.412 E147.17955
G1 X122.789 Y117.192 E147.66076
G1 X122.092 Y117.192 E147.69573
G1 X116.009 Y111.108 E148.12749
G1 X116.009 Y111.805 E148.16246
G1 X121.396 Y117.192 E148.54477
G1 X120.699 Y117.192 E148.57974
G1 X116.009 Y112.502 E148.91259
G1 X116.009 Y113.199 E148.94756
G1 X120.002 Y117.192 E149.23096
G1 X119.305 Y117.192 E149.26593
G1 X116.009 Y113.896 E149.49988
G1 X116.009 Y114.592 E149.53485
G1 X118.608 Y117.192 E149.71934
G1 X117.912 Y117.192 E149.75431
G1 X115.854 Y115.134 E149.90037
;LAYER_CHANGE
;Z:0.65
;HEIGHT:0.3
G1 Z0.650 F6600.000
M104 S200 ; set temperature
M140 S60 ; set bed temperature
G1 E145.90037 F2400.000
G92 E0
G1 Z0.750 F6600.000
G1 X113.883 Y115.496
G1 Z0.650
G1 E4.00000 F2400.000
;TYPE:Skirt
G1 F3600.000
G1 X113.819 Y115.150 E4.01563
G1 X113.985 Y78.844 E5.62599
G1 X114.201 Y77.877 E5.66990
G1 X114.462 Y77.341 E5.69637
G1 X116.327 Y75.434 E5.81469
G1 X117.111 Y75.009 E5.85423
G1 X118.644 Y74.776 E5.92303
G1 X154.485 Y74.937 E7.51277
G1 X155.077 Y75.073 E7.53971
G1 X155.606 Y75.379 E7.56680
G1 X157.943 Y77.710 E7.71320
G1 X158.297 Y78.315 E7.74431
G1 X158.424 Y79.005 E7.77541
G1 X158.267 Y115.202 E9.38095
G1 X158.055 Y116.243 E9.42809
G1 X157.794 Y116.800 E9.45534
G1 X155.893 Y118.745 E9.57599
G1 X155.291 Y119.098 E9.60694
G1 X154.605 Y119.226 E9.63789
G1 X117.799 Y119.223 E11.27040
G1 X117.191 Y119.095 E11.29796
G1 X116.648 Y118.786 E11.32567
G1 X114.301 Y116.448 E11.47262
G1 X113.947 Y115.843 E11.50372
G1 X113.894 Y115.555 E11.51669
G1 X114.228 Y115.494 F6600.000
G1 F3600.000
G1 X114.164 Y115.144 E11.53244
G1 X114.328 Y78.889 E13.14057
G1 X114.527 Y77.988 E13.18151
G1 X114.754 Y77.525 E13.20436
G1 X116.555 Y75.692 E13.31833
G1 X117.220 Y75.336 E13.35180
G1 X118.644 Y75.121 E13.41568
G1 X154.455 Y75.281 E15.00407
G1 X154.960 Y75.397 E15.02705
G1 X155.406 Y75.661 E15.05004
G1 X157.674 Y77.926 E15.19220
G1 X157.973 Y78.432 E15.21828
G1 X158.080 Y79.014 E15.24450
G1 X157.922 Y115.186 E16.84893
G1 X157.724 Y116.146 E16.89241
G1 X157.499 Y116.620 E16.91567
G1 X155.677 Y118.476 E17.03105
G1 X155.173 Y118.773 E17.05699
G1 X154.595 Y118.881 E17.08307
G1 X117.819 Y118.879 E18.71429
G1 X117.300 Y118.767 E18.73783
G1 X116.844 Y118.501 E18.76124
G1 X114.570 Y116.232 E18.90373
G1 X114.271 Y115.726 E18.92981
G1 X114.239 Y115.553 E18.93761
G1 X114.573 Y115.492 F6600.000
G1 F3600.000
G1 X114.509 Y115.139 E18.95353
G1 X114.670 Y78.930 E20.55955
G1 X114.854 Y78.098 E20.59737
G1 X115.043 Y77.714 E20.61635
G1 X116.781 Y75.953 E20.72612
G1 X117.326 Y75.665 E20.75345
G1 X118.644 Y75.466 E20.81255
G1 X154.424 Y75.624 E22.39958
G1 X154.838 Y75.720 E22.41844
G1 X155.199 Y75.938 E22.43717
G1 X157.409 Y78.147 E22.57573
G1 X157.650 Y78.554 E22.59672
G1 X157.735 Y79.019 E22.61770
G1 X157.578 Y115.167 E24.22106
G1 X157.394 Y116.046 E24.26089
G1 X157.206 Y116.437 E24.28012
G1 X155.456 Y118.211 E24.39065
G1 X155.051 Y118.451 E24.41151
G1 X154.589 Y118.537 E24.43237
G1 X117.840 Y118.535 E26.06235
G1 X117.417 Y118.442 E26.08158
G1 X117.047 Y118.222 E26.10069
G1 X114.835 Y116.011 E26.23938
G1 X114.594 Y115.604 E26.26037
G1 X114.584 Y115.551 E26.26277
G1 E22.26277 F2400.000
G92 E0
G1 Z0.750 F6600.000
G1 X152.835 Y114.350
G1 Z0.650
G1 E4.00000 F2400.000
;TYPE:Support material interface
;WIDTH:0.35
G1 F3600.000
G1 X152.835 Y79.936 E5.22595
G1 X151.549 Y79.936 E5.27175
G1 X151.549 Y114.221 E6.49312
G1 X150.264 Y114.221 E6.53892
G1 X150.264 Y79.936 E7.76028
G1 X148.978 Y79.936 E7.80608
G1 X148.978 Y114.221 E9.02745
G1 X147.692 Y114.221 E9.07325
G1 X147.692 Y79.936 E10.29462
G1 X146.407 Y79.936 E10.34042
G1 X146.407 Y114.221 E11.56179
G1 X145.121 Y114.221 E11.60759
G1 X145.121 Y79.936 E12.82896
G1 X144.693 Y79.936 E12.84421
G1 X144.693 Y92.793 E13.30222
G1 X143.836 Y92.793 E13.33277
G1 X143.836 Y114.221 E14.09613
G1 X142.550 Y114.221 E14.14192
G1 X142.550 Y92.793 E14.90528
G1 X141.264 Y92.793 E14.95108
G1 X141.264 Y114.221 E15.71444
G1 X139.979 Y114.221 E15.76023
G1 X139.979 Y92.793 E16.52359
G1 X138.693 Y92.793 E16.56939
G1 X138.693 Y114.221 E17.33275
G1 X137.407 Y114.221 E17.37854
G1 X137.407 Y92.793 E18.14190
G1 X136.122 Y92.793 E18.18770
G1 X136.122 Y114.221 E18.95106
G1 X134.836 Y114.221 E18.99685
G1 X134.836 Y92.793 E19.76021
G1 X133.551 Y92.793 E19.80601
G1 X133.551 Y114.221 E20.56937
G1 X132.265 Y114.221 E20.61516
G1 X132.265 Y92.793 E21.37852
G1 X130.979 Y92.793 E21.42432
G1 X130.979 Y114.221 E22.18768
G1 X129.694 Y114.221 E22.23348
G1 X129.694 Y92.793 E22.99683
G1 X128.408 Y92.793 E23.04263
G1 X128.408 Y114.221 E23.80599
G1 X127.123 Y114.221 E23.85179
G1 X127.123 Y79.936 E25.07315
G1 X125.837 Y79.936 E25.11895
G1 X125.837 Y114.221 E26.34032
G1 X124.551 Y114.221 E26.38612
G1 X124.551 Y79.936 E27.60749
G1 X123.266 Y79.936 E27.65329
G1 X123.266 Y114.221 E28.87466
G1 X121.980 Y114.221 E28.92046
G1 X121.980 Y79.936 E30.14183
G1 X120.694 Y79.936 E30.18763
G1 X120.694 Y114.221 E31.40900
G1 X119.409 Y114.221 E31.45479
G1 X119.409 Y79.808 E32.68074
;LAYER_CHANGE
;Z:1.25
;HEIGHT:0.6
G1 Z1.250 F6600.000
G1 E28.68074 F2400.000
G92 E0
G1 Z1.350 F6600.000
G1 X122.075 Y86.732
G1 Z1.250
G1 E4.00000 F2400.000
;TYPE:Overhang perimeter
;WIDTH:0.4
;HEIGHT:0.4
G1 F3600.000
G1 X123.169 Y86.732 E4.05712
G1 X123.169 Y96.894 E4.58800
G1 X149.075 Y96.894 E5.94149
G1 X149.075 Y86.732 E6.47238
