; generated by PrusaSlicer 2.3.1+win64 on 2021-07-17 at 19:55:43 UTC

; 

; external perimeters extrusion width = 0.45mm
; perimeters extrusion width = 0.45mm
; infill extrusion width = 0.45mm
; solid infill extrusion width = 0.45mm
; top infill extrusion width = 0.40mm
; support material extrusion width = 0.35mm
; first layer extrusion width = 0.42mm

M107
M190 S80 ; set bed temperature and wait for it to be reached
M104 S230 ; set temperature
;TYPE:Custom
G28 ; home all axes
G1 Z5 F5000 ; lift nozzle
M109 S230 ; set temperature and wait for it to be reached
G21 ; set units to millimeters
G90 ; use absolute coordinates
M82 ; use absolute distances for extrusion
G92 E0
; Filament gcode
;LAYER_CHANGE
;Z:0.35
;HEIGHT:0.35
G1 Z0.350 F6600.000
G1 E-4.00000 F2400.000
G92 E0
G1 Z0.450 F6600.000
G1 X129.968 Y69.340
G1 Z0.350
G1 E4.00000 F2400.000
;TYPE:Skirt
;WIDTH:0.42
G1 X131.832 Y67.431 E4.13387
G1 X132.617 Y67.003 E4.17877
G1 X134.154 Y66.769 E4.25680
G1 X169.988 Y66.930 E6.05518
G1 X170.581 Y67.063 E6.08566
G1 X171.105 Y67.364 E6.11596
G1 X173.349 Y69.589 E6.27455
G1 X173.775 Y70.226 E6.31304
G1 X173.934 Y70.977 E6.35154
G1 X173.779 Y90.409 E7.32682
G1 X173.429 Y103.412 E7.97960
G1 X173.188 Y105.002 E8.06030
G1 X172.983 Y105.457 E8.08536
G1 X172.673 Y105.848 E8.11041
G1 X172.035 Y106.274 E8.14890
G1 X171.281 Y106.434 E8.18758
G1 X153.883 Y106.589 E9.06076
G1 X132.268 Y106.589 E10.14552
G1 X131.797 Y106.532 E10.16934
G1 X131.355 Y106.369 E10.19299
G1 X130.570 Y105.727 E10.24387
G1 X130.164 Y105.134 E10.27993
G1 X129.989 Y104.437 E10.31600
G1 X129.485 Y89.926 E11.04470
G1 X129.493 Y70.863 E12.00139
G1 X129.708 Y69.877 E12.05203
G1 X129.942 Y69.394 E12.07898
G1 X130.251 Y69.544 F6600.000
G1 F2400.000
G1 X132.060 Y67.690 E12.20899
G1 X132.727 Y67.330 E12.24702
G1 X134.154 Y67.114 E12.31945
G1 X169.959 Y67.274 E14.11634
G1 X170.461 Y67.387 E14.14218
G1 X170.908 Y67.648 E14.16819
G1 X173.097 Y69.825 E14.32309
G1 X173.457 Y70.360 E14.35545
G1 X173.590 Y70.991 E14.38781
G1 X173.434 Y90.405 E15.36215
G1 X173.086 Y103.375 E16.01332
G1 X172.867 Y104.873 E16.08931
G1 X172.698 Y105.261 E16.11053
G1 X172.437 Y105.597 E16.13191
G1 X171.904 Y105.955 E16.16410
G1 X171.273 Y106.089 E16.19646
G1 X153.881 Y106.244 E17.06935
G1 X132.272 Y106.244 E18.15381
G1 X131.497 Y106.054 E18.19388
G1 X130.822 Y105.491 E18.23799
G1 X130.478 Y104.991 E18.26845
G1 X130.333 Y104.405 E18.29875
G1 X129.830 Y89.912 E19.02655
G1 X129.836 Y70.902 E19.98056
G1 X130.036 Y69.987 E20.02757
G1 X130.224 Y69.598 E20.04929
G1 X130.532 Y69.747 F6600.000
G1 F2400.000
G1 X132.289 Y67.948 E20.17550
G1 X132.833 Y67.659 E20.20643
G1 X134.154 Y67.459 E20.27344
G1 X169.862 Y67.615 E22.06552
G1 X170.367 Y67.721 E22.09138
G1 X170.792 Y68.007 E22.11710
G1 X172.936 Y70.159 E22.26957
G1 X173.157 Y70.539 E22.29161
G1 X173.244 Y70.967 E22.31352
G1 X173.090 Y90.391 E23.28839
G1 X172.744 Y103.308 E23.93685
G1 X172.544 Y104.747 E24.00980
G1 X172.197 Y105.349 E24.04463
G1 X171.781 Y105.633 E24.06993
G1 X171.286 Y105.744 E24.09537
G1 X153.882 Y105.899 E24.96886
G1 X132.252 Y105.899 E26.05435
G1 X131.751 Y105.793 E26.08007
G1 X131.326 Y105.507 E26.10580
G1 X130.857 Y104.976 E26.14136
G1 X130.678 Y104.398 E26.17172
G1 X130.175 Y89.906 E26.89941
G1 X130.178 Y70.949 E27.85079
G1 X130.363 Y70.097 E27.89458
G1 X130.506 Y69.801 E27.91106
G1 E23.91106
G92 E0
G1 Z0.450 F6600.000
G1 X134.151 Y68.804
G1 Z0.350
G1 E4.00000 F2400.000
;TYPE:Support material
G1 X157.389 Y92.043 E5.64931
G1 X156.693 Y92.043 E5.68428
G1 X133.609 Y68.959 E7.32258
G1 X133.175 Y68.959 E7.34436
G1 X133.044 Y69.091 E7.35368
G1 X155.996 Y92.043 E8.98266
G1 X155.299 Y92.043 E9.01762
G1 X132.696 Y69.439 E10.62187
G1 X132.347 Y69.787 E10.64660
G1 X154.602 Y92.043 E12.22612
G1 X153.905 Y92.043 E12.26109
G1 X131.999 Y70.136 E13.81588
G1 X131.650 Y70.484 E13.84061
G1 X153.209 Y92.043 E15.37067
G1 X152.512 Y92.043 E15.40564
G1 X131.519 Y71.050 E16.89558
G1 X131.519 Y71.746 E16.93055
G1 X151.815 Y92.043 E18.37104
G1 X151.118 Y92.043 E18.40601
G1 X131.519 Y72.443 E19.79705
G1 X131.519 Y73.140 E19.83201
G1 X150.422 Y92.043 E21.17360
G1 X149.725 Y92.043 E21.20857
G1 X131.519 Y73.837 E22.50069
G1 X131.519 Y74.534 E22.53566
G1 X149.028 Y92.043 E23.77834
G1 X148.331 Y92.043 E23.81331
G1 X131.519 Y75.230 E25.00653
G1 X131.519 Y75.927 E25.04150
G1 X147.634 Y92.043 E26.18527
G1 X146.938 Y92.043 E26.22024
G1 X131.519 Y76.624 E27.31456
G1 X131.519 Y77.321 E27.34953
G1 X146.241 Y92.043 E28.39439
G1 X145.544 Y92.043 E28.42936
G1 X131.519 Y78.017 E29.42477
G1 X131.519 Y78.714 E29.45974
G1 X145.531 Y92.726 E30.45422
G1 X145.531 Y93.423 E30.48919
G1 X131.519 Y79.411 E31.48367
G1 X131.519 Y80.108 E31.51864
G1 X145.531 Y94.120 E32.51313
G1 X145.531 Y94.817 E32.54809
G1 X131.519 Y80.805 E33.54258
G1 X131.519 Y81.501 E33.57755
G1 X154.417 Y104.399 E35.20270
G1 X155.114 Y104.399 E35.23767
G1 X145.887 Y95.173 E35.89250
G1 X146.584 Y95.173 E35.92747
G1 X155.811 Y104.399 E36.58230
G1 X156.507 Y104.399 E36.61727
G1 X147.281 Y95.173 E37.27210
G1 X147.978 Y95.173 E37.30707
G1 X157.204 Y104.399 E37.96190
G1 X157.901 Y104.399 E37.99686
G1 X148.675 Y95.173 E38.65169
G1 X149.371 Y95.173 E38.68666
G1 X158.598 Y104.399 E39.34149
G1 X159.295 Y104.399 E39.37646
G1 X150.068 Y95.173 E40.03129
G1 X150.765 Y95.173 E40.06626
G1 X159.991 Y104.399 E40.72109
G1 X160.688 Y104.399 E40.75606
G1 X151.462 Y95.173 E41.41089
G1 X152.158 Y95.173 E41.44585
G1 X161.385 Y104.399 E42.10068
G1 X162.082 Y104.399 E42.13565
G1 X152.855 Y95.173 E42.79048
G1 X153.552 Y95.173 E42.82545
G1 X162.778 Y104.399 E43.48028
G1 X163.475 Y104.399 E43.51525
G1 X154.249 Y95.173 E44.17008
G1 X154.946 Y95.173 E44.20505
G1 X164.172 Y104.399 E44.85988
G1 X164.869 Y104.399 E44.89484
G1 X155.642 Y95.173 E45.54967
G1 X156.339 Y95.173 E45.58464
G1 X165.566 Y104.399 E46.23947
G1 X166.262 Y104.399 E46.27444
G1 X157.036 Y95.173 E46.92927
G1 X157.733 Y95.173 E46.96424
G1 X166.959 Y104.399 E47.61907
G1 X167.656 Y104.399 E47.65404
G1 X157.733 Y94.476 E48.35832
G1 X157.733 Y93.779 E48.39329
G1 X168.353 Y104.399 E49.14702
G1 X169.049 Y104.399 E49.18199
G1 X157.733 Y93.083 E49.98518
G1 X157.733 Y92.386 E50.02014
G1 X169.746 Y104.399 E50.87278
G1 X170.443 Y104.399 E50.90775
G1 X135.003 Y68.959 E53.42306
G1 X135.700 Y68.959 E53.45803
G1 X171.140 Y104.399 E55.97333
G1 X171.245 Y104.399 E55.97860
G1 X171.245 Y103.808 E56.00830
G1 X136.397 Y68.959 E58.48161
G1 X137.093 Y68.959 E58.51658
G1 X171.400 Y103.266 E60.95144
G1 E56.95144
G92 E0
G1 Z0.450 F6600.000
G1 X153.875 Y104.555
G1 Z0.350
G1 E4.00000 F2400.000
G1 X131.519 Y82.198 E5.58672
G1 X131.519 Y82.895 E5.62169
G1 X153.023 Y104.399 E7.14794
G1 X152.327 Y104.399 E7.18290
G1 X131.519 Y83.592 E8.65970
G1 X131.519 Y84.288 E8.69467
G1 X151.630 Y104.399 E10.12201
G1 X150.933 Y104.399 E10.15698
G1 X131.519 Y84.985 E11.53487
G1 X131.519 Y85.682 E11.56984
G1 X150.236 Y104.399 E12.89828
G1 X149.540 Y104.399 E12.93325
G1 X131.519 Y86.379 E14.21223
G1 X131.519 Y87.076 E14.24720
G1 X148.843 Y104.399 E15.47673
G1 X148.146 Y104.399 E15.51170
G1 X131.519 Y87.772 E16.69178
G1 X131.519 Y88.469 E16.72675
G1 X147.449 Y104.399 E17.85737
G1 X146.752 Y104.399 E17.89234
G1 X131.519 Y89.166 E18.97351
G1 X131.519 Y89.863 E19.00848
G1 X146.056 Y104.399 E20.04020
G1 X145.359 Y104.399 E20.07517
G1 X132.019 Y91.059 E21.02195
G1 X132.019 Y91.756 E21.05691
G1 X144.662 Y104.399 E21.95424
G1 X143.965 Y104.399 E21.98921
G1 X132.019 Y92.453 E22.83708
G1 X132.019 Y93.150 E22.87205
G1 X143.269 Y104.399 E23.67047
G1 X142.572 Y104.399 E23.70544
G1 X132.019 Y93.847 E24.45441
G1 X132.019 Y94.543 E24.48938
G1 X141.875 Y104.399 E25.18889
G1 X141.178 Y104.399 E25.22386
G1 X132.019 Y95.240 E25.87392
G1 X132.019 Y95.937 E25.90889
G1 X140.481 Y104.399 E26.50950
G1 X139.785 Y104.399 E26.54447
G1 X132.019 Y96.634 E27.09562
G1 X132.019 Y97.331 E27.13059
G1 X139.088 Y104.399 E27.63229
G1 X138.391 Y104.399 E27.66726
G1 X132.019 Y98.027 E28.11951
G1 X132.019 Y98.724 E28.15448
G1 X137.694 Y104.399 E28.55728
G1 X136.998 Y104.399 E28.59225
G1 X132.019 Y99.421 E28.94559
G1 X132.019 Y100.118 E28.98056
G1 X136.301 Y104.399 E29.28445
G1 X135.604 Y104.399 E29.31942
G1 X132.019 Y100.814 E29.57385
G1 X132.019 Y101.511 E29.60882
G1 X134.907 Y104.399 E29.81380
G1 X134.210 Y104.399 E29.84877
G1 X132.019 Y102.208 E30.00430
G1 X132.019 Y102.905 E30.03927
G1 X133.514 Y104.399 E30.14535
G1 X132.817 Y104.399 E30.18032
G1 X132.019 Y103.602 E30.23694
G1 X132.019 Y104.298 E30.27191
G1 X132.275 Y104.555 E30.29010
G1 E26.29010
G92 E0
G1 Z0.450 F6600.000
G1 X146.186 Y71.084
G1 Z0.350
G1 E4.00000 F2400.000
G1 X144.061 Y68.959 E4.15082
G1 X143.364 Y68.959 E4.18579
G1 X146.031 Y71.626 E4.37505
G1 X146.031 Y72.323 E4.41002
G1 X142.668 Y68.959 E4.64874
G1 X141.971 Y68.959 E4.68370
G1 X146.031 Y73.020 E4.97187
G1 X146.031 Y73.716 E5.00684
G1 X141.274 Y68.959 E5.34446
G1 X140.577 Y68.959 E5.37943
G1 X146.031 Y74.413 E5.76650
G1 X146.031 Y75.110 E5.80147
G1 X139.881 Y68.959 E6.23800
G1 X139.184 Y68.959 E6.27297
G1 X146.031 Y75.807 E6.75895
G1 X146.031 Y76.503 E6.79391
G1 X138.487 Y68.959 E7.32935
G1 X137.790 Y68.959 E7.36432
G1 X146.031 Y77.200 E7.94920
G1 X146.031 Y77.531 E7.96578
G1 X146.361 Y77.531 E7.98236
G1 X171.245 Y102.414 E9.74843
G1 X171.245 Y101.717 E9.78339
G1 X147.058 Y77.531 E11.50001
G1 X147.755 Y77.531 E11.53498
G1 X171.245 Y101.020 E13.20214
G1 X171.245 Y100.324 E13.23711
G1 X148.452 Y77.531 E14.85482
G1 X149.148 Y77.531 E14.88979
G1 X171.245 Y99.627 E16.45804
G1 X171.245 Y98.930 E16.49301
G1 X149.845 Y77.531 E18.01181
G1 X150.542 Y77.531 E18.04678
G1 X171.245 Y98.233 E19.51613
G1 X171.245 Y97.537 E19.55110
G1 X151.239 Y77.531 E20.97100
G1 X151.936 Y77.531 E21.00597
G1 X171.245 Y96.840 E22.37641
G1 X171.245 Y96.143 E22.41138
G1 X152.632 Y77.531 E23.73237
G1 X153.329 Y77.531 E23.76734
G1 X171.245 Y95.446 E25.03888
G1 X171.245 Y94.749 E25.07384
G1 X154.026 Y77.531 E26.29593
G1 X154.723 Y77.531 E26.33090
G1 X171.245 Y94.053 E27.50353
G1 X171.245 Y93.356 E27.53850
G1 X155.420 Y77.531 E28.66167
G1 X156.116 Y77.531 E28.69664
G1 X171.245 Y92.659 E29.77037
G1 X171.245 Y91.962 E29.80534
G1 X156.813 Y77.531 E30.82961
G1 X157.233 Y77.531 E30.85067
G1 X157.233 Y77.253 E30.86458
G1 X171.245 Y91.266 E31.85906
G1 X171.245 Y90.886 E31.87810
G1 X171.403 Y90.727 E31.88936
G1 X157.233 Y76.557 E32.89511
G1 X157.233 Y75.860 E32.93008
G1 X171.745 Y90.372 E33.96005
G1 X171.745 Y89.675 E33.99502
G1 X157.233 Y75.163 E35.02499
G1 X157.233 Y74.466 E35.05996
G1 X171.745 Y88.978 E36.08993
G1 X171.745 Y88.282 E36.12489
G1 X157.233 Y73.770 E37.15486
G1 X157.233 Y73.073 E37.18983
G1 X171.745 Y87.585 E38.21980
G1 X171.745 Y86.888 E38.25477
G1 X157.233 Y72.376 E39.28474
G1 X157.233 Y71.679 E39.31971
G1 X171.745 Y86.191 E40.34968
G1 X171.745 Y85.494 E40.38465
G1 X157.233 Y70.982 E41.41462
G1 X157.233 Y70.616 E41.43302
G1 X157.398 Y70.451 E41.44473
G1 X171.745 Y84.798 E42.46299
G1 X171.745 Y84.101 E42.49796
G1 X157.746 Y70.102 E43.49149
G1 X158.095 Y69.754 E43.51622
G1 X171.745 Y83.404 E44.48502
G1 X171.745 Y82.707 E44.51999
G1 X158.443 Y69.405 E45.46407
G1 X158.791 Y69.057 E45.48880
G1 X171.745 Y82.011 E46.40815
G1 X171.745 Y81.314 E46.44312
G1 X159.390 Y68.959 E47.31996
G1 X160.087 Y68.959 E47.35492
G1 X171.745 Y80.617 E48.18231
G1 X171.745 Y79.920 E48.21728
G1 X160.784 Y68.959 E48.99521
G1 X161.481 Y68.959 E49.03018
G1 X171.745 Y79.223 E49.75866
G1 X171.745 Y78.527 E49.79363
G1 X162.177 Y68.959 E50.47265
G1 X162.874 Y68.959 E50.50762
G1 X171.745 Y77.830 E51.13719
G1 X171.745 Y77.133 E51.17216
G1 X163.571 Y68.959 E51.75228
G1 X164.268 Y68.959 E51.78725
G1 X171.745 Y76.436 E52.31792
G1 X171.745 Y75.740 E52.35288
G1 X164.965 Y68.959 E52.83410
G1 X165.661 Y68.959 E52.86907
G1 X171.745 Y75.043 E53.30083
G1 X171.745 Y74.346 E53.33580
G1 X166.358 Y68.959 E53.71810
G1 X167.055 Y68.959 E53.75307
G1 X171.745 Y73.649 E54.08593
G1 X171.745 Y72.952 E54.12089
G1 X167.752 Y68.959 E54.40430
G1 X168.449 Y68.959 E54.43926
G1 X171.745 Y72.256 E54.67321
G1 X171.745 Y71.559 E54.70818
G1 X169.145 Y68.959 E54.89268
G1 X169.842 Y68.959 E54.92764
G1 X171.900 Y71.017 E55.07370
;LAYER_CHANGE
;Z:0.65
;HEIGHT:0.3
G1 Z0.650 F6600.000
M104 S200 ; set temperature
M140 S60 ; set bed temperature
G1 X173.562 Y69.907
;TYPE:Skirt
G1 F3600.000
G1 X173.775 Y70.226 E55.09071
G1 X173.934 Y70.977 E55.12474
G1 X173.779 Y90.409 E55.98670
G1 X173.429 Y103.412 E56.56363
G1 X173.188 Y105.002 E56.63496
G1 X172.983 Y105.457 E56.65710
G1 X172.673 Y105.848 E56.67924
G1 X172.035 Y106.274 E56.71327
G1 X171.281 Y106.434 E56.74745
G1 X153.883 Y106.589 E57.51917
G1 X132.268 Y106.589 E58.47789
G1 X131.797 Y106.532 E58.49895
G1 X131.355 Y106.369 E58.51984
G1 X130.570 Y105.727 E58.56481
G1 X130.164 Y105.134 E58.59669
G1 X129.989 Y104.437 E58.62856
G1 X129.485 Y89.926 E59.27259
G1 X129.493 Y70.863 E60.11813
G1 X129.708 Y69.877 E60.16289
G1 X129.968 Y69.340 E60.18936
G1 X131.832 Y67.431 E60.30768
G1 X132.617 Y67.003 E60.34736
G1 X134.154 Y66.769 E60.41632
G1 X169.988 Y66.930 E62.00575
G1 X170.581 Y67.063 E62.03269
G1 X171.105 Y67.364 E62.05947
G1 X173.349 Y69.589 E62.19963
G1 X173.528 Y69.858 E62.21398
G1 X173.246 Y70.047 F6600.000
G1 F3600.000
G1 X173.457 Y70.360 E62.23070
G1 X173.590 Y70.991 E62.25930
G1 X173.434 Y90.405 E63.12043
G1 X173.086 Y103.375 E63.69595
G1 X172.867 Y104.873 E63.76310
G1 X172.698 Y105.261 E63.78185
G1 X172.437 Y105.597 E63.80075
G1 X171.904 Y105.955 E63.82921
G1 X171.273 Y106.089 E63.85780
G1 X153.881 Y106.244 E64.62927
G1 X132.272 Y106.244 E65.58773
G1 X131.497 Y106.054 E65.62314
G1 X130.822 Y105.491 E65.66213
G1 X130.478 Y104.991 E65.68905
G1 X130.333 Y104.405 E65.71582
G1 X129.830 Y89.912 E66.35907
G1 X129.836 Y70.902 E67.20223
G1 X130.036 Y69.987 E67.24378
G1 X130.260 Y69.524 E67.26662
G1 X132.060 Y67.690 E67.38059
G1 X132.727 Y67.330 E67.41420
G1 X134.154 Y67.114 E67.47822
G1 X169.959 Y67.274 E69.06632
G1 X170.461 Y67.387 E69.08917
G1 X170.908 Y67.648 E69.11215
G1 X173.097 Y69.825 E69.24906
G1 X173.213 Y69.997 E69.25827
G1 X172.936 Y70.159 F6600.000
G1 F3600.000
G1 X173.157 Y70.539 E69.27776
G1 X173.244 Y70.967 E69.29711
G1 X173.090 Y90.391 E70.15872
G1 X172.744 Y103.308 E70.73183
G1 X172.544 Y104.747 E70.79631
G1 X172.197 Y105.349 E70.82709
G1 X171.781 Y105.633 E70.84945
G1 X171.286 Y105.744 E70.87193
G1 X153.882 Y105.899 E71.64393
G1 X132.252 Y105.899 E72.60330
G1 X131.751 Y105.793 E72.62604
G1 X131.326 Y105.507 E72.64877
G1 X130.857 Y104.976 E72.68020
G1 X130.678 Y104.398 E72.70703
G1 X130.175 Y89.906 E73.35018
G1 X130.178 Y70.949 E74.19101
G1 X130.363 Y70.097 E74.22971
G1 X130.550 Y69.712 E74.24869
G1 X132.289 Y67.948 E74.35859
G1 X132.833 Y67.659 E74.38592
G1 X134.154 Y67.459 E74.44514
G1 X169.862 Y67.615 E76.02900
G1 X170.367 Y67.721 E76.05186
G1 X170.792 Y68.007 E76.07459
G1 X172.893 Y70.117 E76.20668
G1 E72.20668 F2400.000
G92 E0
G1 Z0.750 F6600.000
G1 X168.345 Y89.201
G1 Z0.650
G1 E4.00000 F2400.000
;TYPE:Support material interface
;WIDTH:0.35
G1 F3600.000
G1 X168.345 Y71.930 E4.61526
G1 X167.059 Y71.930 E4.66106
G1 X167.059 Y89.072 E5.27175
G1 X165.774 Y89.072 E5.31755
G1 X165.774 Y71.930 E5.92823
G1 X164.488 Y71.930 E5.97403
G1 X164.488 Y89.072 E6.58472
G1 X163.203 Y89.072 E6.63052
G1 X163.203 Y71.930 E7.24120
G1 X161.917 Y71.930 E7.28700
G1 X161.917 Y89.072 E7.89768
G1 X160.631 Y89.072 E7.94348
G1 X160.631 Y71.930 E8.55417
G1 X160.203 Y71.930 E8.56942
G1 X160.203 Y80.501 E8.87476
G1 X159.346 Y80.501 E8.90531
G1 X159.346 Y89.072 E9.21065
G1 X158.060 Y89.072 E9.25645
G1 X158.060 Y80.501 E9.56179
G1 X156.774 Y80.501 E9.60759
G1 X156.774 Y89.072 E9.91294
G1 X155.489 Y89.072 E9.95874
G1 X155.489 Y80.501 E10.26408
G1 X154.203 Y80.501 E10.30988
G1 X154.203 Y89.072 E10.61522
G1 X152.918 Y89.072 E10.66102
G1 X152.918 Y80.501 E10.96636
G1 X151.632 Y80.501 E11.01216
G1 X151.632 Y89.072 E11.31750
G1 X150.346 Y89.072 E11.36330
G1 X150.346 Y80.501 E11.66865
G1 X149.061 Y80.501 E11.71445
G1 X149.061 Y89.072 E12.01979
G1 X147.775 Y89.072 E12.06559
G1 X147.775 Y80.501 E12.37093
G1 X146.489 Y80.501 E12.41673
G1 X146.489 Y89.072 E12.72207
G1 X145.204 Y89.072 E12.76787
