; generated by PrusaSlicer 2.3.1+win64 on 2021-07-16 at 02:42:03 UTC

; 

; external perimeters extrusion width = 0.45mm
; perimeters extrusion width = 0.45mm
; infill extrusion width = 0.45mm
; solid infill extrusion width = 0.45mm
; top infill extrusion width = 0.40mm
; support material extrusion width = 0.35mm
; first layer extrusion width = 0.42mm

M107
M190 S80 ; set bed temperature and wait for it to be reached
M104 S230 ; set temperature
;TYPE:Custom
G28 ; home all axes
G1 Z5 F5000 ; lift nozzle
M109 S230 ; set temperature and wait for it to be reached
G21 ; set units to millimeters
G90 ; use absolute coordinates
M82 ; use absolute distances for extrusion
G92 E0
; Filament gcode
;LAYER_CHANGE
;Z:0.35
;HEIGHT:0.35
G1 Z0.350 F6600.000
G1 E-4.00000 F2400.000
G92 E0
G1 Z0.450 F6600.000
G1 X119.688 Y68.319
G1 Z0.350
G1 E4.00000 F2400.000
;TYPE:Skirt
;WIDTH:0.42
G1 X121.550 Y66.410 E4.13386
G1 X121.918 Y66.150 E4.15646
G1 X122.338 Y65.977 E4.17922
G1 X123.878 Y65.743 E4.25742
G1 X159.737 Y65.905 E6.05703
G1 X160.354 Y66.057 E6.08891
G1 X160.891 Y66.389 E6.12062
G1 X163.102 Y68.592 E6.27727
G1 X163.452 Y69.097 E6.30810
G1 X163.606 Y69.531 E6.33122
G1 X163.659 Y69.989 E6.35434
G1 X163.503 Y106.084 E8.16582
G1 X162.875 Y136.120 E9.67353
G1 X162.654 Y137.197 E9.72871
G1 X162.353 Y137.792 E9.76217
G1 X160.585 Y139.593 E9.88883
G1 X160.080 Y139.943 E9.91967
G1 X159.653 Y140.096 E9.94243
G1 X159.199 Y140.150 E9.96538
G1 X122.372 Y140.144 E11.81356
G1 X121.747 Y139.997 E11.84579
G1 X121.199 Y139.663 E11.87802
G1 X118.984 Y137.455 E12.03494
G1 X118.634 Y136.951 E12.06577
G1 X118.480 Y136.516 E12.08889
G1 X118.427 Y136.059 E12.11201
G1 X118.583 Y99.964 E13.92348
G1 X119.214 Y69.875 E15.43385
G1 X119.428 Y68.864 E15.48570
G1 X119.662 Y68.373 E15.51300
G1 X119.971 Y68.522 F6600.000
G1 F2400.000
G1 X121.782 Y66.665 E15.64312
G1 X122.451 Y66.304 E15.68131
G1 X123.878 Y66.088 E15.75374
G1 X159.702 Y66.249 E17.55159
G1 X160.221 Y66.375 E17.57839
G1 X160.676 Y66.659 E17.60535
G1 X162.848 Y68.826 E17.75930
G1 X163.141 Y69.246 E17.78498
G1 X163.314 Y69.990 E17.82333
G1 X163.158 Y106.085 E19.63482
G1 X162.531 Y136.102 E21.14156
G1 X162.326 Y137.087 E21.19208
G1 X162.072 Y137.593 E21.22048
G1 X160.352 Y139.339 E21.34350
G1 X159.932 Y139.632 E21.36919
G1 X159.194 Y139.805 E21.40722
G1 X122.404 Y139.801 E23.25353
G1 X121.875 Y139.677 E23.28081
G1 X121.413 Y139.391 E23.30809
G1 X119.238 Y137.222 E23.46224
G1 X118.945 Y136.802 E23.48793
G1 X118.772 Y136.058 E23.52627
G1 X118.928 Y99.963 E25.33776
G1 X119.557 Y69.904 E26.84660
G1 X119.757 Y68.970 E26.89457
G1 X119.946 Y68.576 E26.91649
G1 X120.254 Y68.725 F6600.000
G1 F2400.000
G1 X120.274 Y68.685 E26.91872
G1 X122.011 Y66.923 E27.04291
G1 X122.557 Y66.632 E27.07398
G1 X123.878 Y66.433 E27.14099
G1 X159.669 Y66.592 E28.93723
G1 X160.093 Y66.696 E28.95914
G1 X160.459 Y66.928 E28.98090
G1 X162.595 Y69.060 E29.13236
G1 X162.831 Y69.397 E29.15299
G1 X162.969 Y69.992 E29.18363
G1 X162.814 Y106.080 E30.99476
G1 X162.186 Y136.084 E32.50090
G1 X161.998 Y136.980 E32.54685
G1 X161.791 Y137.393 E32.57003
G1 X160.117 Y139.086 E32.68950
G1 X159.780 Y139.322 E32.71013
G1 X159.191 Y139.460 E32.74049
G1 X122.431 Y139.457 E34.58534
G1 X122.001 Y139.356 E34.60752
G1 X121.629 Y139.122 E34.62957
G1 X119.493 Y136.990 E34.78104
G1 X119.255 Y136.651 E34.80180
G1 X119.117 Y136.056 E34.83245
G1 X119.272 Y99.968 E36.64358
G1 X119.901 Y69.935 E38.15115
G1 X120.086 Y69.073 E38.19539
G1 X120.228 Y68.779 E38.21178
G1 E34.21178
G92 E0
G1 Z0.450 F6600.000
G1 X123.875 Y67.778
G1 Z0.350
G1 E4.00000 F2400.000
;TYPE:Support material
G1 X135.755 Y79.658 E4.84317
G1 X135.755 Y78.961 E4.87814
G1 X124.727 Y67.933 E5.66083
G1 X125.424 Y67.933 E5.69580
G1 X135.755 Y78.264 E6.42905
G1 X135.755 Y77.567 E6.46402
G1 X126.121 Y67.933 E7.14781
G1 X126.817 Y67.933 E7.18278
G1 X135.755 Y76.871 E7.81712
G1 X135.755 Y76.174 E7.85208
G1 X127.514 Y67.933 E8.43697
G1 X128.211 Y67.933 E8.47194
G1 X135.755 Y75.477 E9.00737
G1 X135.755 Y74.780 E9.04234
G1 X128.908 Y67.933 E9.52832
G1 X129.604 Y67.933 E9.56329
G1 X135.755 Y74.083 E9.99982
G1 X135.755 Y73.387 E10.03478
G1 X130.301 Y67.933 E10.42186
G1 X130.998 Y67.933 E10.45683
G1 X135.755 Y72.690 E10.79445
G1 X135.755 Y71.993 E10.82942
G1 X131.695 Y67.933 E11.11758
G1 X132.392 Y67.933 E11.15255
G1 X135.755 Y71.296 E11.39127
G1 X135.755 Y70.599 E11.42623
G1 X133.088 Y67.933 E11.61549
G1 X133.785 Y67.933 E11.65046
G1 X135.910 Y70.058 E11.80129
G1 E7.80129
G92 E0
G1 Z0.450 F6600.000
G1 X161.624 Y69.991
G1 Z0.350
G1 E4.00000 F2400.000
G1 X159.566 Y67.933 E4.14606
G1 X158.869 Y67.933 E4.18103
G1 X161.469 Y70.532 E4.36552
G1 X161.469 Y71.229 E4.40049
G1 X158.172 Y67.933 E4.63444
G1 X157.476 Y67.933 E4.66941
G1 X161.469 Y71.926 E4.95281
G1 X161.469 Y72.623 E4.98777
G1 X156.779 Y67.933 E5.32063
G1 X156.082 Y67.933 E5.35560
G1 X161.469 Y73.319 E5.73790
G1 X161.469 Y74.016 E5.77287
G1 X155.385 Y67.933 E6.20463
G1 X154.689 Y67.933 E6.23960
G1 X161.469 Y74.713 E6.72082
G1 X161.469 Y75.410 E6.75578
G1 X153.992 Y67.933 E7.28645
G1 X153.295 Y67.933 E7.32142
G1 X161.469 Y76.107 E7.90154
G1 X161.469 Y76.803 E7.93651
G1 X152.598 Y67.933 E8.56608
G1 X151.901 Y67.933 E8.60105
G1 X161.469 Y77.500 E9.28007
G1 X161.469 Y78.197 E9.31504
G1 X151.205 Y67.933 E10.04352
G1 X150.508 Y67.933 E10.07849
G1 X161.469 Y78.894 E10.85642
G1 X161.469 Y79.590 E10.89139
G1 X149.811 Y67.933 E11.71878
G1 X149.114 Y67.933 E11.75374
G1 X161.469 Y80.287 E12.63058
G1 X161.469 Y80.984 E12.66555
G1 X148.515 Y68.031 E13.58490
G1 X148.167 Y68.379 E13.60963
G1 X161.469 Y81.681 E14.55371
G1 X161.469 Y82.378 E14.58868
G1 X147.818 Y68.727 E15.55748
G1 X147.470 Y69.076 E15.58221
G1 X161.469 Y83.074 E16.57574
G1 X161.469 Y83.771 E16.61071
G1 X147.122 Y69.424 E17.62897
G1 X146.957 Y69.589 E17.64068
G1 X146.957 Y69.956 E17.65908
G1 X161.469 Y84.468 E18.68905
G1 X161.469 Y85.165 E18.72402
G1 X146.957 Y70.653 E19.75399
G1 X146.957 Y71.350 E19.78896
G1 X161.469 Y85.862 E20.81893
G1 X161.469 Y86.558 E20.85390
G1 X146.957 Y72.046 E21.88387
G1 X146.957 Y72.743 E21.91884
G1 X161.469 Y87.255 E22.94881
G1 X161.469 Y87.952 E22.98377
G1 X146.957 Y73.440 E24.01374
G1 X146.957 Y74.137 E24.04871
G1 X161.469 Y88.649 E25.07868
G1 X161.469 Y89.345 E25.11365
G1 X146.957 Y74.833 E26.14362
G1 X146.957 Y75.530 E26.17859
G1 X161.469 Y90.042 E27.20856
G1 X161.469 Y90.739 E27.24353
G1 X146.957 Y76.227 E28.27350
G1 X146.957 Y76.924 E28.30846
G1 X161.469 Y91.436 E29.33843
G1 X161.469 Y92.133 E29.37340
G1 X146.957 Y77.621 E30.40337
G1 X146.957 Y78.317 E30.43834
G1 X161.469 Y92.829 E31.46831
G1 X161.469 Y93.526 E31.50328
G1 X146.957 Y79.014 E32.53325
G1 X146.957 Y79.711 E32.56822
G1 X161.469 Y94.223 E33.59818
G1 X161.469 Y94.920 E33.63315
G1 X146.957 Y80.408 E34.66312
G1 X146.957 Y80.790 E34.68229
G1 X146.642 Y80.790 E34.69809
G1 X161.469 Y95.617 E35.75040
G1 X161.469 Y96.313 E35.78537
G1 X145.945 Y80.790 E36.88713
G1 X145.248 Y80.790 E36.92210
G1 X161.469 Y97.010 E38.07332
G1 X161.469 Y97.707 E38.10829
G1 X144.552 Y80.790 E39.30896
G1 X143.855 Y80.790 E39.34393
G1 X161.469 Y98.404 E40.59405
G1 X161.469 Y99.100 E40.62902
G1 X143.158 Y80.790 E41.92860
G1 X142.461 Y80.790 E41.96356
G1 X161.469 Y99.797 E43.31259
G1 X161.469 Y100.494 E43.34756
G1 X141.764 Y80.790 E44.74604
G1 X141.068 Y80.790 E44.78101
G1 X161.469 Y101.191 E46.22895
G1 X161.469 Y101.888 E46.26392
G1 X140.371 Y80.790 E47.76131
G1 X139.674 Y80.790 E47.79627
G1 X161.469 Y102.584 E49.34312
G1 X161.469 Y103.281 E49.37808
G1 X138.977 Y80.790 E50.97438
G1 X138.281 Y80.790 E51.00935
G1 X161.469 Y103.978 E52.65510
G1 X161.469 Y104.675 E52.69006
G1 X137.584 Y80.790 E54.38527
G1 X136.887 Y80.790 E54.42023
G1 X161.469 Y105.371 E56.16489
G1 X161.469 Y106.068 E56.19986
G1 X136.190 Y80.790 E57.99396
G1 X135.755 Y80.790 E58.01581
G1 X135.755 Y80.354 E58.03765
G1 X123.333 Y67.933 E58.91925
G1 X122.899 Y67.933 E58.94104
G1 X122.768 Y68.064 E58.95036
G1 X161.337 Y106.634 E61.68777
G1 X160.989 Y106.982 E61.71249
G1 X122.420 Y68.413 E64.44990
G1 X122.071 Y68.761 E64.47463
G1 X160.640 Y107.330 E67.21203
G1 X160.292 Y107.679 E67.23676
G1 X121.723 Y69.109 E69.97416
G1 X121.374 Y69.458 E69.99889
G1 X159.944 Y108.027 E72.73630
G1 X159.812 Y108.159 E72.74562
G1 X159.378 Y108.159 E72.76740
G1 X121.243 Y70.023 E75.47401
G1 X121.243 Y70.720 E75.50897
G1 X158.681 Y108.159 E78.16612
G1 X157.985 Y108.159 E78.20109
G1 X121.243 Y71.417 E80.80879
G1 X121.243 Y72.113 E80.84376
G1 X157.288 Y108.159 E83.40200
G1 X156.591 Y108.159 E83.43697
G1 X121.243 Y72.810 E85.94576
G1 X121.243 Y73.507 E85.98073
G1 X155.894 Y108.159 E88.44007
G1 X155.198 Y108.159 E88.47503
G1 X121.243 Y74.204 E90.88492
G1 X121.243 Y74.901 E90.91989
G1 X154.501 Y108.159 E93.28032
G1 X153.804 Y108.159 E93.31529
G1 X121.243 Y75.597 E95.62627
G1 X121.243 Y76.294 E95.66123
G1 X153.107 Y108.159 E97.92276
G1 X152.410 Y108.159 E97.95773
G1 X121.243 Y76.991 E100.16980
G1 X121.243 Y77.688 E100.20477
G1 X151.714 Y108.159 E102.36739
G1 X151.017 Y108.159 E102.40236
G1 X121.243 Y78.384 E104.51552
G1 X121.243 Y79.081 E104.55049
G1 X150.320 Y108.159 E106.61420
G1 X149.623 Y108.159 E106.64917
G1 X121.243 Y79.778 E108.66343
G1 X121.243 Y80.475 E108.69840
G1 X148.927 Y108.159 E110.66321
G1 X148.230 Y108.159 E110.69817
G1 X121.243 Y81.172 E112.61353
G1 X121.243 Y81.868 E112.64850
G1 X147.533 Y108.159 E114.51440
G1 X146.836 Y108.159 E114.54936
G1 X121.243 Y82.565 E116.36581
G1 X121.243 Y83.262 E116.40078
G1 X146.139 Y108.159 E118.16777
G1 X145.443 Y108.159 E118.20274
G1 X121.243 Y83.959 E119.92028
G1 X121.243 Y84.656 E119.95525
G1 X144.746 Y108.159 E121.62334
G1 X144.049 Y108.159 E121.65831
G1 X121.243 Y85.352 E123.27694
G1 X121.243 Y86.049 E123.31191
G1 X143.352 Y108.159 E124.88109
G1 X142.656 Y108.159 E124.91606
G1 X121.243 Y86.746 E126.43579
G1 X121.243 Y87.443 E126.47076
G1 X141.959 Y108.159 E127.94103
G1 X141.262 Y108.159 E127.97600
G1 X121.243 Y88.139 E129.39683
G1 X121.243 Y88.836 E129.43179
G1 X140.565 Y108.159 E130.80316
G1 X139.868 Y108.159 E130.83813
G1 X121.243 Y89.533 E132.16005
G1 X121.243 Y90.230 E132.19502
G1 X139.172 Y108.159 E133.46748
G1 X138.475 Y108.159 E133.50245
G1 X121.243 Y90.927 E134.72546
G1 X121.243 Y91.623 E134.76043
G1 X137.778 Y108.159 E135.93398
G1 X137.081 Y108.159 E135.96895
G1 X121.243 Y92.320 E137.09306
G1 X121.243 Y93.017 E137.12802
G1 X136.385 Y108.159 E138.20267
G1 X135.688 Y108.159 E138.23764
G1 X121.243 Y93.714 E139.26284
G1 X121.243 Y94.411 E139.29781
G1 X134.991 Y108.159 E140.27355
G1 X134.294 Y108.159 E140.30852
G1 X121.243 Y95.107 E141.23481
G1 X121.243 Y95.804 E141.26978
G1 X133.597 Y108.159 E142.14662
G1 X132.901 Y108.159 E142.18159
G1 X121.243 Y96.501 E143.00897
G1 X121.243 Y97.198 E143.04394
G1 X132.204 Y108.159 E143.82187
G1 X131.507 Y108.159 E143.85684
G1 X121.243 Y97.894 E144.58532
G1 X121.243 Y98.591 E144.62029
G1 X130.810 Y108.159 E145.29932
G1 X130.113 Y108.159 E145.33429
G1 X121.243 Y99.288 E145.96386
G1 X121.243 Y99.985 E145.99883
G1 X129.417 Y108.159 E146.57895
G1 X128.720 Y108.159 E146.61391
G1 X121.243 Y100.682 E147.14458
G1 X121.243 Y101.378 E147.17955
G1 X128.023 Y108.159 E147.66076
G1 X127.326 Y108.159 E147.69573
G1 X121.243 Y102.075 E148.12749
G1 X121.243 Y102.772 E148.16246
G1 X126.630 Y108.159 E148.54477
G1 X125.933 Y108.159 E148.57974
G1 X121.243 Y103.469 E148.91259
G1 X121.243 Y104.165 E148.94756
G1 X125.236 Y108.159 E149.23096
G1 X124.539 Y108.159 E149.26593
G1 X121.243 Y104.862 E149.49988
G1 X121.243 Y105.559 E149.53485
G1 X123.842 Y108.159 E149.71934
G1 X123.146 Y108.159 E149.75431
G1 X121.088 Y106.101 E149.90037
G1 E145.90037
G92 E0
G1 Z0.450 F6600.000
G1 X123.249 Y97.734
G1 Z0.350
G1 E4.00000 F2400.000
G1 X135.129 Y109.614 E4.84317
G1 X135.129 Y108.917 E4.87814
G1 X124.101 Y97.889 E5.66083
G1 X124.798 Y97.889 E5.69580
G1 X135.129 Y108.221 E6.42905
G1 X135.129 Y107.524 E6.46402
G1 X125.495 Y97.889 E7.14781
G1 X126.192 Y97.889 E7.18278
G1 X135.129 Y106.827 E7.81712
G1 X135.129 Y106.130 E7.85208
G1 X126.888 Y97.889 E8.43697
G1 X127.585 Y97.889 E8.47194
G1 X135.129 Y105.434 E9.00737
G1 X135.129 Y104.737 E9.04234
G1 X128.282 Y97.889 E9.52832
G1 X128.979 Y97.889 E9.56329
G1 X135.129 Y104.040 E9.99982
G1 X135.129 Y103.343 E10.03478
G1 X129.675 Y97.889 E10.42186
G1 X130.372 Y97.889 E10.45683
G1 X135.129 Y102.646 E10.79445
G1 X135.129 Y101.950 E10.82942
G1 X131.069 Y97.889 E11.11758
G1 X131.766 Y97.889 E11.15255
G1 X135.129 Y101.253 E11.39127
G1 X135.129 Y100.556 E11.42623
G1 X132.463 Y97.889 E11.61549
G1 X133.159 Y97.889 E11.65046
G1 X135.284 Y100.014 E11.80129
G1 E7.80129
G92 E0
G1 Z0.450 F6600.000
G1 X160.998 Y99.947
G1 Z0.350
G1 E4.00000 F2400.000
G1 X158.940 Y97.889 E4.14606
G1 X158.243 Y97.889 E4.18103
G1 X160.843 Y100.489 E4.36552
G1 X160.843 Y101.186 E4.40049
G1 X157.547 Y97.889 E4.63444
G1 X156.850 Y97.889 E4.66941
G1 X160.843 Y101.882 E4.95281
G1 X160.843 Y102.579 E4.98777
G1 X156.153 Y97.889 E5.32063
G1 X155.456 Y97.889 E5.35560
G1 X160.843 Y103.276 E5.73790
G1 X160.843 Y103.973 E5.77287
G1 X154.760 Y97.889 E6.20463
G1 X154.063 Y97.889 E6.23960
G1 X160.843 Y104.670 E6.72082
G1 X160.843 Y105.366 E6.75578
G1 X153.366 Y97.889 E7.28645
G1 X152.669 Y97.889 E7.32142
G1 X160.843 Y106.063 E7.90154
G1 X160.843 Y106.760 E7.93651
G1 X151.972 Y97.889 E8.56608
G1 X151.276 Y97.889 E8.60105
G1 X160.843 Y107.457 E9.28007
G1 X160.843 Y108.153 E9.31504
G1 X150.579 Y97.889 E10.04352
G1 X149.882 Y97.889 E10.07849
G1 X160.843 Y108.850 E10.85642
G1 X160.843 Y109.547 E10.89139
G1 X149.185 Y97.889 E11.71878
G1 X148.489 Y97.889 E11.75374
G1 X160.843 Y110.244 E12.63058
G1 X160.843 Y110.941 E12.66555
G1 X147.889 Y97.987 E13.58490
G1 X147.541 Y98.336 E13.60963
G1 X160.843 Y111.637 E14.55371
G1 X160.843 Y112.334 E14.58868
G1 X147.193 Y98.684 E15.55748
G1 X146.844 Y99.032 E15.58221
G1 X160.843 Y113.031 E16.57574
G1 X160.843 Y113.728 E16.61071
G1 X146.496 Y99.381 E17.62897
G1 X146.331 Y99.546 E17.64068
G1 X146.331 Y99.912 E17.65908
G1 X160.843 Y114.425 E18.68905
G1 X160.843 Y115.121 E18.72402
G1 X146.331 Y100.609 E19.75399
G1 X146.331 Y101.306 E19.78896
G1 X160.843 Y115.818 E20.81893
G1 X160.843 Y116.515 E20.85390
G1 X146.331 Y102.003 E21.88387
G1 X146.331 Y102.700 E21.91884
G1 X160.843 Y117.212 E22.94881
G1 X160.843 Y117.908 E22.98377
G1 X146.331 Y103.396 E24.01374
G1 X146.331 Y104.093 E24.04871
G1 X160.843 Y118.605 E25.07868
G1 X160.843 Y119.302 E25.11365
G1 X146.331 Y104.790 E26.14362
G1 X146.331 Y105.487 E26.17859
G1 X160.843 Y119.999 E27.20856
G1 X160.843 Y120.696 E27.24353
G1 X146.331 Y106.184 E28.27350
G1 X146.331 Y106.880 E28.30846
G1 X160.843 Y121.392 E29.33843
G1 X160.843 Y122.089 E29.37340
G1 X146.331 Y107.577 E30.40337
G1 X146.331 Y108.274 E30.43834
G1 X160.843 Y122.786 E31.46831
G1 X160.843 Y123.483 E31.50328
G1 X146.331 Y108.971 E32.53325
G1 X146.331 Y109.667 E32.56822
G1 X160.843 Y124.179 E33.59818
G1 X160.843 Y124.876 E33.63315
G1 X146.331 Y110.364 E34.66312
G1 X146.331 Y110.746 E34.68229
G1 X146.016 Y110.746 E34.69809
G1 X160.843 Y125.573 E35.75040
G1 X160.843 Y126.270 E35.78537
G1 X145.319 Y110.746 E36.88713
G1 X144.623 Y110.746 E36.92210
G1 X160.843 Y126.967 E38.07332
G1 X160.843 Y127.663 E38.10829
G1 X143.926 Y110.746 E39.30896
G1 X143.229 Y110.746 E39.34393
G1 X160.843 Y128.360 E40.59405
G1 X160.843 Y129.057 E40.62902
G1 X142.532 Y110.746 E41.92860
G1 X141.835 Y110.746 E41.96356
G1 X160.843 Y129.754 E43.31259
G1 X160.843 Y130.451 E43.34756
G1 X141.139 Y110.746 E44.74604
G1 X140.442 Y110.746 E44.78101
G1 X160.843 Y131.147 E46.22895
G1 X160.843 Y131.844 E46.26392
G1 X139.745 Y110.746 E47.76131
G1 X139.048 Y110.746 E47.79627
G1 X160.843 Y132.541 E49.34312
G1 X160.843 Y133.238 E49.37808
G1 X138.352 Y110.746 E50.97438
G1 X137.655 Y110.746 E51.00935
G1 X160.843 Y133.934 E52.65510
G1 X160.843 Y134.631 E52.69006
G1 X136.958 Y110.746 E54.38527
G1 X136.261 Y110.746 E54.42023
G1 X160.843 Y135.328 E56.16489
G1 X160.843 Y136.025 E56.19986
G1 X135.564 Y110.746 E57.99396
G1 X135.129 Y110.746 E58.01581
G1 X135.129 Y110.311 E58.03765
G1 X122.708 Y97.889 E58.91925
G1 X122.274 Y97.889 E58.94104
G1 X122.142 Y98.021 E58.95036
