; generated by PrusaSlicer 2.3.1+win64 on 2021-07-17 at 18:57:05 UTC

; 

; external perimeters extrusion width = 0.45mm
; perimeters extrusion width = 0.45mm
; infill extrusion width = 0.45mm
; solid infill extrusion width = 0.45mm
; top infill extrusion width = 0.40mm
; support material extrusion width = 0.35mm
; first layer extrusion width = 0.42mm

M107
M190 S80 ; set bed temperature and wait for it to be reached
M104 S230 ; set temperature
;TYPE:Custom
G28 ; home all axes
G1 Z5 F5000 ; lift nozzle
M109 S230 ; set temperature and wait for it to be reached
G21 ; set units to millimeters
G90 ; use absolute coordinates
M82 ; use absolute distances for extrusion
G92 E0
; Filament gcode
;LAYER_CHANGE
;Z:0.35
;HEIGHT:0.35
G1 Z0.350 F6600.000
G1 E-4.00000 F2400.000
G92 E0
G1 Z0.450 F6600.000
G1 X128.581 Y64.374
G1 Z0.350
G1 E4.00000 F2400.000
;TYPE:Skirt
;WIDTH:0.42
G1 X128.723 Y64.089 E4.01601
G1 X129.035 Y63.687 E4.04155
G1 X130.596 Y62.128 E4.15226
G1 X130.960 Y61.852 E4.17520
G1 X139.920 Y57.360 E4.67818
G1 X140.363 Y57.201 E4.70183
G1 X151.276 Y57.149 E5.24951
G1 X152.104 Y57.327 E5.29200
G1 X161.426 Y61.692 E5.80861
G1 X161.867 Y62.024 E5.83629
G1 X164.022 Y64.260 E5.99216
G1 X168.416 Y73.625 E6.51128
G1 X168.562 Y74.069 E6.53475
G1 X168.395 Y85.363 E7.10161
G1 X168.239 Y85.797 E7.12473
G1 X163.878 Y94.507 E7.61362
G1 X163.601 Y94.872 E7.63657
G1 X162.040 Y96.434 E7.74741
G1 X161.628 Y96.751 E7.77352
G1 X152.683 Y101.234 E8.27562
G1 X152.226 Y101.395 E8.29996
G1 X141.330 Y101.444 E8.84678
G1 X140.866 Y101.391 E8.87025
G1 X131.314 Y97.047 E9.39683
G1 X130.887 Y96.721 E9.42381
G1 X129.006 Y94.840 E9.55731
G1 X128.723 Y94.467 E9.58078
G1 X124.194 Y84.982 E10.10831
G1 X124.043 Y84.535 E10.13195
G1 X123.999 Y84.083 E10.15479
G1 X124.208 Y73.231 E10.69951
G1 X124.364 Y72.797 E10.72262
G1 X128.554 Y64.428 E11.19232
G1 X128.863 Y64.581 F6600.000
G1 F2400.000
G1 X129.020 Y64.266 E11.20999
G1 X129.279 Y63.931 E11.23126
G1 X131.138 Y62.147 E11.36057
G1 X140.441 Y57.537 E11.88162
G1 X151.276 Y57.494 E12.42536
G1 X151.968 Y57.644 E12.46088
G1 X161.260 Y61.995 E12.97583
G1 X161.626 Y62.270 E12.99880
G1 X163.730 Y64.443 E13.15059
G1 X168.224 Y74.136 E13.68677
G1 X168.058 Y85.287 E14.24648
G1 X163.583 Y94.328 E14.75272
G1 X161.796 Y96.190 E14.88224
G1 X161.453 Y96.453 E14.90394
G1 X152.152 Y101.058 E15.42482
G1 X140.939 Y101.053 E15.98757
G1 X131.489 Y96.749 E16.50867
G1 X131.130 Y96.476 E16.53133
G1 X129.020 Y94.292 E16.68373
G1 X124.381 Y84.467 E17.22903
G1 X124.545 Y73.306 E17.78918
G1 X128.837 Y64.635 E18.27474
G1 X129.145 Y64.788 F6600.000
G1 F2400.000
G1 X129.315 Y64.444 E18.29401
G1 X131.317 Y62.442 E18.43610
G1 X140.520 Y57.873 E18.95175
G1 X151.276 Y57.839 E19.49152
G1 X151.829 Y57.959 E19.51992
G1 X161.092 Y62.296 E20.03324
G1 X163.437 Y64.626 E20.19914
G1 X167.886 Y74.207 E20.72928
G1 X167.722 Y85.209 E21.28149
G1 X163.288 Y94.150 E21.78236
G1 X161.278 Y96.156 E21.92487
G1 X152.077 Y100.722 E22.44037
G1 X141.018 Y100.718 E22.99538
G1 X131.662 Y96.451 E23.51143
G1 X129.317 Y94.116 E23.67754
G1 X124.718 Y84.394 E24.21727
G1 X124.880 Y73.385 E24.76982
G1 X129.118 Y64.842 E25.24842
G1 E21.24842
G92 E0
G1 Z0.450 F6600.000
G1 X126.033 Y84.113
G1 Z0.350
G1 E4.00000 F2400.000
;TYPE:Support material
G1 X128.473 Y86.553 E4.17317
G1 X129.170 Y86.553 E4.20814
G1 X126.189 Y83.571 E4.41975
G1 X126.189 Y82.875 E4.45472
G1 X130.022 Y86.708 E4.72679
G1 E0.72679
G92 E0
G1 Z0.450 F6600.000
G1 X132.322 Y95.279
G1 Z0.350
G1 E4.00000 F2400.000
G1 X130.474 Y93.431 E4.13116
G1 X130.474 Y92.734 E4.16613
G1 X132.864 Y95.124 E4.33573
G1 X133.561 Y95.124 E4.37070
G1 X130.474 Y92.038 E4.58975
G1 X130.474 Y91.341 E4.62472
G1 X134.257 Y95.124 E4.89323
G1 X134.954 Y95.124 E4.92820
G1 X130.474 Y90.644 E5.24616
G1 X130.474 Y89.947 E5.28113
G1 X135.651 Y95.124 E5.64854
G1 X136.348 Y95.124 E5.68351
G1 X130.474 Y89.251 E6.10037
G1 X130.474 Y88.554 E6.13534
G1 X137.045 Y95.124 E6.60166
G1 X137.741 Y95.124 E6.63663
G1 X130.474 Y87.857 E7.15240
G1 X130.474 Y87.160 E7.18737
G1 X138.593 Y95.279 E7.76361
G1 X138.890 Y96.970 F6600.000
G1 F2400.000
G1 X141.330 Y99.410 E7.93678
G1 X142.027 Y99.410 E7.97175
G1 X139.045 Y96.428 E8.18335
G1 X139.045 Y95.731 E8.21832
G1 X142.724 Y99.410 E8.47938
G1 X143.420 Y99.410 E8.51434
G1 X126.189 Y82.178 E9.73735
G1 X126.189 Y81.481 E9.77232
G1 X144.117 Y99.410 E11.04479
G1 X144.814 Y99.410 E11.07975
G1 X126.189 Y80.784 E12.40167
G1 X126.189 Y80.087 E12.43664
G1 X145.511 Y99.410 E13.80801
G1 X146.208 Y99.410 E13.84298
G1 X126.189 Y79.391 E15.26380
G1 X126.189 Y78.694 E15.29877
G1 X146.904 Y99.410 E16.76904
G1 X147.601 Y99.410 E16.80401
G1 X126.189 Y77.997 E18.32374
G1 X126.189 Y77.300 E18.35871
G1 X148.298 Y99.410 E19.92789
G1 X148.995 Y99.410 E19.96286
G1 X126.189 Y76.603 E21.58149
G1 X126.189 Y75.907 E21.61646
G1 X149.691 Y99.410 E23.28455
G1 X150.388 Y99.410 E23.31952
G1 X126.189 Y75.210 E25.03706
G1 X126.189 Y74.513 E25.07203
G1 X151.085 Y99.410 E26.83902
G1 X151.782 Y99.410 E26.87399
G1 X126.189 Y73.816 E28.69044
G1 X126.189 Y73.697 E28.69642
G1 X126.477 Y73.408 E28.71692
G1 X152.190 Y99.121 E30.54182
G1 X152.538 Y98.773 E30.56655
G1 X126.826 Y73.060 E32.39146
G1 X127.174 Y72.712 E32.41618
G1 X152.887 Y98.424 E34.24109
G1 X153.235 Y98.076 E34.26582
G1 X127.523 Y72.363 E36.09073
G1 X127.845 Y72.041 E36.11361
G1 X127.897 Y72.041 E36.11622
G1 X153.557 Y97.701 E37.93744
G1 X153.557 Y97.005 E37.97240
G1 X128.594 Y72.041 E39.74417
G1 X129.291 Y72.041 E39.77914
G1 X153.557 Y96.308 E41.50145
G1 X153.557 Y95.611 E41.53642
G1 X129.987 Y72.041 E43.20927
G1 X130.474 Y72.041 E43.23371
G1 X130.474 Y71.831 E43.24424
G1 X153.767 Y95.124 E44.89744
G1 X154.464 Y95.124 E44.93240
G1 X130.474 Y71.134 E46.63505
G1 X130.474 Y70.437 E46.67002
G1 X155.161 Y95.124 E48.42212
G1 X155.858 Y95.124 E48.45709
G1 X130.474 Y69.741 E50.25864
G1 X130.474 Y69.044 E50.29361
G1 X156.554 Y95.124 E52.14461
G1 X157.251 Y95.124 E52.17958
G1 X130.474 Y68.347 E54.08004
G1 X130.474 Y67.650 E54.11501
G1 X157.948 Y95.124 E56.06492
G1 X158.645 Y95.124 E56.09989
G1 X130.474 Y66.953 E58.09926
G1 X130.474 Y66.257 E58.13423
G1 X159.341 Y95.124 E60.18304
G1 X160.038 Y95.124 E60.21801
G1 X130.474 Y65.560 E62.31628
G1 X130.474 Y65.126 E62.33806
G1 X130.606 Y64.995 E62.34739
G1 X160.604 Y94.993 E64.47646
G1 X160.952 Y94.644 E64.50119
G1 X130.954 Y64.646 E66.63026
G1 X131.302 Y64.298 E66.65499
G1 X161.300 Y94.296 E68.78406
G1 X161.649 Y93.948 E68.80879
G1 X131.651 Y63.949 E70.93786
G1 X131.999 Y63.601 E70.96259
G1 X161.997 Y93.599 E73.09166
G1 X162.129 Y93.468 E73.10099
G1 X162.129 Y93.034 E73.12277
G1 X132.565 Y63.470 E75.22104
G1 X133.261 Y63.470 E75.25601
G1 X162.129 Y92.337 E77.30483
G1 X162.129 Y91.640 E77.33980
G1 X133.958 Y63.470 E79.33916
G1 X134.655 Y63.470 E79.37413
G1 X162.129 Y90.943 E81.32404
G1 X162.129 Y90.247 E81.35901
G1 X135.352 Y63.470 E83.25947
G1 X136.049 Y63.470 E83.29444
G1 X162.129 Y89.550 E85.14544
G1 X162.129 Y88.853 E85.18041
G1 X136.745 Y63.470 E86.98196
G1 X137.442 Y63.470 E87.01693
G1 X162.129 Y88.156 E88.76903
G1 X162.129 Y87.459 E88.80400
G1 X138.139 Y63.470 E90.50665
G1 X138.836 Y63.470 E90.54162
G1 X162.129 Y86.763 E92.19481
G1 X162.129 Y86.553 E92.20534
G1 X162.616 Y86.553 E92.22978
G1 X139.045 Y62.983 E93.90263
G1 X139.045 Y62.286 E93.93760
G1 X163.312 Y86.553 E95.65991
G1 X164.009 Y86.553 E95.69488
G1 X139.045 Y61.589 E97.46665
G1 X139.045 Y60.892 E97.50162
G1 X164.706 Y86.553 E99.32283
G1 X164.758 Y86.553 E99.32544
G1 X165.080 Y86.230 E99.34832
G1 X139.368 Y60.518 E101.17323
G1 X139.716 Y60.170 E101.19796
G1 X165.429 Y85.882 E103.02287
G1 X165.777 Y85.534 E103.04759
G1 X140.065 Y59.821 E104.87250
G1 X140.413 Y59.473 E104.89723
G1 X166.125 Y85.185 E106.72214
G1 X166.414 Y84.896 E106.74263
G1 X166.414 Y84.777 E106.74861
G1 X140.821 Y59.184 E108.56506
G1 X141.518 Y59.184 E108.60003
G1 X166.414 Y84.081 E110.36702
G1 X166.414 Y83.384 E110.40199
G1 X142.215 Y59.184 E112.11953
G1 X142.911 Y59.184 E112.15450
G1 X166.414 Y82.687 E113.82259
G1 X166.414 Y81.990 E113.85756
G1 X143.608 Y59.184 E115.47619
G1 X144.305 Y59.184 E115.51116
G1 X166.414 Y81.293 E117.08034
G1 X166.414 Y80.597 E117.11531
G1 X145.002 Y59.184 E118.63504
G1 X145.699 Y59.184 E118.67001
G1 X166.414 Y79.900 E120.14028
G1 X166.414 Y79.203 E120.17525
G1 X146.395 Y59.184 E121.59607
G1 X147.092 Y59.184 E121.63104
G1 X166.414 Y78.506 E123.00241
G1 X166.414 Y77.809 E123.03738
G1 X147.789 Y59.184 E124.35930
G1 X148.486 Y59.184 E124.39427
G1 X166.414 Y77.113 E125.66673
G1 X166.414 Y76.416 E125.70170
G1 X149.182 Y59.184 E126.92471
G1 X149.879 Y59.184 E126.95968
G1 X153.557 Y62.862 E127.22073
G1 X153.557 Y62.165 E127.25570
G1 X150.576 Y59.184 E127.46731
G1 X151.273 Y59.184 E127.50227
G1 X153.713 Y61.624 E127.67544
G1 E123.67544
G92 E0
G1 Z0.450 F6600.000
G1 X162.284 Y65.318
G1 Z0.350
G1 E4.00000 F2400.000
G1 X160.436 Y63.470 E4.13116
G1 X159.739 Y63.470 E4.16613
G1 X162.129 Y65.859 E4.33573
G1 X162.129 Y66.556 E4.37070
G1 X159.042 Y63.470 E4.58975
G1 X158.345 Y63.470 E4.62472
G1 X162.129 Y67.253 E4.89323
G1 X162.129 Y67.950 E4.92820
G1 X157.649 Y63.470 E5.24616
G1 X156.952 Y63.470 E5.28113
G1 X162.129 Y68.646 E5.64854
G1 X162.129 Y69.343 E5.68351
G1 X156.255 Y63.470 E6.10037
G1 X155.558 Y63.470 E6.13534
G1 X162.129 Y70.040 E6.60166
G1 X162.129 Y70.737 E6.63663
G1 X154.862 Y63.470 E7.15240
G1 X154.165 Y63.470 E7.18737
G1 X162.129 Y71.433 E7.75259
G1 X162.129 Y72.041 E7.78307
G1 X162.736 Y72.041 E7.81355
G1 X166.414 Y75.719 E8.07462
G1 X166.414 Y75.022 E8.10958
G1 X163.433 Y72.041 E8.32119
G1 X164.130 Y72.041 E8.35616
G1 X166.569 Y74.481 E8.52933
;LAYER_CHANGE
;Z:0.65
;HEIGHT:0.3
G1 Z0.650 F6600.000
M104 S200 ; set temperature
M140 S60 ; set bed temperature
G1 X168.556 Y74.510
;TYPE:Skirt
G1 F3600.000
G1 X168.395 Y85.363 E9.01076
G1 X168.239 Y85.797 E9.03119
G1 X163.878 Y94.507 E9.46329
G1 X163.601 Y94.872 E9.48356
G1 X162.040 Y96.434 E9.58153
G1 X161.628 Y96.751 E9.60460
G1 X152.683 Y101.234 E10.04836
G1 X152.226 Y101.395 E10.06988
G1 X141.330 Y101.444 E10.55316
G1 X140.866 Y101.391 E10.57391
G1 X131.314 Y97.047 E11.03930
G1 X130.887 Y96.721 E11.06315
G1 X129.006 Y94.840 E11.18114
G1 X128.723 Y94.467 E11.20188
G1 X124.194 Y84.982 E11.66811
G1 X124.043 Y84.535 E11.68901
G1 X123.999 Y84.083 E11.70919
G1 X124.208 Y73.231 E12.19062
G1 X124.364 Y72.797 E12.21105
G1 X128.723 Y64.089 E12.64299
G1 X129.035 Y63.687 E12.66556
G1 X130.596 Y62.128 E12.76340
G1 X130.960 Y61.852 E12.78368
G1 X139.920 Y57.360 E13.22822
G1 X140.363 Y57.201 E13.24912
G1 X151.276 Y57.149 E13.73317
G1 X152.104 Y57.327 E13.77072
G1 X161.426 Y61.692 E14.22730
G1 X161.867 Y62.024 E14.25177
G1 X164.022 Y64.260 E14.38953
G1 X168.416 Y73.625 E14.84833
G1 X168.562 Y74.069 E14.86908
G1 X168.556 Y74.450 E14.88598
G1 X168.219 Y74.445 F6600.000
G1 F3600.000
G1 X168.058 Y85.287 E15.36693
G1 X163.583 Y94.328 E15.81435
G1 X161.796 Y96.190 E15.92882
G1 X161.453 Y96.453 E15.94800
G1 X152.152 Y101.058 E16.40836
G1 X140.939 Y101.053 E16.90573
G1 X131.489 Y96.749 E17.36628
G1 X131.130 Y96.476 E17.38630
G1 X129.020 Y94.292 E17.52100
G1 X124.381 Y84.467 E18.00294
G1 X124.545 Y73.306 E18.49801
G1 X129.020 Y64.266 E18.94543
G1 X129.279 Y63.931 E18.96422
G1 X131.138 Y62.147 E19.07851
G1 X140.441 Y57.537 E19.53902
G1 X151.276 Y57.494 E20.01959
G1 X151.968 Y57.644 E20.05098
G1 X161.260 Y61.995 E20.50609
G1 X161.626 Y62.270 E20.52640
G1 X163.730 Y64.443 E20.66055
G1 X168.224 Y74.136 E21.13443
G1 X168.220 Y74.385 E21.14549
G1 X167.884 Y74.380 F6600.000
G1 F3600.000
G1 X167.722 Y85.209 E21.62585
G1 X163.288 Y94.150 E22.06852
G1 X161.278 Y96.156 E22.19447
G1 X152.077 Y100.722 E22.65007
G1 X141.018 Y100.718 E23.14060
G1 X131.662 Y96.451 E23.59669
G1 X129.317 Y94.116 E23.74350
G1 X124.718 Y84.394 E24.22052
G1 X124.880 Y73.385 E24.70887
G1 X129.315 Y64.444 E25.15154
G1 X131.317 Y62.442 E25.27713
G1 X140.520 Y57.873 E25.73286
G1 X151.276 Y57.839 E26.20992
G1 X151.829 Y57.959 E26.23502
G1 X161.092 Y62.296 E26.68870
G1 X163.437 Y64.626 E26.83532
G1 X167.886 Y74.207 E27.30386
G1 X167.884 Y74.320 E27.30890
G1 E23.30890 F2400.000
G92 E0
G1 Z0.750 F6600.000
G1 X129.588 Y74.883
G1 Z0.650
G1 E4.00000 F2400.000
;TYPE:Support material interface
;WIDTH:0.35
G1 F3600.000
G1 X129.588 Y83.582 E4.30992
G1 X130.874 Y83.582 E4.35572
G1 X130.874 Y75.011 E4.66106
G1 X132.160 Y75.011 E4.70686
G1 X132.160 Y83.582 E5.01221
G1 X133.445 Y83.582 E5.05798
G1 X133.445 Y92.154 E5.36332
G1 X133.445 Y66.440 E6.27935
G1 X134.731 Y66.440 E6.32515
G1 X134.731 Y92.154 E7.24118
G1 X136.017 Y92.154 E7.28697
G1 X136.017 Y66.440 E8.20300
G1 X137.302 Y66.440 E8.24880
G1 X137.302 Y92.154 E9.16483
G1 X138.588 Y92.154 E9.21063
G1 X138.588 Y66.440 E10.12665
G1 X139.873 Y66.440 E10.17245
G1 X139.873 Y92.154 E11.08848
G1 X141.159 Y92.154 E11.13428
G1 X141.159 Y66.440 E12.05031
G1 X142.016 Y66.440 E12.08083
G1 X142.016 Y62.154 E12.23350
G1 X142.445 Y62.154 E12.24878
G1 X142.445 Y96.439 E13.47015
G1 X143.730 Y96.439 E13.51594
G1 X143.730 Y62.154 E14.73731
G1 X145.016 Y62.154 E14.78311
G1 X145.016 Y96.439 E16.00448
G1 X146.301 Y96.439 E16.05028
G1 X146.301 Y62.154 E17.27165
G1 X147.587 Y62.154 E17.31745
G1 X147.587 Y96.439 E18.53882
G1 X148.873 Y96.439 E18.58462
G1 X148.873 Y62.154 E19.80599
G1 X150.158 Y62.154 E19.85178
G1 X150.158 Y96.439 E21.07315
G1 X150.587 Y96.439 E21.08843
G1 X150.587 Y92.154 E21.24110
G1 X151.444 Y92.154 E21.27162
G1 X151.444 Y66.440 E22.18765
G1 X152.730 Y66.440 E22.23345
G1 X152.730 Y92.154 E23.14948
G1 X154.015 Y92.154 E23.19528
G1 X154.015 Y66.440 E24.11130
G1 X155.301 Y66.440 E24.15710
G1 X155.301 Y92.154 E25.07313
G1 X156.586 Y92.154 E25.11893
G1 X156.586 Y66.440 E26.03496
G1 X157.872 Y66.440 E26.08075
G1 X157.872 Y92.154 E26.99678
G1 X159.158 Y92.154 E27.04258
G1 X159.158 Y66.440 E27.95861
G1 X159.158 Y75.011 E28.26395
G1 X160.443 Y75.011 E28.30973
G1 X160.443 Y83.582 E28.61507
G1 X161.729 Y83.582 E28.66087
G1 X161.729 Y75.011 E28.96621
G1 X163.015 Y75.011 E29.01201
G1 X163.015 Y83.711 E29.32193
;LAYER_CHANGE
;Z:1.25
;HEIGHT:0.6
G1 Z1.250 F6600.000
G1 E25.32193 F2400.000
G92 E0
G1 Z1.350 F6600.000
G1 X150.550 Y81.215
G1 Z1.250
G1 E4.00000 F2400.000
;TYPE:Overhang perimeter
;WIDTH:0.4
;HEIGHT:0.4
G1 F900.000
G1 X150.475 Y81.404 E4.01063
G1 X150.058 Y82.080 E4.05212
G1 X149.534 Y82.676 E4.09361
G1 X148.916 Y83.175 E4.13509
G1 X148.222 Y83.562 E4.17658
G1 X147.540 Y83.803 E4.21438
G1 X146.698 Y83.961 E4.25913
G1 X145.897 Y83.961 E4.30100
G1 X145.114 Y83.827 E4.34248
G1 X144.366 Y83.562 E4.38397
G1 X143.672 Y83.175 E4.42546
G1 X143.055 Y82.676 E4.46695
G1 X142.530 Y82.080 E4.50843
G1 X142.114 Y81.404 E4.54992
G1 X142.042 Y81.226 E4.55996
G1 X141.785 Y81.369 E4.57532
G1 X141.264 Y81.505 E4.60348
G1 X140.685 Y81.456 E4.63381
G1 X140.194 Y81.234 E4.66197
G1 X139.907 Y81.002 E4.68126
G1 X139.595 Y80.585 E4.70845
G1 X139.414 Y80.018 E4.73953
G1 X139.437 Y79.473 E4.76801
G1 X139.546 Y79.118 E4.78741
G1 X139.829 Y78.659 E4.81557
G1 X140.248 Y78.321 E4.84373
G1 X140.585 Y78.169 E4.86302
G1 X141.097 Y78.078 E4.89021
G1 X141.756 Y78.183 E4.92507
G1 X141.950 Y77.551 E4.95964
G1 X142.276 Y76.905 E4.99744
G1 X142.774 Y76.208 E5.04218
G1 X143.353 Y75.654 E5.08406
G1 X144.011 Y75.209 E5.12554
G1 X144.734 Y74.882 E5.16703
G1 X145.503 Y74.682 E5.20852
G1 X146.224 Y74.620 E5.24632
G1 X147.078 Y74.680 E5.29106
G1 X147.854 Y74.882 E5.33293
G1 X148.577 Y75.209 E5.37442
G1 X149.235 Y75.654 E5.41591
G1 X149.809 Y76.203 E5.45739
G1 X150.281 Y76.841 E5.49888
G1 X150.606 Y77.488 E5.53668
G1 X150.832 Y78.187 E5.57509
G1 X151.450 Y78.078 E5.60782
G1 X152.037 Y78.172 E5.63890
G1 X152.549 Y78.458 E5.66954
G1 X152.932 Y78.894 E5.69986
G1 X153.133 Y79.394 E5.72802
G1 X153.181 Y79.762 E5.74742
G1 X153.112 Y80.297 E5.77559
G1 X152.869 Y80.778 E5.80375
G1 X152.624 Y81.057 E5.82315
G1 X152.212 Y81.335 E5.84915
G1 X151.881 Y81.452 E5.86748
G1 X151.470 Y81.505 E5.88912
G1 X151.059 Y81.452 E5.91076
G1 X150.729 Y81.335 E5.92909
G1 X150.600 Y81.249 E5.93719
G1 X150.408 Y80.592 F6600.000
G1 F900.000
G1 X150.148 Y81.239 E5.97363
G1 X149.764 Y81.863 E6.01188
G1 X149.281 Y82.412 E6.05013
