; generated by PrusaSlicer 2.3.1+win64 on 2021-07-14 at 02:02:02 UTC

; 

; external perimeters extrusion width = 0.45mm
; perimeters extrusion width = 0.45mm
; infill extrusion width = 0.45mm
; solid infill extrusion width = 0.45mm
; top infill extrusion width = 0.40mm
; support material extrusion width = 0.35mm
; first layer extrusion width = 0.42mm

M107
M190 S80 ; set bed temperature and wait for it to be reached
M104 S230 ; set temperature
;TYPE:Custom
G28 ; home all axes
G1 Z5 F5000 ; lift nozzle
M109 S230 ; set temperature and wait for it to be reached
G21 ; set units to millimeters
G90 ; use absolute coordinates
M82 ; use absolute distances for extrusion
G92 E0
; Filament gcode
;LAYER_CHANGE
;Z:0.35
;HEIGHT:0.35
G1 Z0.350 F6600.000
G1 E-4.00000 F2400.000
G92 E0
G1 Z0.450 F6600.000
G1 X114.882 Y79.408
G1 Z0.350
G1 E4.00000 F2400.000
;TYPE:Skirt
;WIDTH:0.42
G1 X116.887 Y77.343 E4.14443
G1 X117.297 Y77.065 E4.16931
G1 X117.762 Y76.894 E4.19418
G1 X134.297 Y73.055 E5.04608
G1 X142.830 Y72.874 E5.47438
G1 X164.045 Y76.892 E6.55804
G1 X164.478 Y77.071 E6.58151
G1 X164.855 Y77.341 E6.60481
G1 X167.250 Y79.793 E6.77684
G1 X167.493 Y80.312 E6.80557
G1 X167.582 Y80.877 E6.83430
G1 X167.582 Y101.124 E7.85042
G1 X167.424 Y108.955 E8.24349
G1 X167.329 Y109.470 E8.26977
G1 X167.106 Y109.944 E8.29605
G1 X165.188 Y111.928 E8.43455
G1 X164.765 Y112.248 E8.46118
G1 X157.165 Y116.036 E8.88735
G1 X155.829 Y116.322 E8.95592
G1 X125.560 Y116.313 E10.47498
G1 X124.869 Y116.115 E10.51104
G1 X117.557 Y112.373 E10.92326
G1 X115.028 Y109.899 E11.10081
G1 X114.711 Y109.369 E11.13181
G1 X114.567 Y108.765 E11.16299
G1 X114.561 Y80.484 E12.58226
G1 X114.646 Y79.922 E12.61081
G1 X114.857 Y79.462 E12.63618
G1 X115.168 Y79.606 F6600.000
G1 F2400.000
G1 X117.084 Y77.630 E12.77433
G1 X117.706 Y77.268 E12.81047
G1 X134.240 Y73.417 E13.66245
G1 X142.829 Y73.219 E14.09362
G1 X163.947 Y77.222 E15.17229
G1 X164.631 Y77.603 E15.21158
G1 X166.961 Y79.981 E15.37865
G1 X167.163 Y80.413 E15.40259
G1 X167.237 Y80.884 E15.42652
G1 X167.237 Y101.123 E16.44227
G1 X167.080 Y108.929 E16.83409
G1 X167.001 Y109.364 E16.85627
G1 X166.812 Y109.764 E16.87845
G1 X164.948 Y111.681 E17.01265
G1 X164.593 Y111.949 E17.03499
G1 X157.025 Y115.720 E17.45932
G1 X155.810 Y115.977 E17.52164
G1 X125.594 Y115.970 E19.03805
G1 X125.017 Y115.803 E19.06819
G1 X117.735 Y112.077 E19.47872
G1 X115.305 Y109.692 E19.64963
G1 X115.032 Y109.244 E19.67595
G1 X114.911 Y108.733 E19.70228
G1 X114.906 Y80.490 E21.11972
G1 X114.977 Y80.018 E21.14365
G1 X115.143 Y79.661 E21.16341
G1 X115.453 Y79.805 F6600.000
G1 F2400.000
G1 X117.311 Y77.889 E21.29736
G1 X117.817 Y77.594 E21.32675
G1 X134.324 Y73.752 E22.17728
G1 X142.829 Y73.563 E22.60424
G1 X163.847 Y77.553 E23.67790
G1 X164.403 Y77.862 E23.70980
G1 X166.672 Y80.169 E23.87219
G1 X166.834 Y80.516 E23.89139
G1 X166.892 Y80.894 E23.91059
G1 X166.892 Y101.120 E24.92565
G1 X166.736 Y108.906 E25.31648
G1 X166.518 Y109.582 E25.35215
G1 X164.422 Y111.649 E25.49989
G1 X156.885 Y115.406 E25.92254
G1 X155.790 Y115.633 E25.97864
G1 X125.630 Y115.627 E27.49224
G1 X125.168 Y115.493 E27.51641
G1 X117.918 Y111.785 E27.92507
G1 X115.578 Y109.481 E28.08989
G1 X115.354 Y109.119 E28.11122
G1 X115.254 Y108.703 E28.13270
G1 X115.250 Y80.497 E29.54825
G1 X115.307 Y80.119 E29.56745
G1 X115.428 Y79.859 E29.58181
G1 E25.58181
G92 E0
G1 Z0.450 F6600.000
G1 X142.826 Y74.908
G1 Z0.350
G1 E4.00000 F2400.000
;TYPE:Support material
G1 X143.464 Y75.547 E4.04529
G1 X143.464 Y76.243 E4.08026
G1 X142.284 Y75.064 E4.16400
G1 X141.588 Y75.064 E4.19896
G1 X143.464 Y76.940 E4.33215
G1 X143.464 Y77.637 E4.36712
G1 X140.891 Y75.064 E4.54976
G1 X140.194 Y75.064 E4.58473
G1 X143.464 Y78.334 E4.81682
G1 X143.464 Y78.849 E4.84269
G1 X143.980 Y78.849 E4.86856
G1 X165.392 Y100.262 E6.38829
G1 X165.392 Y99.565 E6.42326
G1 X144.676 Y78.849 E7.89354
G1 X145.373 Y78.849 E7.92851
G1 X165.392 Y98.868 E9.34933
G1 X165.392 Y98.172 E9.38430
G1 X146.070 Y78.849 E10.75567
G1 X146.767 Y78.849 E10.79064
G1 X165.392 Y97.475 E12.11255
G1 X165.392 Y96.778 E12.14752
G1 X147.464 Y78.849 E13.41999
G1 X148.160 Y78.849 E13.45496
G1 X165.392 Y96.081 E14.67797
G1 X165.392 Y95.384 E14.71294
G1 X148.857 Y78.849 E15.88649
G1 X149.554 Y78.849 E15.92146
G1 X165.392 Y94.688 E17.04557
G1 X165.392 Y93.991 E17.08054
G1 X150.251 Y78.849 E18.15519
G1 X150.947 Y78.849 E18.19016
G1 X165.392 Y93.294 E19.21535
G1 X165.392 Y92.597 E19.25032
G1 X151.644 Y78.849 E20.22607
G1 X152.341 Y78.849 E20.26104
G1 X165.392 Y91.900 E21.18733
G1 X165.392 Y91.204 E21.22230
G1 X153.038 Y78.849 E22.09914
G1 X153.735 Y78.849 E22.13411
G1 X165.392 Y90.507 E22.96149
G1 X165.392 Y89.810 E22.99646
G1 X154.431 Y78.849 E23.77439
G1 X155.128 Y78.849 E23.80936
G1 X165.392 Y89.113 E24.53784
G1 X165.392 Y88.417 E24.57281
G1 X155.825 Y78.849 E25.25184
G1 X156.522 Y78.849 E25.28681
G1 X165.392 Y87.720 E25.91638
G1 X165.392 Y87.023 E25.95135
G1 X157.218 Y78.849 E26.53147
G1 X157.915 Y78.849 E26.56644
G1 X165.392 Y86.326 E27.09711
G1 X165.392 Y85.629 E27.13208
G1 X158.612 Y78.849 E27.61329
G1 X159.309 Y78.849 E27.64826
G1 X165.392 Y84.933 E28.08002
G1 X165.392 Y84.236 E28.11499
G1 X160.006 Y78.849 E28.49730
G1 X160.702 Y78.849 E28.53227
G1 X165.392 Y83.539 E28.86512
G1 X165.392 Y82.842 E28.90009
G1 X161.399 Y78.849 E29.18349
G1 X162.096 Y78.849 E29.21846
G1 X165.392 Y82.146 E29.45241
G1 X165.392 Y81.449 E29.48738
G1 X162.793 Y78.849 E29.67187
G1 X163.489 Y78.849 E29.70684
G1 X165.547 Y80.907 E29.85290
G1 E25.85290
G92 E0
G1 Z0.450 F6600.000
G1 X165.547 Y101.114
G1 Z0.350
G1 E4.00000 F2400.000
G1 X139.497 Y75.064 E5.84888
G1 X138.800 Y75.064 E5.88385
G1 X165.392 Y101.655 E7.77116
G1 X165.392 Y102.352 E7.80613
G1 X138.104 Y75.064 E9.74290
G1 X137.407 Y75.064 E9.77787
G1 X165.392 Y103.049 E11.76409
G1 X165.392 Y103.746 E11.79906
G1 X136.710 Y75.064 E13.83473
G1 X136.013 Y75.064 E13.86970
G1 X165.392 Y104.443 E15.95483
G1 X165.392 Y105.139 E15.98980
G1 X135.317 Y75.064 E18.12438
G1 X134.620 Y75.064 E18.15935
G1 X165.392 Y105.836 E20.34338
G1 X165.392 Y106.533 E20.37835
G1 X134.238 Y75.378 E22.58950
G1 X134.238 Y76.075 E22.62447
G1 X165.392 Y107.230 E24.83562
G1 X165.392 Y107.926 E24.87059
G1 X134.238 Y76.772 E27.08174
G1 X134.238 Y77.469 E27.11671
G1 X165.392 Y108.623 E29.32786
G1 X165.392 Y108.847 E29.33910
G1 X165.156 Y109.084 E29.35588
G1 X134.238 Y78.165 E31.55025
G1 X134.238 Y78.849 E31.58457
G1 X134.225 Y78.849 E31.58522
G1 X164.807 Y109.432 E33.75579
G1 X164.459 Y109.780 E33.78052
G1 X133.528 Y78.849 E35.97581
G1 X132.831 Y78.849 E36.01078
G1 X164.111 Y110.129 E38.23081
G1 X163.762 Y110.477 E38.25553
G1 X132.134 Y78.849 E40.50028
G1 X131.438 Y78.849 E40.53525
G1 X163.092 Y110.504 E42.78188
G1 X162.395 Y110.504 E42.81685
G1 X130.741 Y78.849 E45.06347
G1 X130.044 Y78.849 E45.09844
G1 X161.698 Y110.504 E47.34507
G1 X161.002 Y110.504 E47.38004
G1 X129.347 Y78.849 E49.62666
G1 X128.650 Y78.849 E49.66163
G1 X160.305 Y110.504 E51.90826
G1 X159.608 Y110.504 E51.94323
G1 X127.954 Y78.849 E54.18985
G1 X127.257 Y78.849 E54.22482
G1 X158.911 Y110.504 E56.47145
G1 X158.214 Y110.504 E56.50642
G1 X126.560 Y78.849 E58.75304
G1 X125.863 Y78.849 E58.78801
G1 X157.518 Y110.504 E61.03464
G1 X156.821 Y110.504 E61.06961
G1 X125.167 Y78.849 E63.31623
G1 X124.470 Y78.849 E63.35120
G1 X156.321 Y110.701 E65.61180
G1 X156.321 Y111.397 E65.64677
G1 X123.773 Y78.849 E67.95682
G1 X123.076 Y78.849 E67.99179
G1 X156.321 Y112.094 E70.35129
G1 X156.321 Y112.791 E70.38626
G1 X122.379 Y78.849 E72.79522
G1 X121.683 Y78.849 E72.83019
G1 X156.321 Y113.488 E75.28860
G1 X156.321 Y114.184 E75.32356
G1 X120.986 Y78.849 E77.83143
G1 X120.289 Y78.849 E77.86640
G1 X155.729 Y114.289 E80.38170
G1 X155.032 Y114.289 E80.41667
G1 X119.592 Y78.849 E82.93198
G1 X118.896 Y78.849 E82.96695
G1 X154.336 Y114.289 E85.48225
G1 X153.639 Y114.289 E85.51722
G1 X118.225 Y78.876 E88.03065
G1 X117.877 Y79.224 E88.05538
G1 X152.942 Y114.289 E90.54408
G1 X152.245 Y114.289 E90.57905
G1 X117.528 Y79.572 E93.04303
G1 X117.180 Y79.921 E93.06775
G1 X151.548 Y114.289 E95.50701
G1 X150.852 Y114.289 E95.54197
G1 X116.832 Y80.269 E97.95650
G1 X116.595 Y80.506 E97.97327
G1 X116.595 Y80.730 E97.98452
G1 X150.155 Y114.289 E100.36637
G1 X149.458 Y114.289 E100.40133
G1 X116.595 Y81.426 E102.73373
G1 X116.595 Y82.123 E102.76870
G1 X148.761 Y114.289 E105.05164
G1 X148.064 Y114.289 E105.08661
G1 X116.595 Y82.820 E107.32009
G1 X116.595 Y83.517 E107.35506
G1 X147.368 Y114.289 E109.53910
G1 X146.671 Y114.289 E109.57407
G1 X116.595 Y84.214 E111.70865
G1 X116.595 Y84.910 E111.74362
G1 X145.974 Y114.289 E113.82874
G1 X145.277 Y114.289 E113.86371
G1 X116.595 Y85.607 E115.89939
G1 X116.595 Y86.304 E115.93436
G1 X144.581 Y114.289 E117.92058
G1 X143.884 Y114.289 E117.95555
G1 X116.595 Y87.001 E119.89231
G1 X116.595 Y87.697 E119.92728
G1 X143.187 Y114.289 E121.81460
G1 X142.490 Y114.289 E121.84957
G1 X116.595 Y88.394 E123.68743
G1 X116.595 Y89.091 E123.72240
G1 X141.793 Y114.289 E125.51081
G1 X141.097 Y114.289 E125.54578
G1 X116.595 Y89.788 E127.28473
G1 X116.595 Y90.485 E127.31970
G1 X140.400 Y114.289 E129.00921
G1 X139.703 Y114.289 E129.04417
G1 X116.595 Y91.181 E130.68422
G1 X116.595 Y91.878 E130.71919
G1 X139.006 Y114.289 E132.30979
G1 X138.310 Y114.289 E132.34476
G1 X116.595 Y92.575 E133.88590
G1 X116.595 Y93.272 E133.92087
G1 X137.613 Y114.289 E135.41256
G1 X136.916 Y114.289 E135.44753
G1 X116.595 Y93.969 E136.88977
G1 X116.595 Y94.665 E136.92474
G1 X136.219 Y114.289 E138.31752
G1 X135.522 Y114.289 E138.35249
G1 X116.595 Y95.362 E139.69582
G1 X116.595 Y96.059 E139.73079
G1 X134.826 Y114.289 E141.02467
G1 X134.129 Y114.289 E141.05964
G1 X116.595 Y96.756 E142.30406
G1 X116.595 Y97.452 E142.33903
G1 X133.432 Y114.289 E143.53400
G1 X132.735 Y114.289 E143.56897
G1 X116.595 Y98.149 E144.71449
G1 X116.595 Y98.846 E144.74946
G1 X132.039 Y114.289 E145.84553
G1 X131.342 Y114.289 E145.88050
G1 X116.595 Y99.543 E146.92711
G1 X116.595 Y100.240 E146.96208
G1 X130.645 Y114.289 E147.95924
G1 X129.948 Y114.289 E147.99421
G1 X116.595 Y100.936 E148.94191
G1 X116.595 Y101.633 E148.97688
G1 X129.251 Y114.289 E149.87513
G1 X128.555 Y114.289 E149.91010
G1 X125.666 Y111.401 E150.11509
G1 X125.666 Y112.098 E150.15005
G1 X127.858 Y114.289 E150.30558
G1 X127.161 Y114.289 E150.34055
G1 X125.666 Y112.795 E150.44663
G1 X125.666 Y113.492 E150.48160
G1 X126.464 Y114.289 E150.53822
G1 X125.768 Y114.289 E150.57319
G1 X125.511 Y114.033 E150.59137
G1 E146.59137
G92 E0
G1 Z0.450 F6600.000
G1 X124.924 Y110.659
G1 Z0.350
G1 E4.00000 F2400.000
G1 X116.595 Y102.330 E4.59114
G1 X116.595 Y103.027 E4.62610
G1 X124.072 Y110.504 E5.15677
G1 X123.375 Y110.504 E5.19174
G1 X116.595 Y103.723 E5.67296
G1 X116.595 Y104.420 E5.70792
G1 X122.679 Y110.504 E6.13969
G1 X121.982 Y110.504 E6.17465
G1 X116.595 Y105.117 E6.55696
G1 X116.595 Y105.814 E6.59193
G1 X121.285 Y110.504 E6.92479
G1 X120.588 Y110.504 E6.95975
G1 X116.595 Y106.511 E7.24316
G1 X116.595 Y107.207 E7.27813
G1 X119.892 Y110.504 E7.51207
G1 X119.195 Y110.504 E7.54704
G1 X116.595 Y107.904 E7.73154
G1 X116.595 Y108.601 E7.76651
G1 X118.653 Y110.659 E7.91257
;LAYER_CHANGE
;Z:0.65
;HEIGHT:0.3
G1 Z0.650 F6600.000
M104 S200 ; set temperature
M140 S60 ; set bed temperature
G1 X117.260 Y112.083
;TYPE:Skirt
G1 F3600.000
G1 X115.028 Y109.899 E8.05105
G1 X114.711 Y109.369 E8.07846
G1 X114.567 Y108.765 E8.10602
G1 X114.561 Y80.484 E9.36038
G1 X114.646 Y79.922 E9.38561
G1 X114.882 Y79.408 E9.41070
G1 X116.887 Y77.343 E9.53835
G1 X117.297 Y77.065 E9.56033
G1 X117.762 Y76.894 E9.58232
G1 X134.297 Y73.055 E10.33523
G1 X142.830 Y72.874 E10.71377
G1 X164.045 Y76.892 E11.67152
G1 X164.478 Y77.071 E11.69226
G1 X164.855 Y77.341 E11.71285
G1 X167.250 Y79.793 E11.86490
G1 X167.493 Y80.312 E11.89029
G1 X167.582 Y80.877 E11.91568
G1 X167.582 Y101.124 E12.81374
G1 X167.424 Y108.955 E13.16114
G1 X167.329 Y109.470 E13.18436
G1 X167.106 Y109.944 E13.20759
G1 X165.188 Y111.928 E13.33000
G1 X164.765 Y112.248 E13.35353
G1 X157.165 Y116.036 E13.73019
G1 X155.829 Y116.322 E13.79079
G1 X125.560 Y116.313 E15.13335
G1 X124.869 Y116.115 E15.16522
G1 X117.557 Y112.373 E15.52955
G1 X117.303 Y112.125 E15.54531
G1 X117.539 Y111.885 F6600.000
G1 F3600.000
G1 X115.305 Y109.692 E15.68415
G1 X115.032 Y109.244 E15.70742
G1 X114.911 Y108.733 E15.73069
G1 X114.906 Y80.490 E16.98344
G1 X114.977 Y80.018 E17.00459
G1 X115.176 Y79.588 E17.02560
G1 X117.084 Y77.630 E17.14686
G1 X117.706 Y77.268 E17.17880
G1 X134.240 Y73.417 E17.93179
G1 X142.829 Y73.219 E18.31286
G1 X163.947 Y77.222 E19.26620
G1 X164.631 Y77.603 E19.30092
G1 X166.961 Y79.981 E19.44858
G1 X167.163 Y80.413 E19.46974
G1 X167.237 Y80.884 E19.49089
G1 X167.237 Y101.123 E20.38862
G1 X167.080 Y108.929 E20.73492
G1 X167.001 Y109.364 E20.75452
G1 X166.812 Y109.764 E20.77412
G1 X164.948 Y111.681 E20.89273
G1 X164.593 Y111.949 E20.91247
G1 X157.025 Y115.720 E21.28750
G1 X155.810 Y115.977 E21.34258
G1 X125.594 Y115.970 E22.68279
G1 X125.017 Y115.803 E22.70943
G1 X117.735 Y112.077 E23.07227
G1 X117.581 Y111.927 E23.08181
G1 X117.818 Y111.686 F6600.000
G1 F3600.000
G1 X115.578 Y109.481 E23.22126
G1 X115.354 Y109.119 E23.24011
G1 X115.254 Y108.703 E23.25909
G1 X115.250 Y80.497 E24.51017
G1 X115.307 Y80.119 E24.52714
G1 X115.468 Y79.772 E24.54411
G1 X117.311 Y77.889 E24.66097
G1 X117.817 Y77.594 E24.68693
G1 X134.324 Y73.752 E25.43864
G1 X142.829 Y73.563 E25.81600
G1 X163.847 Y77.553 E26.76491
G1 X164.403 Y77.862 E26.79310
G1 X166.672 Y80.169 E26.93663
G1 X166.834 Y80.516 E26.95360
G1 X166.892 Y80.894 E26.97057
G1 X166.892 Y101.120 E27.86768
G1 X166.736 Y108.906 E28.21311
G1 X166.518 Y109.582 E28.24462
G1 X164.422 Y111.649 E28.37520
G1 X156.885 Y115.406 E28.74874
G1 X155.790 Y115.633 E28.79832
G1 X125.630 Y115.627 E30.13606
G1 X125.168 Y115.493 E30.15742
G1 X117.918 Y111.785 E30.51860
G1 X117.861 Y111.729 E30.52216
G1 E26.52216 F2400.000
G92 E0
G1 Z0.750 F6600.000
G1 X120.424 Y81.691
G1 Z0.650
G1 E4.00000 F2400.000
;TYPE:Support material interface
;WIDTH:0.35
G1 F3600.000
G1 X120.424 Y107.533 E4.92061
G1 X121.709 Y107.533 E4.96640
G1 X121.709 Y81.820 E5.88243
G1 X122.995 Y81.820 E5.92823
G1 X122.995 Y107.533 E6.84426
G1 X124.281 Y107.533 E6.89006
G1 X124.281 Y81.820 E7.80608
G1 X125.566 Y81.820 E7.85188
G1 X125.566 Y107.533 E8.76791
G1 X126.852 Y107.533 E8.81371
G1 X126.852 Y81.820 E9.72974
G1 X128.138 Y81.820 E9.77554
G1 X128.138 Y107.533 E10.69156
G1 X129.423 Y107.533 E10.73736
G1 X129.423 Y81.820 E11.65339
G1 X130.709 Y81.820 E11.69919
G1 X130.709 Y107.533 E12.61521
G1 X131.994 Y107.533 E12.66101
G1 X131.994 Y81.820 E13.57704
G1 X133.280 Y81.820 E13.62284
G1 X133.280 Y107.533 E14.53887
G1 X134.566 Y107.533 E14.58467
G1 X134.566 Y81.820 E15.50069
G1 X135.851 Y81.820 E15.54649
G1 X135.851 Y107.533 E16.46252
G1 X137.137 Y107.533 E16.50832
G1 X137.137 Y81.820 E17.42435
G1 X138.423 Y81.820 E17.47014
G1 X138.423 Y107.533 E18.38617
G1 X139.708 Y107.533 E18.43197
G1 X139.708 Y81.820 E19.34800
G1 X140.994 Y81.820 E19.39380
G1 X140.994 Y107.533 E20.30982
G1 X142.279 Y107.533 E20.35562
G1 X142.279 Y81.820 E21.27165
G1 X143.565 Y81.820 E21.31745
G1 X143.565 Y107.533 E22.23348
G1 X144.851 Y107.533 E22.27928
G1 X144.851 Y81.820 E23.19530
G1 X146.136 Y81.820 E23.24110
G1 X146.136 Y107.533 E24.15713
G1 X147.422 Y107.533 E24.20293
G1 X147.422 Y81.820 E25.11895
G1 X148.707 Y81.820 E25.16475
G1 X148.707 Y107.533 E26.08078
G1 X149.993 Y107.533 E26.12658
G1 X149.993 Y81.820 E27.04261
G1 X151.279 Y81.820 E27.08841
G1 X151.279 Y107.533 E28.00443
G1 X152.564 Y107.533 E28.05023
G1 X152.564 Y81.820 E28.96626
G1 X153.850 Y81.820 E29.01206
G1 X153.850 Y107.533 E29.92809
G1 X155.136 Y107.533 E29.97388
G1 X155.136 Y81.820 E30.88991
G1 X156.421 Y81.820 E30.93571
G1 X156.421 Y107.533 E31.85174
G1 X157.707 Y107.533 E31.89754
G1 X157.707 Y81.820 E32.81356
G1 X158.992 Y81.820 E32.85936
G1 X158.992 Y107.533 E33.77539
G1 X160.278 Y107.533 E33.82119
G1 X160.278 Y81.820 E34.73722
G1 X161.564 Y81.820 E34.78301
G1 X161.564 Y107.662 E35.70362
G1 E31.70362 F2400.000
G92 E0
G1 Z0.750 F6600.000
G1 X153.818 Y111.787
G1 Z0.650
G1 E4.00000 F2400.000
