; generated by PrusaSlicer 2.3.1+win64 on 2021-07-15 at 19:12:55 UTC

; 

; external perimeters extrusion width = 0.45mm
; perimeters extrusion width = 0.45mm
; infill extrusion width = 0.45mm
; solid infill extrusion width = 0.45mm
; top infill extrusion width = 0.40mm
; support material extrusion width = 0.35mm
; first layer extrusion width = 0.42mm

M107
M190 S80 ; set bed temperature and wait for it to be reached
M104 S230 ; set temperature
;TYPE:Custom
G28 ; home all axes
G1 Z5 F5000 ; lift nozzle
M109 S230 ; set temperature and wait for it to be reached
G21 ; set units to millimeters
G90 ; use absolute coordinates
M82 ; use absolute distances for extrusion
G92 E0
; Filament gcode
;LAYER_CHANGE
;Z:0.35
;HEIGHT:0.35
G1 Z0.350 F6600.000
G1 E-4.00000 F2400.000
G92 E0
G1 Z0.450 F6600.000
G1 X126.342 Y84.050
G1 Z0.350
G1 E4.00000 F2400.000
;TYPE:Skirt
;WIDTH:0.42
G1 X128.145 Y82.242 E4.12814
G1 X128.747 Y81.862 E4.16385
G1 X141.379 Y77.930 E4.82783
G1 X162.479 Y77.744 E5.88679
G1 X163.086 Y77.838 E5.91763
G1 X175.607 Y81.861 E6.57763
G1 X176.163 Y82.229 E6.61108
G1 X178.281 Y84.344 E6.76129
G1 X178.712 Y84.987 E6.80014
G1 X178.872 Y85.778 E6.84063
G1 X178.871 Y97.634 E7.43563
G1 X178.716 Y113.752 E8.24456
G1 X178.582 Y114.444 E8.27993
G1 X178.223 Y115.046 E8.31513
G1 X176.455 Y116.821 E8.44086
G1 X176.036 Y117.129 E8.46697
G1 X168.454 Y120.907 E8.89208
G1 X167.100 Y121.193 E8.96152
G1 X136.839 Y121.183 E10.48022
G1 X136.146 Y120.979 E10.51646
G1 X129.005 Y117.335 E10.91879
G1 X128.615 Y117.071 E10.94244
G1 X126.293 Y114.740 E11.10757
G1 X125.989 Y114.210 E11.13823
G1 X125.855 Y113.611 E11.16906
G1 X125.850 Y85.341 E12.58779
G1 X125.983 Y84.652 E12.62299
G1 X126.311 Y84.101 E12.65517
G1 X126.604 Y84.277 F6600.000
G1 F2400.000
G1 X128.371 Y82.503 E12.78084
G1 X128.881 Y82.180 E12.81113
G1 X141.440 Y78.269 E13.47128
G1 X162.480 Y78.089 E14.52723
G1 X162.983 Y78.167 E14.55275
G1 X175.462 Y82.175 E15.21055
G1 X175.934 Y82.487 E15.23895
G1 X178.034 Y84.585 E15.38793
G1 X178.394 Y85.120 E15.42029
G1 X178.527 Y85.761 E15.45312
G1 X178.527 Y97.623 E16.04843
G1 X178.371 Y113.744 E16.85751
G1 X178.260 Y114.321 E16.88701
G1 X177.958 Y114.826 E16.91651
G1 X176.221 Y116.568 E17.03996
G1 X175.871 Y116.826 E17.06181
G1 X168.315 Y120.591 E17.48549
G1 X167.087 Y120.848 E17.54846
G1 X136.881 Y120.841 E19.06438
G1 X136.298 Y120.670 E19.09483
G1 X128.835 Y116.805 E19.51664
G1 X126.578 Y114.543 E19.67702
G1 X126.315 Y114.096 E19.70302
G1 X126.199 Y113.588 E19.72919
G1 X126.195 Y85.354 E21.14615
G1 X126.306 Y84.773 E21.17581
G1 X126.573 Y84.328 E21.20185
G1 X126.865 Y84.504 F6600.000
G1 F2400.000
G1 X128.599 Y82.762 E21.32522
G1 X129.012 Y82.499 E21.34981
G1 X141.503 Y78.608 E22.00638
G1 X162.481 Y78.434 E23.05920
G1 X162.881 Y78.497 E23.07954
G1 X175.318 Y82.488 E23.73502
G1 X175.703 Y82.743 E23.75820
G1 X177.790 Y84.829 E23.90630
G1 X178.077 Y85.257 E23.93216
G1 X178.182 Y85.767 E23.95831
G1 X178.182 Y97.626 E24.55345
G1 X178.026 Y113.737 E25.36201
G1 X177.938 Y114.199 E25.38562
G1 X177.694 Y114.604 E25.40936
G1 X175.704 Y116.524 E25.54813
G1 X168.174 Y120.276 E25.97035
G1 X167.071 Y120.504 E26.02687
G1 X136.917 Y120.498 E27.54018
G1 X136.452 Y120.361 E27.56449
G1 X129.057 Y116.542 E27.98221
G1 X126.856 Y114.338 E28.13849
G1 X126.638 Y113.977 E28.15968
G1 X126.543 Y113.562 E28.18102
G1 X126.540 Y85.362 E29.59628
G1 X126.628 Y84.897 E29.62002
G1 X126.834 Y84.555 E29.64004
G1 E25.64004
G92 E0
G1 Z0.450 F6600.000
G1 X129.943 Y115.530
G1 Z0.350
G1 E4.00000 F2400.000
;TYPE:Support material
G1 X127.885 Y113.472 E4.14606
G1 X127.885 Y112.775 E4.18103
G1 X130.484 Y115.374 E4.36552
G1 X131.181 Y115.374 E4.40049
G1 X127.885 Y112.078 E4.63444
G1 X127.885 Y111.381 E4.66941
G1 X131.878 Y115.374 E4.95281
G1 X132.575 Y115.374 E4.98778
G1 X127.885 Y110.685 E5.32063
G1 X127.885 Y109.988 E5.35560
G1 X133.271 Y115.374 E5.73791
G1 X133.968 Y115.374 E5.77288
G1 X127.885 Y109.291 E6.20464
G1 X127.885 Y108.594 E6.23961
G1 X134.665 Y115.374 E6.72083
G1 X135.362 Y115.374 E6.75579
G1 X127.885 Y107.897 E7.28646
G1 X127.885 Y107.201 E7.32143
G1 X136.214 Y115.530 E7.91257
G1 E3.91257
G92 E0
G1 Z0.450 F6600.000
G1 X136.801 Y118.904
G1 Z0.350
G1 E4.00000 F2400.000
G1 X137.057 Y119.160 E4.01819
G1 X137.754 Y119.160 E4.05315
G1 X136.956 Y118.362 E4.10978
G1 X136.956 Y117.665 E4.14475
G1 X138.451 Y119.160 E4.25082
G1 X139.147 Y119.160 E4.28579
G1 X136.956 Y116.969 E4.44132
G1 X136.956 Y116.272 E4.47629
G1 X139.844 Y119.160 E4.68127
G1 X140.541 Y119.160 E4.71624
G1 X127.885 Y106.504 E5.61449
G1 X127.885 Y105.807 E5.64946
G1 X141.238 Y119.160 E6.59717
G1 X141.934 Y119.160 E6.63214
G1 X127.885 Y105.110 E7.62930
G1 X127.885 Y104.414 E7.66427
G1 X142.631 Y119.160 E8.71088
G1 X143.328 Y119.160 E8.74585
G1 X127.885 Y103.717 E9.84191
G1 X127.885 Y103.020 E9.87688
G1 X144.025 Y119.160 E11.02240
G1 X144.722 Y119.160 E11.05737
G1 X127.885 Y102.323 E12.25234
G1 X127.885 Y101.626 E12.28731
G1 X145.418 Y119.160 E13.53174
G1 X146.115 Y119.160 E13.56671
G1 X127.885 Y100.930 E14.86058
G1 X127.885 Y100.233 E14.89555
G1 X146.812 Y119.160 E16.23888
G1 X147.509 Y119.160 E16.27385
G1 X127.885 Y99.536 E17.66664
G1 X127.885 Y98.839 E17.70161
G1 X148.205 Y119.160 E19.14384
G1 X148.902 Y119.160 E19.17881
G1 X127.885 Y98.142 E20.67050
G1 X127.885 Y97.446 E20.70547
G1 X149.599 Y119.160 E22.24662
G1 X150.296 Y119.160 E22.28158
G1 X127.885 Y96.749 E23.87218
G1 X127.885 Y96.052 E23.90715
G1 X150.993 Y119.160 E25.54720
G1 X151.689 Y119.160 E25.58217
G1 X127.885 Y95.355 E27.27167
G1 X127.885 Y94.659 E27.30664
G1 X152.386 Y119.160 E29.04560
G1 X153.083 Y119.160 E29.08057
G1 X127.885 Y93.962 E30.86898
G1 X127.885 Y93.265 E30.90394
G1 X153.780 Y119.160 E32.74181
G1 X154.476 Y119.160 E32.77678
G1 X127.885 Y92.568 E34.66409
G1 X127.885 Y91.871 E34.69906
G1 X155.173 Y119.160 E36.63583
G1 X155.870 Y119.160 E36.67080
G1 X127.885 Y91.175 E38.65702
G1 X127.885 Y90.478 E38.69199
G1 X156.567 Y119.160 E40.72766
G1 X157.264 Y119.160 E40.76263
G1 X127.885 Y89.781 E42.84776
G1 X127.885 Y89.084 E42.88273
G1 X157.960 Y119.160 E45.01731
G1 X158.657 Y119.160 E45.05228
G1 X127.885 Y88.388 E47.23631
G1 X127.885 Y87.691 E47.27128
G1 X159.354 Y119.160 E49.50477
G1 X160.051 Y119.160 E49.53974
G1 X127.885 Y86.994 E51.82268
G1 X127.885 Y86.297 E51.85765
G1 X160.747 Y119.160 E54.19004
G1 X161.444 Y119.160 E54.22501
G1 X127.885 Y85.600 E56.60685
G1 X127.885 Y85.376 E56.61810
G1 X128.121 Y85.140 E56.63487
G1 X162.141 Y119.160 E59.04940
G1 X162.838 Y119.160 E59.08437
G1 X128.469 Y84.792 E61.52362
G1 X128.818 Y84.443 E61.54835
G1 X163.535 Y119.160 E64.01232
G1 X164.231 Y119.160 E64.04729
G1 X129.166 Y84.095 E66.53600
G1 X129.515 Y83.746 E66.56072
G1 X164.928 Y119.160 E69.07415
G1 X165.625 Y119.160 E69.10912
G1 X130.185 Y83.720 E71.62443
G1 X130.882 Y83.720 E71.65940
G1 X166.322 Y119.160 E74.17470
G1 X167.019 Y119.160 E74.20967
G1 X131.579 Y83.720 E76.72498
G1 X132.275 Y83.720 E76.75995
G1 X167.610 Y119.055 E79.26781
G1 X167.610 Y118.358 E79.30278
G1 X132.972 Y83.720 E81.76119
G1 X133.669 Y83.720 E81.79616
G1 X167.610 Y117.662 E84.20511
G1 X167.610 Y116.965 E84.24008
G1 X134.366 Y83.720 E86.59959
G1 X135.062 Y83.720 E86.63456
G1 X167.610 Y116.268 E88.94461
G1 X167.610 Y115.571 E88.97958
G1 X135.759 Y83.720 E91.24017
G1 X136.456 Y83.720 E91.27514
G1 X168.110 Y115.374 E93.52177
G1 X168.807 Y115.374 E93.55674
G1 X137.153 Y83.720 E95.80336
G1 X137.850 Y83.720 E95.83833
G1 X169.504 Y115.374 E98.08496
G1 X170.201 Y115.374 E98.11993
G1 X138.546 Y83.720 E100.36655
G1 X139.243 Y83.720 E100.40152
G1 X170.897 Y115.374 E102.64815
G1 X171.594 Y115.374 E102.68312
G1 X139.940 Y83.720 E104.92974
G1 X140.637 Y83.720 E104.96471
G1 X172.291 Y115.374 E107.21134
G1 X172.988 Y115.374 E107.24631
G1 X141.242 Y83.628 E109.49946
G1 X141.242 Y82.931 E109.53442
G1 X173.685 Y115.374 E111.83703
G1 X174.381 Y115.374 E111.87200
G1 X141.242 Y82.234 E114.22405
G1 X141.242 Y81.538 E114.25902
G1 X175.052 Y115.348 E116.65866
G1 X175.400 Y115.000 E116.68338
G1 X141.242 Y80.841 E119.10774
G1 X141.242 Y80.144 E119.14271
G1 X175.749 Y114.651 E121.59180
G1 X176.097 Y114.303 E121.61653
G1 X141.729 Y79.934 E124.05578
G1 X142.425 Y79.934 E124.09075
G1 X176.445 Y113.954 E126.50527
G1 X176.682 Y113.718 E126.52205
G1 X176.682 Y113.494 E126.53329
G1 X143.122 Y79.934 E128.91514
G1 X143.819 Y79.934 E128.95011
G1 X176.682 Y112.797 E131.28250
G1 X176.682 Y112.100 E131.31747
G1 X144.516 Y79.934 E133.60041
G1 X145.212 Y79.934 E133.63538
G1 X176.682 Y111.404 E135.86886
G1 X176.682 Y110.707 E135.90383
G1 X145.909 Y79.934 E138.08787
G1 X146.606 Y79.934 E138.12284
G1 X176.682 Y110.010 E140.25742
G1 X176.682 Y109.313 E140.29239
G1 X147.303 Y79.934 E142.37751
G1 X148.000 Y79.934 E142.41248
G1 X176.682 Y108.617 E144.44816
G1 X176.682 Y107.920 E144.48313
G1 X148.696 Y79.934 E146.46935
G1 X149.393 Y79.934 E146.50432
G1 X176.682 Y107.223 E148.44109
G1 X176.682 Y106.526 E148.47605
G1 X150.090 Y79.934 E150.36337
G1 X150.787 Y79.934 E150.39834
G1 X176.682 Y105.829 E152.23620
G1 X176.682 Y105.133 E152.27117
G1 X151.483 Y79.934 E154.05958
G1 X152.180 Y79.934 E154.09455
G1 X176.682 Y104.436 E155.83350
G1 X176.682 Y103.739 E155.86847
G1 X152.877 Y79.934 E157.55798
G1 X153.574 Y79.934 E157.59295
G1 X176.682 Y103.042 E159.23300
G1 X176.682 Y102.345 E159.26796
G1 X154.271 Y79.934 E160.85856
G1 X154.967 Y79.934 E160.89353
G1 X176.682 Y101.649 E162.43467
G1 X176.682 Y100.952 E162.46964
G1 X155.664 Y79.934 E163.96133
G1 X156.361 Y79.934 E163.99630
G1 X176.682 Y100.255 E165.43854
G1 X176.682 Y99.558 E165.47351
G1 X157.058 Y79.934 E166.86629
G1 X157.754 Y79.934 E166.90126
G1 X176.682 Y98.862 E168.24459
G1 X176.682 Y98.165 E168.27956
G1 X158.451 Y79.934 E169.57344
G1 X159.148 Y79.934 E169.60841
G1 X176.837 Y97.623 E170.86385
G1 E166.86385
G92 E0
G1 Z0.450 F6600.000
G1 X176.837 Y85.778
G1 Z0.350
G1 E4.00000 F2400.000
G1 X174.779 Y83.720 E4.14606
G1 X174.082 Y83.720 E4.18103
G1 X176.682 Y86.319 E4.36552
G1 X176.682 Y87.016 E4.40049
G1 X173.385 Y83.720 E4.63444
G1 X172.689 Y83.720 E4.66941
G1 X176.682 Y87.713 E4.95281
G1 X176.682 Y88.410 E4.98778
G1 X171.992 Y83.720 E5.32063
G1 X171.295 Y83.720 E5.35560
G1 X176.682 Y89.107 E5.73791
G1 X176.682 Y89.803 E5.77288
G1 X170.598 Y83.720 E6.20464
G1 X169.901 Y83.720 E6.23961
G1 X176.682 Y90.500 E6.72083
G1 X176.682 Y91.197 E6.75579
G1 X169.205 Y83.720 E7.28646
G1 X168.508 Y83.720 E7.32143
G1 X176.682 Y91.894 E7.90155
G1 X176.682 Y92.591 E7.93652
G1 X167.811 Y83.720 E8.56609
G1 X167.114 Y83.720 E8.60106
G1 X176.682 Y93.287 E9.28009
G1 X176.682 Y93.984 E9.31506
G1 X166.418 Y83.720 E10.04354
G1 X165.721 Y83.720 E10.07851
G1 X176.682 Y94.681 E10.85644
G1 X176.682 Y95.378 E10.89141
G1 X165.024 Y83.720 E11.71879
G1 X164.327 Y83.720 E11.75376
G1 X176.682 Y96.074 E12.63060
G1 X176.682 Y96.771 E12.66557
G1 X159.845 Y79.934 E13.86054
G1 X160.542 Y79.934 E13.89551
G1 X163.325 Y82.718 E14.09305
G1 X163.325 Y82.021 E14.12802
G1 X161.238 Y79.934 E14.27610
G1 X161.935 Y79.934 E14.31107
G1 X163.325 Y81.324 E14.40969
G1 X163.325 Y80.627 E14.44466
G1 X162.477 Y79.779 E14.50485
;LAYER_CHANGE
;Z:0.65
;HEIGHT:0.3
G1 Z0.650 F6600.000
M104 S200 ; set temperature
M140 S60 ; set bed temperature
G1 E10.50485 F2400.000
G92 E0
G1 Z0.750 F6600.000
G1 X162.783 Y77.791
G1 Z0.650
G1 E4.00000 F2400.000
;TYPE:Skirt
G1 F3600.000
G1 X163.086 Y77.838 E4.01362
G1 X175.607 Y81.861 E4.59694
G1 X176.163 Y82.229 E4.62651
G1 X178.281 Y84.344 E4.75927
G1 X178.712 Y84.987 E4.79360
G1 X178.872 Y85.778 E4.82938
G1 X178.871 Y97.634 E5.35525
G1 X178.716 Y113.752 E6.07019
G1 X178.582 Y114.444 E6.10145
G1 X178.223 Y115.046 E6.13256
G1 X176.455 Y116.821 E6.24369
G1 X176.036 Y117.129 E6.26676
G1 X168.454 Y120.907 E6.64248
G1 X167.100 Y121.193 E6.70385
G1 X136.839 Y121.183 E8.04609
G1 X136.146 Y120.979 E8.07812
G1 X129.005 Y117.335 E8.43371
G1 X128.615 Y117.071 E8.45460
G1 X126.293 Y114.740 E8.60055
G1 X125.989 Y114.210 E8.62764
G1 X125.855 Y113.611 E8.65489
G1 X125.850 Y85.341 E9.90879
G1 X125.983 Y84.652 E9.93989
G1 X126.342 Y84.050 E9.97100
G1 X128.145 Y82.242 E10.08424
G1 X128.747 Y81.862 E10.11581
G1 X141.379 Y77.930 E10.70264
G1 X162.479 Y77.744 E11.63857
G1 X162.723 Y77.782 E11.64953
G1 X162.671 Y78.119 F6600.000
G1 F3600.000
G1 X162.983 Y78.167 E11.66351
G1 X175.462 Y82.175 E12.24488
G1 X175.934 Y82.487 E12.26997
G1 X178.034 Y84.585 E12.40164
G1 X178.394 Y85.120 E12.43024
G1 X178.527 Y85.761 E12.45926
G1 X178.527 Y97.623 E12.98540
G1 X178.371 Y113.744 E13.70047
G1 X178.260 Y114.321 E13.72654
G1 X177.958 Y114.826 E13.75262
G1 X176.221 Y116.568 E13.86172
G1 X175.871 Y116.826 E13.88104
G1 X168.315 Y120.591 E14.25549
G1 X167.087 Y120.848 E14.31114
G1 X136.881 Y120.841 E15.65092
G1 X136.298 Y120.670 E15.67784
G1 X128.835 Y116.805 E16.05064
G1 X126.578 Y114.543 E16.19238
G1 X126.315 Y114.096 E16.21537
G1 X126.199 Y113.588 E16.23849
G1 X126.195 Y85.354 E17.49081
G1 X126.306 Y84.773 E17.51703
G1 X126.608 Y84.269 E17.54311
G1 X128.371 Y82.503 E17.65378
G1 X128.881 Y82.180 E17.68056
G1 X141.440 Y78.269 E18.26401
G1 X162.480 Y78.089 E19.19726
G1 X162.612 Y78.110 E19.20318
G1 X162.560 Y78.446 F6600.000
G1 F3600.000
G1 X162.881 Y78.497 E19.21763
G1 X175.318 Y82.488 E19.79695
G1 X175.703 Y82.743 E19.81743
G1 X177.790 Y84.829 E19.94832
G1 X178.077 Y85.257 E19.97118
G1 X178.182 Y85.767 E19.99429
G1 X178.182 Y97.626 E20.52028
G1 X178.026 Y113.737 E21.23490
G1 X177.938 Y114.199 E21.25576
G1 X177.694 Y114.604 E21.27674
G1 X175.704 Y116.524 E21.39939
G1 X168.174 Y120.276 E21.77255
G1 X167.071 Y120.504 E21.82250
G1 X136.917 Y120.498 E23.15998
G1 X136.452 Y120.361 E23.18147
G1 X129.057 Y116.542 E23.55065
G1 X126.856 Y114.338 E23.68877
G1 X126.638 Y113.977 E23.70750
G1 X126.543 Y113.562 E23.72636
G1 X126.540 Y85.362 E24.97718
G1 X126.628 Y84.897 E24.99817
G1 X126.874 Y84.489 E25.01928
G1 X128.599 Y82.762 E25.12757
G1 X129.012 Y82.499 E25.14931
G1 X141.503 Y78.608 E25.72959
G1 X162.500 Y78.437 E26.66095
G1 E22.66095 F2400.000
G92 E0
G1 Z0.750 F6600.000
G1 X160.822 Y86.373
G1 Z0.650
G1 E4.00000 F2400.000
;TYPE:Support material
;WIDTH:0.35
G1 F3600.000
G1 X143.744 Y86.373 E4.60839
G1 X143.744 Y82.437 E4.74860
G1 X160.822 Y82.437 E5.35699
G1 X160.822 Y86.373 E5.49719
G1 E1.49719 F2400.000
G92 E0
G1 Z0.750 F6600.000
G1 X131.713 Y86.562
G1 Z0.650
G1 E4.00000 F2400.000
;TYPE:Support material interface
G1 F3600.000
G1 X131.713 Y112.404 E4.92061
G1 X132.999 Y112.404 E4.96640
G1 X132.999 Y86.690 E5.88243
G1 X134.285 Y86.690 E5.92823
G1 X134.285 Y112.404 E6.84426
G1 X135.570 Y112.404 E6.89006
G1 X135.570 Y86.690 E7.80608
G1 X136.856 Y86.690 E7.85188
G1 X136.856 Y112.404 E8.76791
G1 X138.141 Y112.404 E8.81371
G1 X138.141 Y86.690 E9.72974
G1 X139.427 Y86.690 E9.77554
G1 X139.427 Y112.404 E10.69156
G1 X140.713 Y112.404 E10.73736
G1 X140.713 Y86.690 E11.65339
G1 X141.998 Y86.690 E11.69919
G1 X141.998 Y112.404 E12.61521
G1 X143.284 Y112.404 E12.66101
G1 X143.284 Y86.690 E13.57704
G1 X144.569 Y86.690 E13.62284
G1 X144.569 Y112.404 E14.53887
G1 X145.855 Y112.404 E14.58467
G1 X145.855 Y86.690 E15.50069
G1 X147.141 Y86.690 E15.54649
G1 X147.141 Y112.404 E16.46252
G1 X148.426 Y112.404 E16.50832
G1 X148.426 Y86.690 E17.42435
G1 X149.712 Y86.690 E17.47014
G1 X149.712 Y112.404 E18.38617
G1 X150.998 Y112.404 E18.43197
G1 X150.998 Y86.690 E19.34800
G1 X152.283 Y86.690 E19.39380
G1 X152.283 Y112.404 E20.30982
G1 X153.569 Y112.404 E20.35562
G1 X153.569 Y86.690 E21.27165
G1 X154.854 Y86.690 E21.31745
G1 X154.854 Y112.404 E22.23348
G1 X156.140 Y112.404 E22.27928
G1 X156.140 Y86.690 E23.19530
G1 X157.426 Y86.690 E23.24110
G1 X157.426 Y112.404 E24.15713
G1 X158.711 Y112.404 E24.20293
G1 X158.711 Y86.690 E25.11895
G1 X159.997 Y86.690 E25.16475
G1 X159.997 Y112.404 E26.08078
G1 X161.283 Y112.404 E26.12658
G1 X161.283 Y86.690 E27.04261
G1 X162.568 Y86.690 E27.08841
G1 X162.568 Y112.404 E28.00443
G1 X163.854 Y112.404 E28.05023
G1 X163.854 Y86.690 E28.96626
G1 X165.139 Y86.690 E29.01206
G1 X165.139 Y112.404 E29.92809
G1 X166.425 Y112.404 E29.97388
G1 X166.425 Y86.690 E30.88991
G1 X167.711 Y86.690 E30.93571
G1 X167.711 Y112.404 E31.85174
