; generated by PrusaSlicer 2.3.3+win64 on 2021-08-14 at 01:40:04 UTC

; 

; external perimeters extrusion width = 0.45mm
; perimeters extrusion width = 0.45mm
; infill extrusion width = 0.45mm
; solid infill extrusion width = 0.45mm
; top infill extrusion width = 0.40mm
; support material extrusion width = 0.35mm
; first layer extrusion width = 0.42mm

M107
M190 S80 ; set bed temperature and wait for it to be reached
M104 S230 ; set temperature
;TYPE:Custom
G28 ; home all axes
G1 Z5 F5000 ; lift nozzle
M109 S230 ; set temperature and wait for it to be reached
G21 ; set units to millimeters
G90 ; use absolute coordinates
M82 ; use absolute distances for extrusion
G92 E0
; Filament gcode
;LAYER_CHANGE
;Z:0.35
;HEIGHT:0.35
G1 Z0.350 F6600.000
G1 E-4.00000 F2400.000
G92 E0
G1 Z0.450 F6600.000
G1 X118.965 Y61.068
G1 Z0.350
G1 E4.00000 F2400.000
;TYPE:Skirt
;WIDTH:0.42
G1 X120.542 Y59.447 E4.11347
G1 X121.186 Y59.024 E4.15214
G1 X121.941 Y58.871 E4.19081
G1 X183.608 Y58.871 E7.28563
G1 X184.433 Y59.045 E7.32795
G1 X185.116 Y59.540 E7.37026
G1 X186.475 Y61.361 E7.48429
G1 X186.675 Y61.833 E7.51004
G1 X186.750 Y62.344 E7.53597
G1 X186.749 Y117.784 E10.31824
G1 X186.642 Y118.371 E10.34820
G1 X186.372 Y118.899 E10.37798
G1 X184.807 Y120.502 E10.49040
G1 X184.163 Y120.925 E10.52907
G1 X183.408 Y121.079 E10.56775
G1 X121.741 Y121.079 E13.66256
G1 X120.948 Y120.918 E13.70314
G1 X120.281 Y120.461 E13.74373
G1 X118.883 Y118.604 E13.86038
G1 X118.679 Y118.133 E13.88614
G1 X118.599 Y117.623 E13.91206
G1 X118.598 Y62.226 E16.69222
G1 X118.693 Y61.619 E16.72305
G1 X118.938 Y61.121 E16.75087
G1 X119.246 Y61.279 F6600.000
G1 F2400.000
G1 X119.267 Y61.238 E16.75316
G1 X120.786 Y59.690 E16.86201
G1 X121.321 Y59.341 E16.89405
G1 X121.947 Y59.216 E16.92609
G1 X183.608 Y59.216 E20.02063
G1 X184.300 Y59.364 E20.05614
G1 X184.871 Y59.782 E20.09166
G1 X186.167 Y61.518 E20.20036
G1 X186.341 Y61.921 E20.22237
G1 X186.405 Y62.358 E20.24455
G1 X186.405 Y117.771 E23.02554
G1 X186.312 Y118.272 E23.05107
G1 X186.074 Y118.721 E23.07660
G1 X184.563 Y120.259 E23.18481
G1 X184.028 Y120.608 E23.21685
G1 X183.402 Y120.734 E23.24889
G1 X121.741 Y120.734 E26.34342
G1 X121.081 Y120.600 E26.37720
G1 X120.526 Y120.219 E26.41098
G1 X119.189 Y118.443 E26.52256
G1 X119.012 Y118.041 E26.54458
G1 X118.944 Y117.611 E26.56644
G1 X118.943 Y62.226 E29.34598
G1 X119.028 Y61.705 E29.37247
G1 X119.219 Y61.332 E29.39349
G1 X119.523 Y61.494 F6600.000
G1 F2400.000
G1 X119.562 Y61.419 E29.39773
G1 X121.028 Y59.936 E29.50235
G1 X121.455 Y59.659 E29.52793
G1 X121.953 Y59.561 E29.55337
G1 X183.608 Y59.561 E32.64761
G1 X184.164 Y59.681 E32.67615
G1 X184.620 Y60.020 E32.70469
G1 X185.862 Y61.679 E32.80869
G1 X186.060 Y62.367 E32.84463
G1 X186.060 Y117.757 E35.62440
G1 X185.982 Y118.169 E35.64545
G1 X185.781 Y118.537 E35.66650
G1 X184.321 Y120.013 E35.77069
G1 X183.894 Y120.290 E35.79627
G1 X183.396 Y120.389 E35.82171
G1 X121.741 Y120.389 E38.91594
G1 X121.214 Y120.281 E38.94293
G1 X120.771 Y119.976 E38.96993
G1 X119.492 Y118.277 E39.07664
G1 X119.289 Y117.599 E39.11217
G1 X119.288 Y62.227 E41.89108
G1 X119.359 Y61.802 E41.91270
G1 X119.495 Y61.547 E41.92721
G1 E37.92721
G92 E0
G1 Z0.450 F6600.000
G1 X116.398 Y60.000
G1 Z0.350
G1 E4.00000 F2400.000
G1 X116.650 Y59.496 E4.02827
G1 X118.764 Y57.270 E4.18235
G1 X120.127 Y56.437 E4.26251
G1 X121.657 Y56.077 E4.34141
G1 X184.124 Y56.077 E7.47636
G1 X185.937 Y56.657 E7.57190
G1 X186.619 Y57.159 E7.61439
G1 X187.240 Y57.781 E7.65850
G1 X187.548 Y58.245 E7.68645
G1 X188.295 Y59.022 E7.74051
G1 X188.640 Y59.583 E7.77360
G1 X188.925 Y59.964 E7.79746
G1 X189.544 Y61.920 E7.90044
G1 X189.544 Y118.048 E10.71728
G1 X189.269 Y119.327 E10.78293
G1 X188.686 Y120.471 E10.84735
G1 X186.586 Y122.678 E11.00026
G1 X185.222 Y123.512 E11.08047
G1 X183.691 Y123.872 E11.15939
G1 X121.254 Y123.872 E14.29288
G1 X120.055 Y123.585 E14.35476
G1 X119.233 Y123.178 E14.40077
G1 X118.164 Y122.230 E14.47248
G1 X117.782 Y121.670 E14.50648
G1 X116.898 Y120.711 E14.57198
G1 X116.626 Y120.235 E14.59945
G1 X116.287 Y119.724 E14.63025
G1 X115.805 Y118.011 E14.71956
G1 X115.805 Y61.943 E17.53341
G1 X116.060 Y60.678 E17.59818
G1 X116.371 Y60.054 E17.63317
G1 X116.677 Y60.208 F6600.000
G1 F2400.000
G1 X116.946 Y59.675 E17.66314
G1 X118.998 Y57.525 E17.81232
G1 X120.234 Y56.766 E17.88509
G1 X121.678 Y56.422 E17.95958
G1 X184.097 Y56.422 E21.09216
G1 X185.756 Y56.952 E21.17955
G1 X186.385 Y57.413 E21.21867
G1 X186.984 Y58.012 E21.26117
G1 X187.277 Y58.460 E21.28808
G1 X188.033 Y59.246 E21.34280
G1 X188.353 Y59.776 E21.37388
G1 X188.631 Y60.147 E21.39715
G1 X189.199 Y61.946 E21.49183
G1 X189.199 Y118.030 E24.30641
G1 X188.937 Y119.231 E24.36813
G1 X188.391 Y120.290 E24.42793
G1 X186.352 Y122.424 E24.57605
G1 X185.115 Y123.183 E24.64888
G1 X183.671 Y123.528 E24.72338
G1 X121.275 Y123.528 E27.85480
G1 X120.156 Y123.255 E27.91258
G1 X119.409 Y122.880 E27.95453
G1 X118.411 Y121.988 E28.02171
G1 X118.055 Y121.457 E28.05382
G1 X117.166 Y120.492 E28.11964
G1 X116.921 Y120.056 E28.14474
G1 X116.589 Y119.556 E28.17487
G1 X116.149 Y117.988 E28.25661
G1 X116.149 Y61.960 E31.06839
G1 X116.393 Y60.770 E31.12938
G1 X116.649 Y60.262 E31.15795
G1 X116.954 Y60.417 F6600.000
G1 F2400.000
G1 X117.241 Y59.855 E31.18963
G1 X119.231 Y57.780 E31.33392
G1 X120.390 Y57.075 E31.40197
G1 X121.698 Y56.767 E31.46941
G1 X184.071 Y56.767 E34.59967
G1 X185.576 Y57.247 E34.67894
G1 X186.150 Y57.666 E34.71465
G1 X186.726 Y58.242 E34.75552
G1 X187.005 Y58.675 E34.78139
G1 X187.748 Y59.442 E34.83494
G1 X188.067 Y59.969 E34.86588
G1 X188.338 Y60.331 E34.88854
G1 X188.854 Y61.973 E34.97493
G1 X188.854 Y118.010 E37.78723
G1 X188.605 Y119.133 E37.84496
G1 X188.097 Y120.108 E37.90014
G1 X186.119 Y122.168 E38.04347
G1 X184.959 Y122.874 E38.11159
G1 X183.651 Y123.183 E38.17904
G1 X121.296 Y123.183 E41.30839
G1 X120.259 Y122.925 E41.36203
G1 X119.586 Y122.584 E41.39991
G1 X118.659 Y121.748 E41.46255
G1 X118.328 Y121.244 E41.49278
G1 X117.434 Y120.275 E41.55896
G1 X117.217 Y119.878 E41.58164
G1 X116.891 Y119.388 E41.61119
G1 X116.494 Y117.964 E41.68536
G1 X116.494 Y61.978 E44.49507
G1 X116.726 Y60.863 E44.55222
G1 X116.926 Y60.470 E44.57435
G1 X117.229 Y60.627 F6600.000
G1 F2400.000
G1 X117.535 Y60.036 E44.60776
G1 X119.464 Y58.035 E44.74724
G1 X120.497 Y57.404 E44.80797
G1 X121.718 Y57.112 E44.87100
G1 X184.044 Y57.112 E47.99889
G1 X185.396 Y57.543 E48.07008
G1 X185.916 Y57.920 E48.10236
G1 X186.468 Y58.472 E48.14153
G1 X186.733 Y58.890 E48.16637
G1 X187.463 Y59.638 E48.21881
G1 X187.781 Y60.163 E48.24960
G1 X188.044 Y60.514 E48.27164
G1 X188.510 Y61.999 E48.34974
G1 X188.510 Y117.991 E51.15975
G1 X188.274 Y119.035 E51.21344
G1 X187.804 Y119.925 E51.26399
G1 X185.886 Y121.913 E51.40261
G1 X184.852 Y122.545 E51.46342
G1 X183.631 Y122.838 E51.52646
G1 X121.318 Y122.838 E54.65368
G1 X120.363 Y122.596 E54.70310
G1 X119.764 Y122.288 E54.73691
G1 X118.908 Y121.509 E54.79499
G1 X118.602 Y121.033 E54.82338
G1 X117.704 Y120.058 E54.88993
G1 X117.514 Y119.702 E54.91015
G1 X117.194 Y119.220 E54.93921
G1 X116.839 Y117.941 E55.00582
G1 X116.839 Y61.996 E57.81345
G1 X117.058 Y60.958 E57.86672
G1 X117.202 Y60.681 E57.88238
G1 X117.508 Y60.839 F6600.000
G1 F2400.000
G1 X117.830 Y60.217 E57.91752
G1 X119.696 Y58.292 E58.05210
G1 X120.652 Y57.713 E58.10816
G1 X121.738 Y57.456 E58.16418
G1 X184.018 Y57.456 E61.28974
G1 X185.217 Y57.838 E61.35290
G1 X185.683 Y58.174 E61.38171
G1 X186.210 Y58.701 E61.41913
G1 X186.459 Y59.104 E61.44289
G1 X187.202 Y59.864 E61.49621
G1 X187.493 Y60.354 E61.52485
G1 X187.750 Y60.697 E61.54636
G1 X188.165 Y62.025 E61.61617
G1 X188.165 Y117.971 E64.42388
G1 X187.944 Y118.934 E64.47347
G1 X187.511 Y119.740 E64.51938
G1 X185.654 Y121.657 E64.65331
G1 X184.697 Y122.236 E64.70943
G1 X183.611 Y122.493 E64.76547
G1 X121.340 Y122.493 E67.89057
G1 X120.470 Y122.267 E67.93569
G1 X119.945 Y121.993 E67.96543
G1 X119.160 Y121.271 E68.01895
G1 X118.878 Y120.824 E68.04550
G1 X117.974 Y119.843 E68.11245
G1 X117.813 Y119.529 E68.13014
G1 X117.496 Y119.052 E68.15886
G1 X117.184 Y117.918 E68.21790
G1 X117.184 Y62.014 E71.02349
G1 X117.375 Y61.095 E71.07059
G1 X117.480 Y60.892 E71.08205
G1 X117.781 Y61.051 F6600.000
G1 F2400.000
G1 X118.123 Y60.400 E71.11891
G1 X119.928 Y58.548 E71.24871
G1 X120.759 Y58.042 E71.29754
G1 X121.759 Y57.801 E71.34915
G1 X183.991 Y57.801 E74.47233
G1 X185.038 Y58.135 E74.52750
G1 X185.449 Y58.428 E74.55282
G1 X185.951 Y58.930 E74.58841
G1 X186.185 Y59.317 E74.61111
G1 X186.916 Y60.058 E74.66338
G1 X187.206 Y60.546 E74.69188
G1 X187.456 Y60.880 E74.71282
G1 X187.820 Y62.051 E74.77433
G1 X187.820 Y117.951 E77.57973
G1 X187.613 Y118.832 E77.62515
G1 X187.220 Y119.554 E77.66642
G1 X185.422 Y121.401 E77.79576
G1 X184.590 Y121.907 E77.84465
G1 X183.590 Y122.148 E77.89627
G1 X121.363 Y122.148 E81.01918
G1 X120.579 Y121.939 E81.05992
G1 X120.127 Y121.700 E81.08558
G1 X119.413 Y121.036 E81.13453
G1 X119.155 Y120.615 E81.15927
G1 X118.246 Y119.629 E81.22661
G1 X118.114 Y119.358 E81.24170
G1 X117.799 Y118.884 E81.27026
G1 X117.529 Y117.895 E81.32172
G1 X117.529 Y62.032 E84.12525
G1 X117.708 Y61.191 E84.16842
G1 X117.753 Y61.104 E84.17336
G1 X118.052 Y61.264 F6600.000
G1 F2400.000
G1 X118.415 Y60.585 E84.21196
G1 X120.158 Y58.805 E84.33700
G1 X120.913 Y58.352 E84.38119
G1 X121.779 Y58.146 E84.42583
G1 X183.964 Y58.146 E87.54668
G1 X184.861 Y58.432 E87.59393
G1 X185.216 Y58.683 E87.61571
G1 X185.690 Y59.157 E87.64940
G1 X185.909 Y59.529 E87.67103
G1 X186.631 Y60.253 E87.72235
G1 X186.919 Y60.738 E87.75067
G1 X187.163 Y61.063 E87.77104
G1 X187.475 Y62.076 E87.82426
G1 X187.475 Y117.930 E90.62733
G1 X187.284 Y118.728 E90.66850
G1 X186.930 Y119.366 E90.70512
G1 X185.192 Y121.143 E90.82989
G1 X184.436 Y121.598 E90.87414
G1 X183.570 Y121.803 E90.91879
G1 X121.387 Y121.803 E94.03952
G1 X120.690 Y121.612 E94.07578
G1 X120.312 Y121.408 E94.09736
G1 X119.667 Y120.802 E94.14173
G1 X119.434 Y120.409 E94.16468
G1 X118.520 Y119.417 E94.23239
G1 X118.418 Y119.193 E94.24475
G1 X118.102 Y118.717 E94.27341
G1 X117.874 Y117.873 E94.31730
G1 X117.874 Y62.051 E97.11876
G1 X118.032 Y61.320 E97.15632
G1 X118.369 Y61.394 F6600.000
G1 F2400.000
G1 X118.706 Y60.772 E97.19182
G1 X120.388 Y59.064 E97.31215
G1 X121.065 Y58.662 E97.35167
G1 X121.798 Y58.491 E97.38943
G1 X183.938 Y58.491 E100.50796
G1 X184.686 Y58.730 E100.54737
G1 X184.983 Y58.937 E100.56557
G1 X185.429 Y59.384 E100.59725
G1 X185.631 Y59.738 E100.61773
G1 X186.370 Y60.480 E100.67027
G1 X186.631 Y60.928 E100.69628
G1 X186.868 Y61.246 E100.71619
G1 X187.130 Y62.102 E100.76111
G1 X187.130 Y117.909 E103.56184
G1 X186.955 Y118.622 E103.59868
G1 X186.642 Y119.176 E103.63064
G1 X184.962 Y120.885 E103.75089
G1 X184.283 Y121.287 E103.79048
G1 X183.551 Y121.458 E103.82824
G1 X121.412 Y121.458 E106.94675
G1 X120.805 Y121.287 E106.97841
G1 X120.499 Y121.117 E106.99592
G1 X119.925 Y120.571 E107.03572
G1 X119.714 Y120.203 E107.05698
G1 X118.822 Y119.248 E107.12257
G1 X118.719 Y119.021 E107.13509
G1 X118.426 Y118.595 E107.16103
G1 X118.219 Y117.849 E107.19991
G1 X118.219 Y62.070 E109.99920
G1 X118.356 Y61.453 E110.03094
G1 X119.657 Y61.887 F6600.000
G1 F2400.000
G1 X119.832 Y61.570 E110.04911
G1 X120.314 Y61.088 E110.08332
G1 X120.467 Y60.995 E110.09230
G1 X120.538 Y60.864 E110.09977
G1 X121.298 Y60.104 E110.15370
G1 X121.615 Y59.929 E110.17187
G1 X121.876 Y59.871 E110.18530
G1 X183.824 Y59.871 E113.29420
G1 X184.056 Y59.962 E113.30674
G1 X184.369 Y60.274 E113.32891
G1 X184.491 Y60.550 E113.34404
G1 X185.302 Y61.355 E113.40141
G1 X185.384 Y61.501 E113.40983
G1 X185.413 Y61.619 E113.41588
G1 X185.646 Y61.890 E113.43384
G1 X185.750 Y62.207 E113.45060
G1 X185.750 Y117.815 E116.24131
G1 X185.651 Y118.163 E116.25947
G1 X185.507 Y118.389 E116.27291
G1 X185.035 Y118.861 E116.30644
G1 X184.882 Y118.954 E116.31541
G1 X184.811 Y119.085 E116.32288
G1 X184.051 Y119.845 E116.37681
G1 X183.734 Y120.020 E116.39498
G1 X183.473 Y120.079 E116.40842
G1 X121.525 Y120.079 E119.51731
G1 X121.293 Y119.988 E119.52985
G1 X120.980 Y119.675 E119.55202
G1 X120.858 Y119.400 E119.56712
G1 X120.018 Y118.554 E119.62698
G1 X119.966 Y118.451 E119.63276
G1 X119.936 Y118.331 E119.63898
G1 X119.703 Y118.059 E119.65695
G1 X119.598 Y117.742 E119.67370
G1 X119.598 Y62.148 E122.46372
G1 X119.644 Y61.945 E122.47415
G1 X119.973 Y62.025 F6600.000
G1 F2400.000
G1 X120.095 Y61.795 E122.48722
G1 X120.538 Y61.352 E122.51865
G1 X120.744 Y61.238 E122.53047
G1 X120.812 Y61.078 E122.53919
G1 X121.522 Y60.368 E122.58962
G1 X121.753 Y60.246 E122.60270
G1 X121.893 Y60.216 E122.60991
G1 X183.785 Y60.216 E125.71602
G1 X183.849 Y60.242 E125.71946
G1 X184.099 Y60.492 E125.73724
G1 X184.125 Y60.556 E125.74068
G1 X184.125 Y60.730 E125.74943
G1 X184.321 Y60.862 E125.76125
G1 X185.036 Y61.578 E125.81205
G1 X185.086 Y61.775 E125.82227
G1 X185.336 Y62.045 E125.84072
G1 X185.406 Y62.239 E125.85110
G1 X185.406 Y63.032 E125.89087
G1 X185.386 Y63.123 E125.89553
G1 X185.406 Y63.213 E125.90018
G1 X185.406 Y64.017 E125.94053
G1 X185.386 Y64.108 E125.94519
G1 X185.406 Y64.199 E125.94985
G1 X185.406 Y65.003 E125.99020
G1 X185.386 Y65.093 E125.99485
G1 X185.406 Y65.184 E125.99951
G1 X185.406 Y65.988 E126.03986
G1 X185.386 Y66.079 E126.04452
G1 X185.406 Y66.170 E126.04917
G1 X185.406 Y66.973 E126.08952
G1 X185.386 Y67.064 E126.09418
G1 X185.406 Y67.155 E126.09884
G1 X185.406 Y67.959 E126.13918
G1 X185.386 Y68.050 E126.14384
G1 X185.406 Y68.140 E126.14850
G1 X185.406 Y68.944 E126.18885
G1 X185.386 Y69.035 E126.19350
G1 X185.406 Y69.126 E126.19816
G1 X185.406 Y69.930 E126.23851
G1 X185.386 Y70.020 E126.24317
G1 X185.406 Y70.111 E126.24782
G1 X185.406 Y70.915 E126.28817
G1 X185.386 Y71.006 E126.29283
G1 X185.406 Y71.096 E126.29749
G1 X185.406 Y71.900 E126.33783
G1 X185.386 Y71.991 E126.34249
G1 X185.406 Y72.082 E126.34715
G1 X185.406 Y72.886 E126.38750
G1 X185.386 Y72.977 E126.39215
G1 X185.406 Y73.067 E126.39681
G1 X185.406 Y73.871 E126.43716
G1 X185.386 Y73.962 E126.44182
G1 X185.406 Y74.053 E126.44647
G1 X185.406 Y74.857 E126.48682
G1 X185.386 Y74.947 E126.49148
G1 X185.406 Y75.038 E126.49614
G1 X185.406 Y75.842 E126.53649
G1 X185.386 Y75.933 E126.54114
G1 X185.406 Y76.023 E126.54580
G1 X185.406 Y76.827 E126.58615
G1 X185.386 Y76.918 E126.59081
G1 X185.406 Y77.009 E126.59546
G1 X185.406 Y77.813 E126.63581
G1 X185.386 Y77.904 E126.64047
G1 X185.406 Y77.994 E126.64512
G1 X185.406 Y78.798 E126.68547
G1 X185.386 Y78.889 E126.69013
G1 X185.406 Y78.980 E126.69479
G1 X185.406 Y79.784 E126.73514
G1 X185.386 Y79.874 E126.73979
G1 X185.406 Y79.965 E126.74445
G1 X185.406 Y80.769 E126.78480
G1 X185.386 Y80.860 E126.78946
G1 X185.406 Y80.950 E126.79411
G1 X185.406 Y81.754 E126.83446
G1 X185.386 Y81.845 E126.83912
G1 X185.406 Y81.936 E126.84378
G1 X185.406 Y82.740 E126.88412
G1 X185.386 Y82.831 E126.88878
G1 X185.406 Y82.921 E126.89344
G1 X185.406 Y83.725 E126.93379
G1 X185.386 Y83.816 E126.93844
G1 X185.406 Y83.907 E126.94310
G1 X185.406 Y84.711 E126.98345
G1 X185.386 Y84.801 E126.98811
G1 X185.406 Y84.892 E126.99276
G1 X185.406 Y85.696 E127.03311
G1 X185.386 Y85.787 E127.03777
G1 X185.406 Y85.877 E127.04243
G1 X185.406 Y86.681 E127.08278
G1 X185.386 Y86.772 E127.08743
G1 X185.406 Y86.863 E127.09209
G1 X185.406 Y87.667 E127.13244
G1 X185.386 Y87.758 E127.13709
G1 X185.406 Y87.848 E127.14175
G1 X185.406 Y88.652 E127.18210
G1 X185.386 Y88.743 E127.18676
G1 X185.406 Y88.834 E127.19141
G1 X185.406 Y89.638 E127.23176
G1 X185.386 Y89.728 E127.23642
G1 X185.406 Y89.819 E127.24108
G1 X185.406 Y90.623 E127.28143
G1 X185.386 Y90.714 E127.28608
G1 X185.406 Y90.804 E127.29074
G1 X185.406 Y91.608 E127.33109
G1 X185.386 Y91.699 E127.33575
G1 X185.406 Y91.790 E127.34040
G1 X185.406 Y92.594 E127.38075
G1 X185.386 Y92.685 E127.38541
G1 X185.406 Y92.775 E127.39007
G1 X185.406 Y93.579 E127.43041
G1 X185.386 Y93.670 E127.43507
G1 X185.406 Y93.761 E127.43973
G1 X185.406 Y94.565 E127.48008
G1 X185.386 Y94.655 E127.48473
G1 X185.406 Y94.746 E127.48939
G1 X185.406 Y95.550 E127.52974
G1 X185.386 Y95.641 E127.53440
G1 X185.406 Y95.731 E127.53905
G1 X185.406 Y96.535 E127.57940
