; generated by PrusaSlicer 2.3.3+win64 on 2021-09-04 at 23:15:45 UTC

; 

; external perimeters extrusion width = 0.45mm
; perimeters extrusion width = 0.45mm
; infill extrusion width = 0.45mm
; solid infill extrusion width = 0.45mm
; top infill extrusion width = 0.40mm
; support material extrusion width = 0.35mm
; first layer extrusion width = 0.42mm

M107
M190 S80 ; set bed temperature and wait for it to be reached
M104 S230 ; set temperature
;TYPE:Custom
G28 ; home all axes
G1 Z5 F5000 ; lift nozzle
M109 S230 ; set temperature and wait for it to be reached
G21 ; set units to millimeters
G90 ; use absolute coordinates
M82 ; use absolute distances for extrusion
G92 E0
; Filament gcode
;LAYER_CHANGE
;Z:0.35
;HEIGHT:0.35
G1 Z0.350 F6600.000
G1 E-4.00000 F2400.000
G92 E0
G1 Z0.450 F6600.000
G1 X125.305 Y103.462
G1 Z0.350
G1 E4.00000 F2400.000
;TYPE:Skirt
;WIDTH:0.42
G1 X130.754 Y97.997 E4.38730
G1 X138.004 Y94.396 E4.79359
G1 X138.503 Y94.332 E4.81882
G1 X160.841 Y94.332 E5.93989
G1 X161.522 Y94.451 E5.97456
G1 X162.126 Y94.792 E6.00941
G1 X164.147 Y96.801 E6.15240
G1 X164.507 Y97.333 E6.18463
G1 X167.751 Y107.738 E6.73160
G1 X167.976 Y109.681 E6.82978
G1 X167.809 Y123.887 E7.54280
G1 X164.477 Y137.299 E8.23632
G1 X164.198 Y137.923 E8.27065
G1 X158.942 Y143.232 E8.64556
G1 X158.449 Y143.568 E8.67552
G1 X157.879 Y143.745 E8.70548
G1 X129.008 Y143.925 E10.15441
G1 X128.421 Y143.835 E10.18419
G1 X127.885 Y143.580 E10.21397
G1 X118.939 Y134.687 E10.84707
G1 X118.556 Y134.103 E10.88209
G1 X118.394 Y133.428 E10.91693
G1 X118.389 Y114.479 E11.86789
G1 X118.442 Y114.025 E11.89083
G1 X118.719 Y113.374 E11.92637
G1 X125.271 Y103.512 E12.52057
G1 X125.559 Y103.703 F6600.000
G1 F2400.000
G1 X130.955 Y98.277 E12.90464
G1 X138.092 Y94.729 E13.30463
G1 X138.505 Y94.677 E13.32553
G1 X160.841 Y94.677 E14.44644
G1 X161.416 Y94.779 E14.47579
G1 X161.923 Y95.072 E14.50513
G1 X163.893 Y97.033 E14.64464
G1 X164.202 Y97.496 E14.67256
G1 X167.419 Y107.832 E15.21586
G1 X167.633 Y109.718 E15.31109
G1 X167.467 Y123.843 E16.02001
G1 X164.144 Y137.211 E16.71134
G1 X163.909 Y137.736 E16.74021
G1 X158.716 Y142.972 E17.11031
G1 X158.301 Y143.256 E17.13552
G1 X157.825 Y143.405 E17.16057
G1 X129.011 Y143.580 E18.60663
G1 X128.521 Y143.505 E18.63152
G1 X128.073 Y143.291 E18.65641
G1 X119.196 Y134.456 E19.28497
G1 X118.875 Y133.971 E19.31415
G1 X118.738 Y133.403 E19.34350
G1 X118.777 Y114.104 E20.31203
G1 X119.009 Y113.560 E20.34169
G1 X125.525 Y103.753 E20.93262
G1 X125.813 Y103.944 F6600.000
G1 F2400.000
G1 X125.883 Y103.838 E20.93901
G1 X131.157 Y98.557 E21.31355
G1 X138.181 Y95.062 E21.70727
G1 X160.840 Y95.022 E22.84447
G1 X161.306 Y95.106 E22.86822
G1 X161.716 Y95.348 E22.89210
G1 X163.639 Y97.267 E23.02844
G1 X163.894 Y97.652 E23.05162
G1 X167.087 Y107.927 E23.59161
G1 X167.289 Y109.750 E23.68365
G1 X167.126 Y123.794 E24.38851
G1 X163.810 Y137.124 E25.07788
G1 X163.620 Y137.548 E25.10120
G1 X158.487 Y142.714 E25.46668
G1 X158.156 Y142.943 E25.48687
G1 X157.769 Y143.064 E25.50721
G1 X129.014 Y143.235 E26.95035
G1 X128.619 Y143.174 E26.97041
G1 X128.262 Y143.002 E26.99032
G1 X119.451 Y134.225 E27.61446
G1 X119.192 Y133.835 E27.63792
G1 X119.082 Y133.378 E27.66152
G1 X119.113 Y114.182 E28.62491
G1 X119.299 Y113.747 E28.64865
G1 X125.780 Y103.994 E29.23631
G1 E25.23631
G92 E0
G1 Z0.450 F6600.000
G1 X123.144 Y135.319
G1 Z0.350
G1 E4.00000 F2400.000
;TYPE:Support material
G1 X120.424 Y132.599 E4.19301
G1 X120.424 Y133.296 E4.22798
G1 X122.447 Y135.319 E4.37154
G1 E0.37154
G92 E0
G1 Z0.450 F6600.000
G1 X125.732 Y138.604
G1 Z0.350
G1 E4.00000 F2400.000
G1 X123.710 Y136.582 E4.14356
G1 X123.710 Y135.885 E4.17853
G1 X126.429 Y138.604 E4.37154
G1 E0.37154
G92 E0
G1 Z0.450 F6600.000
G1 X129.018 Y141.890
G1 Z0.350
G1 E4.00000 F2400.000
G1 X126.995 Y139.867 E4.14356
G1 X126.995 Y139.171 E4.17853
G1 X129.560 Y141.735 E4.36052
G1 X130.256 Y141.735 E4.39549
G1 X120.424 Y131.903 E5.09332
G1 X120.424 Y131.206 E5.12829
G1 X130.953 Y141.735 E5.87558
G1 X131.650 Y141.735 E5.91055
G1 X120.424 Y130.509 E6.70729
G1 X120.424 Y129.812 E6.74226
G1 X132.347 Y141.735 E7.58845
G1 X133.044 Y141.735 E7.62342
G1 X120.424 Y129.115 E8.51907
G1 X120.424 Y128.419 E8.55404
G1 X133.740 Y141.735 E9.49913
G1 X134.437 Y141.735 E9.53410
G1 X120.424 Y127.722 E10.52866
G1 X120.424 Y127.025 E10.56362
G1 X135.134 Y141.735 E11.60763
G1 X135.831 Y141.735 E11.64260
G1 X120.424 Y126.328 E12.73606
G1 X120.424 Y125.632 E12.77103
G1 X136.527 Y141.735 E13.91394
G1 X137.224 Y141.735 E13.94891
G1 X120.424 Y124.935 E15.14127
G1 X120.424 Y124.238 E15.17624
G1 X137.921 Y141.735 E16.41806
G1 X138.618 Y141.735 E16.45303
G1 X120.424 Y123.541 E17.74430
G1 X120.424 Y122.844 E17.77927
G1 X139.315 Y141.735 E19.11999
G1 X140.011 Y141.735 E19.15496
G1 X120.424 Y122.148 E20.54514
G1 X120.424 Y121.451 E20.58011
G1 X140.708 Y141.735 E22.01974
G1 X141.405 Y141.735 E22.05471
G1 X120.424 Y120.754 E23.54379
G1 X120.424 Y120.057 E23.57876
G1 X142.102 Y141.735 E25.11729
G1 X142.798 Y141.735 E25.15226
G1 X120.424 Y119.360 E26.74025
G1 X120.424 Y118.664 E26.77522
G1 X143.495 Y141.735 E28.41266
G1 X144.192 Y141.735 E28.44763
G1 X120.424 Y117.967 E30.13453
G1 X120.424 Y117.270 E30.16950
G1 X144.889 Y141.735 E31.90585
G1 X145.586 Y141.735 E31.94082
G1 X120.424 Y116.573 E33.72662
G1 X120.424 Y115.877 E33.76159
G1 X146.282 Y141.735 E35.59684
G1 X146.979 Y141.735 E35.63181
G1 X120.424 Y115.180 E37.51652
G1 X120.424 Y114.483 E37.55149
G1 X147.676 Y141.735 E39.48565
G1 X148.373 Y141.735 E39.52062
G1 X120.757 Y114.119 E41.48064
G1 X121.105 Y113.770 E41.50536
G1 X149.069 Y141.735 E43.49011
G1 X149.766 Y141.735 E43.52508
G1 X121.453 Y113.422 E45.53455
G1 X121.802 Y113.074 E45.55927
G1 X150.463 Y141.735 E47.59347
G1 X151.160 Y141.735 E47.62844
G1 X122.220 Y112.795 E49.68242
G1 X122.917 Y112.795 E49.71738
G1 X151.857 Y141.735 E51.77136
G1 X152.553 Y141.735 E51.80633
G1 X123.613 Y112.795 E53.86031
G1 X123.710 Y112.795 E53.86514
G1 X123.710 Y112.194 E53.89528
G1 X153.250 Y141.735 E55.99187
G1 X153.947 Y141.735 E56.02684
G1 X123.710 Y111.498 E58.17288
G1 X123.710 Y111.166 E58.18955
G1 X123.892 Y110.983 E58.20249
G1 X154.644 Y141.735 E60.38505
G1 X155.340 Y141.735 E60.42002
G1 X124.241 Y110.635 E62.62730
G1 X124.589 Y110.286 E62.65203
G1 X156.037 Y141.735 E64.88403
G1 X156.734 Y141.735 E64.91900
G1 X124.937 Y109.938 E67.17574
G1 X125.286 Y109.590 E67.20047
G1 X157.431 Y141.735 E69.48193
G1 X157.565 Y141.735 E69.48865
G1 X157.846 Y141.453 E69.50862
G1 X125.902 Y109.509 E71.77581
G1 X126.599 Y109.509 E71.81078
G1 X158.195 Y141.105 E74.05325
G1 X158.543 Y140.757 E74.07798
G1 X126.995 Y109.209 E76.31703
G1 X126.995 Y108.512 E76.35200
G1 X158.891 Y140.408 E78.61577
G1 X159.221 Y140.079 E78.63917
G1 X159.221 Y140.041 E78.64105
G1 X126.995 Y107.815 E80.92823
G1 X126.995 Y107.119 E80.96319
G1 X159.221 Y139.344 E83.25037
G1 X159.221 Y138.648 E83.28534
G1 X126.995 Y106.422 E85.57252
G1 X126.995 Y105.725 E85.60749
G1 X159.719 Y138.449 E87.93004
G1 X160.416 Y138.449 E87.96501
G1 X126.995 Y105.028 E90.33701
G1 X126.995 Y104.594 E90.35879
G1 X127.127 Y104.463 E90.36812
G1 X160.982 Y138.318 E92.77093
G1 X161.330 Y137.970 E92.79565
G1 X127.475 Y104.115 E95.19846
G1 X127.824 Y103.766 E95.22319
G1 X161.678 Y137.621 E97.62600
G1 X162.027 Y137.273 E97.65073
G1 X128.172 Y103.418 E100.05353
G1 X128.520 Y103.069 E100.07826
G1 X162.375 Y136.924 E102.48107
G1 X162.507 Y136.793 E102.49040
G1 X162.507 Y136.359 E102.51217
G1 X129.086 Y102.938 E104.88418
G1 X129.783 Y102.938 E104.91915
G1 X162.507 Y135.662 E107.24170
G1 X162.507 Y134.965 E107.27667
G1 X130.281 Y102.740 E109.56385
G1 X130.281 Y102.043 E109.59882
G1 X162.507 Y134.269 E111.88600
G1 X162.507 Y133.572 E111.92096
G1 X130.281 Y101.346 E114.20814
G1 X130.281 Y101.309 E114.21002
G1 X130.611 Y100.979 E114.23342
G1 X162.507 Y132.875 E116.49720
G1 X162.507 Y132.178 E116.53216
G1 X130.959 Y100.631 E118.77121
G1 X131.307 Y100.282 E118.79594
G1 X162.507 Y131.482 E121.01026
G1 X162.507 Y130.785 E121.04523
G1 X131.656 Y99.934 E123.23483
G1 X131.937 Y99.652 E123.25481
G1 X132.071 Y99.652 E123.26152
G1 X162.507 Y130.088 E125.42165
G1 X162.507 Y129.391 E125.45661
G1 X132.768 Y99.652 E127.56728
G1 X133.465 Y99.652 E127.60225
G1 X162.507 Y128.694 E129.66346
G1 X162.507 Y127.998 E129.69843
G1 X134.162 Y99.652 E131.71019
G1 X134.858 Y99.652 E131.74516
G1 X162.507 Y127.301 E133.70747
G1 X162.507 Y126.604 E133.74244
G1 X135.555 Y99.652 E135.65529
G1 X136.252 Y99.652 E135.69026
G1 X162.507 Y125.907 E137.55367
G1 X162.507 Y125.307 E137.58380
G1 X162.603 Y125.307 E137.58863
G1 X136.852 Y99.556 E139.41626
G1 X136.852 Y98.859 E139.45123
G1 X163.300 Y125.307 E141.32831
G1 X163.997 Y125.307 E141.36328
G1 X136.852 Y98.162 E143.28982
G1 X136.852 Y98.023 E143.29681
G1 X137.131 Y97.744 E143.31659
G1 X164.415 Y125.028 E145.25302
G1 X164.763 Y124.680 E145.27774
G1 X137.479 Y97.396 E147.21417
G1 X137.828 Y97.048 E147.23889
G1 X165.111 Y124.331 E149.17532
G1 X165.460 Y123.983 E149.20004
G1 X138.176 Y96.699 E151.13647
G1 X138.509 Y96.367 E151.16006
G1 X138.540 Y96.367 E151.16166
G1 X165.792 Y123.619 E153.09583
G1 X165.792 Y122.922 E153.13080
G1 X139.237 Y96.367 E155.01550
G1 X139.934 Y96.367 E155.05047
G1 X165.792 Y122.225 E156.88573
G1 X165.792 Y121.528 E156.92070
G1 X140.631 Y96.367 E158.70650
G1 X141.328 Y96.367 E158.74147
G1 X165.792 Y120.832 E160.47782
G1 X165.792 Y120.135 E160.51278
G1 X142.024 Y96.367 E162.19968
G1 X142.721 Y96.367 E162.23465
G1 X165.792 Y119.438 E163.87209
G1 X165.792 Y118.741 E163.90706
G1 X143.418 Y96.367 E165.49505
G1 X144.115 Y96.367 E165.53002
G1 X165.792 Y118.044 E167.06856
G1 X165.792 Y117.348 E167.10353
G1 X144.812 Y96.367 E168.59261
G1 X145.508 Y96.367 E168.62758
G1 X165.792 Y116.651 E170.06721
G1 X165.792 Y115.954 E170.10218
G1 X146.205 Y96.367 E171.49235
G1 X146.902 Y96.367 E171.52732
G1 X165.792 Y115.257 E172.86805
G1 X165.792 Y114.560 E172.90302
G1 X147.599 Y96.367 E174.19429
G1 X148.295 Y96.367 E174.22926
G1 X165.792 Y113.864 E175.47107
G1 X165.792 Y113.167 E175.50604
G1 X148.992 Y96.367 E176.69841
G1 X149.689 Y96.367 E176.73338
G1 X165.792 Y112.470 E177.87629
G1 X165.792 Y111.773 E177.91126
G1 X150.386 Y96.367 E179.00472
G1 X151.083 Y96.367 E179.03968
G1 X165.792 Y111.077 E180.08369
G1 X165.792 Y110.380 E180.11866
G1 X151.779 Y96.367 E181.11321
G1 X152.476 Y96.367 E181.14818
G1 X165.947 Y109.838 E182.10429
G1 E178.10429
G92 E0
G1 Z0.450 F6600.000
G1 X163.571 Y106.068
G1 Z0.350
G1 E4.00000 F2400.000
G1 X165.792 Y108.289 E4.15763
G1 X165.792 Y108.986 E4.19260
G1 X163.030 Y106.224 E4.38867
G1 X162.507 Y106.224 E4.41492
G1 X162.507 Y105.701 E4.44117
G1 X153.173 Y96.367 E5.10362
G1 X153.870 Y96.367 E5.13859
G1 X162.507 Y105.004 E5.75159
G1 X162.507 Y104.307 E5.78656
G1 X154.566 Y96.367 E6.35011
G1 X155.263 Y96.367 E6.38508
G1 X162.507 Y103.610 E6.89917
G1 X162.507 Y102.913 E6.93414
G1 X155.960 Y96.367 E7.39878
G1 X156.657 Y96.367 E7.43375
G1 X162.507 Y102.217 E7.84894
G1 X162.507 Y101.520 E7.88391
G1 X157.354 Y96.367 E8.24964
G1 X158.050 Y96.367 E8.28461
G1 X162.507 Y100.823 E8.60090
G1 X162.507 Y100.126 E8.63586
G1 X158.747 Y96.367 E8.90269
G1 X159.444 Y96.367 E8.93766
G1 X162.507 Y99.430 E9.15504
G1 X162.507 Y98.733 E9.19001
G1 X160.141 Y96.367 E9.35793
G1 X160.837 Y96.367 E9.39290
G1 X162.662 Y98.191 E9.52238
;LAYER_CHANGE
;Z:0.65
;HEIGHT:0.3
G1 Z0.650 F6600.000
M104 S200 ; set temperature
M140 S60 ; set bed temperature
G1 E5.52238 F2400.000
G92 E0
G1 Z0.750 F6600.000
G1 X164.327 Y97.067
G1 Z0.650
G1 E4.00000 F2400.000
;TYPE:Skirt
G1 F3600.000
G1 X164.507 Y97.333 E4.01424
G1 X167.751 Y107.738 E4.49766
G1 X167.976 Y109.681 E4.58443
G1 X167.809 Y123.887 E5.21460
G1 X164.477 Y137.299 E5.82755
G1 X164.198 Y137.923 E5.85789
G1 X158.942 Y143.232 E6.18924
G1 X158.449 Y143.568 E6.21572
G1 X157.879 Y143.745 E6.24219
G1 X129.008 Y143.925 E7.52277
G1 X128.421 Y143.835 E7.54910
G1 X127.885 Y143.580 E7.57542
G1 X118.939 Y134.687 E8.13495
G1 X118.556 Y134.103 E8.16590
G1 X118.394 Y133.428 E8.19670
G1 X118.389 Y114.479 E9.03716
G1 X118.442 Y114.025 E9.05744
G1 X118.719 Y113.374 E9.08885
G1 X125.305 Y103.462 E9.61667
G1 X130.754 Y97.997 E9.95897
G1 X138.004 Y94.396 E10.31805
G1 X138.503 Y94.332 E10.34035
G1 X160.841 Y94.332 E11.33116
G1 X161.522 Y94.451 E11.36181
G1 X162.126 Y94.792 E11.39261
G1 X164.147 Y96.801 E11.51898
G1 X164.293 Y97.017 E11.53056
G1 X164.009 Y97.207 F6600.000
G1 F3600.000
G1 X164.202 Y97.496 E11.54595
G1 X167.419 Y107.832 E12.02613
G1 X167.633 Y109.718 E12.11029
G1 X167.467 Y123.843 E12.73684
G1 X164.144 Y137.211 E13.34785
G1 X163.909 Y137.736 E13.37337
G1 X158.716 Y142.972 E13.70046
G1 X158.301 Y143.256 E13.72274
G1 X157.825 Y143.405 E13.74488
G1 X129.011 Y143.580 E15.02292
G1 X128.521 Y143.505 E15.04492
G1 X128.073 Y143.291 E15.06692
G1 X119.196 Y134.456 E15.62245
G1 X118.875 Y133.971 E15.64824
G1 X118.738 Y133.403 E15.67418
G1 X118.777 Y114.104 E16.53017
G1 X119.009 Y113.560 E16.55639
G1 X125.593 Y103.651 E17.08410
G1 X130.955 Y98.277 E17.42082
G1 X138.092 Y94.729 E17.77433
G1 X138.505 Y94.677 E17.79281
G1 X160.841 Y94.677 E18.78348
G1 X161.416 Y94.779 E18.80941
G1 X161.923 Y95.072 E18.83535
G1 X163.893 Y97.033 E18.95865
G1 X163.976 Y97.157 E18.96527
G1 X163.691 Y97.346 F6600.000
G1 F3600.000
G1 X163.894 Y97.652 E18.98156
G1 X167.087 Y107.927 E19.45881
G1 X167.289 Y109.750 E19.54016
G1 X167.126 Y123.794 E20.16312
G1 X163.810 Y137.124 E20.77239
G1 X163.620 Y137.548 E20.79300
G1 X158.487 Y142.714 E21.11602
G1 X158.156 Y142.943 E21.13387
G1 X157.769 Y143.064 E21.15184
G1 X129.014 Y143.235 E22.42730
G1 X128.619 Y143.174 E22.44503
G1 X128.262 Y143.002 E22.46263
G1 X119.451 Y134.225 E23.01425
G1 X119.192 Y133.835 E23.03498
G1 X119.082 Y133.378 E23.05584
G1 X119.113 Y114.182 E23.90729
G1 X119.299 Y113.747 E23.92828
G1 X125.883 Y103.838 E24.45596
G1 X131.157 Y98.557 E24.78698
G1 X138.181 Y95.062 E25.13496
G1 X160.840 Y95.022 E26.14003
G1 X161.306 Y95.106 E26.16101
G1 X161.716 Y95.348 E26.18212
G1 X163.658 Y97.296 E26.30412
G1 E22.30412 F2400.000
G92 E0
G1 Z0.750 F6600.000
G1 X123.824 Y115.637
G1 Z0.650
G1 E4.00000 F2400.000
;TYPE:Support material interface
;WIDTH:0.35
G1 F3600.000
G1 X123.824 Y132.193 E4.58981
G1 X125.110 Y132.193 E4.63561
G1 X125.110 Y115.765 E5.22085
G1 X126.395 Y115.765 E5.26665
G1 X126.395 Y132.193 E5.85188
G1 X126.680 Y132.193 E5.86203
G1 X126.680 Y135.479 E5.97908
G1 X127.681 Y135.479 E6.01473
G1 X127.681 Y112.480 E6.83406
G1 X128.966 Y112.480 E6.87986
G1 X128.966 Y135.479 E7.69919
G1 X129.966 Y135.479 E7.73479
G1 X129.966 Y138.765 E7.85184
G1 X130.252 Y138.765 E7.86204
G1 X130.252 Y105.908 E9.03251
G1 X131.538 Y105.908 E9.07831
G1 X131.538 Y138.765 E10.24878
G1 X132.823 Y138.765 E10.29458
G1 X132.823 Y105.908 E11.46505
G1 X133.251 Y105.908 E11.48030
G1 X133.251 Y102.623 E11.59734
G1 X134.109 Y102.623 E11.62789
G1 X134.109 Y138.765 E12.91541
G1 X135.395 Y138.765 E12.96121
G1 X135.395 Y102.623 E14.24873
G1 X136.680 Y102.623 E14.29453
G1 X136.680 Y138.765 E15.58204
G1 X137.966 Y138.765 E15.62784
G1 X137.966 Y102.623 E16.91536
G1 X139.251 Y102.623 E16.96116
G1 X139.251 Y138.765 E18.24868
G1 X140.537 Y138.765 E18.29448
G1 X140.537 Y99.337 E19.69904
G1 X141.823 Y99.337 E19.74484
G1 X141.823 Y138.765 E21.14941
G1 X143.108 Y138.765 E21.19520
G1 X143.108 Y99.337 E22.59977
G1 X144.394 Y99.337 E22.64557
G1 X144.394 Y138.765 E24.05013
G1 X145.679 Y138.765 E24.09593
G1 X145.679 Y99.337 E25.50050
G1 X146.965 Y99.337 E25.54630
G1 X146.965 Y138.765 E26.95086
G1 X148.251 Y138.765 E26.99666
G1 X148.251 Y99.337 E28.40122
G1 X149.536 Y99.337 E28.44702
G1 X149.536 Y138.765 E29.85159
G1 X150.822 Y138.765 E29.89739
G1 X150.822 Y99.337 E31.30195
G1 X152.108 Y99.337 E31.34775
G1 X152.108 Y138.765 E32.75232
G1 X153.393 Y138.765 E32.79812
G1 X153.393 Y99.337 E34.20268
G1 X154.679 Y99.337 E34.24848
G1 X154.679 Y138.765 E35.65304
G1 X155.964 Y138.765 E35.69884
G1 X155.964 Y99.337 E37.10341
G1 X157.250 Y99.337 E37.14921
G1 X157.250 Y135.479 E38.43673
G1 X158.536 Y135.479 E38.48252
G1 X158.536 Y99.337 E39.77004
G1 X159.536 Y99.337 E39.80569
G1 X159.536 Y109.194 E40.15683
