; generated by PrusaSlicer 2.3.1+win64 on 2021-06-25 at 14:46:58 UTC

; 

; external perimeters extrusion width = 0.45mm
; perimeters extrusion width = 0.45mm
; infill extrusion width = 0.45mm
; solid infill extrusion width = 0.45mm
; top infill extrusion width = 0.40mm
; support material extrusion width = 0.35mm
; first layer extrusion width = 0.42mm

M107
M190 S80 ; set bed temperature and wait for it to be reached
M104 S230 ; set temperature
;TYPE:Custom
G28 ; home all axes
G1 Z5 F5000 ; lift nozzle
M109 S230 ; set temperature and wait for it to be reached
G21 ; set units to millimeters
G90 ; use absolute coordinates
M82 ; use absolute distances for extrusion
G92 E0
; Filament gcode
;LAYER_CHANGE
;Z:0.35
;HEIGHT:0.35
G1 Z0.350 F6600.000
G1 E-4.00000 F2400.000
G92 E0
G1 Z0.450 F6600.000
G1 X81.368 Y67.196
G1 Z0.350
G1 E4.00000 F2400.000
;TYPE:Skirt
;WIDTH:0.42
G1 X82.703 Y65.894 E4.09357
G1 X110.823 Y45.633 E5.83295
G1 X111.434 Y45.335 E5.86710
G1 X162.312 Y39.227 E8.43877
G1 X177.137 Y39.219 E9.18276
G1 X177.791 Y39.328 E9.21604
G1 X178.375 Y39.641 E9.24932
G1 X180.796 Y42.041 E9.42037
G1 X220.021 Y85.923 E12.37419
G1 X220.283 Y86.293 E12.39696
G1 X220.470 Y86.763 E12.42236
G1 X220.536 Y87.269 E12.44794
G1 X220.380 Y114.329 E13.80603
G1 X220.252 Y115.524 E13.86635
G1 X220.067 Y115.958 E13.89000
G1 X219.787 Y116.337 E13.91364
G1 X213.533 Y122.537 E14.35559
G1 X204.818 Y126.845 E14.84346
G1 X203.560 Y127.157 E14.90853
G1 X140.961 Y128.153 E18.05051
G1 X109.567 Y128.153 E19.62607
G1 X96.962 Y126.789 E20.26235
G1 X96.366 Y126.612 E20.29353
G1 X95.849 Y126.260 E20.32489
G1 X93.879 Y124.287 E20.46485
G1 X93.483 Y123.634 E20.50318
G1 X80.402 Y84.617 E22.56842
G1 X80.343 Y84.121 E22.59347
G1 X80.502 Y68.846 E23.36011
G1 X80.731 Y68.013 E23.40346
G1 X81.331 Y67.243 E23.45245
G1 X81.600 Y67.456 F6600.000
G1 F2400.000
G1 X82.906 Y66.173 E23.54433
G1 X111.021 Y45.915 E25.28344
G1 X111.532 Y45.666 E25.31199
G1 X162.345 Y39.571 E27.88034
G1 X177.136 Y39.564 E28.62266
G1 X177.694 Y39.659 E28.65105
G1 X178.186 Y39.932 E28.67929
G1 X180.544 Y42.277 E28.84619
G1 X219.980 Y86.458 E31.81828
G1 X220.138 Y86.854 E31.83965
G1 X220.191 Y87.274 E31.86087
G1 X220.036 Y114.322 E33.21835
G1 X219.927 Y115.406 E33.27299
G1 X219.533 Y116.103 E33.31322
G1 X213.344 Y122.248 E33.75090
G1 X204.679 Y126.529 E34.23595
G1 X203.534 Y126.814 E34.29515
G1 X140.956 Y127.808 E37.43605
G1 X109.571 Y127.808 E39.01113
G1 X97.014 Y126.448 E39.64505
G1 X96.514 Y126.300 E39.67121
G1 X96.083 Y126.006 E39.69738
G1 X94.142 Y124.064 E39.83517
G1 X93.805 Y123.511 E39.86768
G1 X80.737 Y84.537 E41.93065
G1 X80.688 Y84.120 E41.95171
G1 X80.846 Y68.870 E42.71708
G1 X81.046 Y68.156 E42.75433
G1 X81.563 Y67.503 E42.79610
G1 X81.830 Y67.719 F6600.000
G1 F2400.000
G1 X83.109 Y66.452 E42.88644
G1 X111.222 Y46.195 E44.62545
G1 X111.630 Y45.996 E44.64821
G1 X162.375 Y39.914 E47.21314
G1 X177.136 Y39.908 E47.95391
G1 X177.588 Y39.988 E47.97695
G1 X177.990 Y40.216 E48.00013
G1 X180.291 Y42.511 E48.16321
G1 X219.678 Y86.625 E51.13114
G1 X219.846 Y87.276 E51.16492
G1 X219.691 Y114.313 E52.52178
G1 X219.601 Y115.292 E52.57112
G1 X219.280 Y115.869 E52.60428
G1 X213.154 Y121.960 E53.03780
G1 X204.535 Y126.216 E53.52022
G1 X203.505 Y126.470 E53.57346
G1 X140.955 Y127.463 E56.71299
G1 X109.576 Y127.463 E58.28778
G1 X97.067 Y126.107 E58.91923
G1 X96.664 Y125.989 E58.94028
G1 X96.317 Y125.754 E58.96133
G1 X94.403 Y123.839 E59.09720
G1 X94.128 Y123.390 E59.12363
G1 X81.073 Y84.458 E61.18439
G1 X81.190 Y68.893 E61.96557
G1 X81.359 Y68.303 E61.99635
G1 X81.793 Y67.766 E62.03101
G1 E58.03101
G92 E0
G1 Z0.450 F6600.000
G1 X87.209 Y62.435
G1 Z0.350
G1 E4.00000 F2400.000
G1 X83.654 Y62.437 E4.17842
G1 X82.443 Y62.747 E4.24114
G1 X81.396 Y63.343 E4.30160
G1 X80.738 Y63.871 E4.34392
G1 X79.303 Y65.322 E4.44634
G1 X79.036 Y65.555 E4.46409
G1 X78.119 Y66.890 E4.54541
G1 X77.704 Y68.419 E4.62492
G1 X77.716 Y82.444 E5.32874
G1 X77.710 Y83.243 E5.36888
G1 X77.595 Y83.845 E5.39963
G1 X77.618 Y84.814 E5.44827
G1 X77.729 Y85.504 E5.48333
G1 X78.601 Y87.184 E5.57831
G1 X81.074 Y89.654 E5.75376
G1 X81.990 Y90.299 E5.80998
G1 X81.990 Y93.135 E5.95229
G1 X82.606 Y95.132 E6.05720
G1 X83.231 Y95.995 E6.11064
G1 X84.438 Y97.197 E6.19613
G1 E2.19613
G92 E0
G1 Z0.450 F6600.000
G1 X86.032 Y98.704
G1 Z0.350
G1 E4.00000 F2400.000
G1 X86.278 Y98.869 E4.01487
G1 X86.278 Y99.439 E4.04344
G1 E0.04344
G92 E0
G1 Z0.450 F6600.000
G1 X86.282 Y102.697
G1 Z0.350
G1 E4.00000 F2400.000
G1 X86.288 Y108.323 E4.28230
G1 X86.273 Y108.570 E4.29473
G1 X86.404 Y110.731 E4.40337
G1 X86.760 Y111.682 E4.45437
G1 X87.455 Y112.760 E4.51872
G1 X90.375 Y115.681 E4.72601
G1 X90.561 Y115.806 E4.73727
G1 X90.561 Y121.894 E5.04281
G1 X90.667 Y123.967 E5.14698
G1 X91.029 Y124.994 E5.20162
G1 X91.617 Y125.949 E5.25790
G1 X94.166 Y128.530 E5.43998
G1 X95.357 Y129.239 E5.50954
G1 X96.678 Y129.551 E5.57766
G1 X97.597 Y129.551 E5.62376
G1 X98.131 Y129.444 E5.65110
G1 X106.117 Y129.446 E6.05191
G1 X106.907 Y130.171 E6.10570
G1 X107.741 Y130.596 E6.15265
G1 X108.975 Y130.896 E6.21642
G1 X109.943 Y130.896 E6.26499
G1 X110.477 Y130.789 E6.29233
G1 X121.105 Y130.792 E6.82571
G1 X122.478 Y130.452 E6.89666
G1 X123.741 Y129.672 E6.97118
G1 X124.307 Y129.096 E7.01172
G1 X124.418 Y128.954 E7.02073
G1 X125.043 Y128.325 E7.06525
G1 X125.968 Y127.291 F6600.000
G1 F2400.000
G1 X126.500 Y126.505 E7.11287
G1 X129.236 Y126.506 E7.25016
G1 X129.688 Y127.239 E7.29339
G1 X129.739 Y127.291 E7.29703
G1 X130.761 Y128.325 F6600.000
G1 F2400.000
G1 X132.301 Y129.885 E7.40707
G1 X133.992 Y130.768 E7.50276
G1 X134.683 Y130.878 E7.53789
G1 X135.652 Y130.901 E7.58652
G1 X136.255 Y130.787 E7.61731
G1 X136.854 Y130.896 E7.64791
G1 X137.814 Y130.896 E7.69610
G1 X138.350 Y130.788 E7.72353
G1 X139.807 Y130.790 E7.79665
G1 X140.340 Y130.896 E7.82389
G1 X141.298 Y130.896 E7.87200
G1 X141.832 Y130.789 E7.89932
G1 X146.644 Y130.792 E8.14083
G1 X148.124 Y130.438 E8.21719
G1 X149.443 Y129.641 E8.29455
G1 X150.918 Y128.167 E8.39916
G1 X151.792 Y127.119 F6600.000
G1 F2400.000
G1 X152.304 Y126.306 E8.44735
G1 X152.741 Y124.977 E8.51754
G1 X152.791 Y123.244 E8.60455
G1 X152.791 Y121.384 E8.69789
G1 X161.082 Y121.379 E9.11397
G1 X161.516 Y122.100 E9.15623
G1 X164.203 Y124.796 E9.34727
G1 X165.059 Y125.343 E9.39823
G1 X165.200 Y125.402 E9.40589
G1 X165.289 Y125.613 E9.41740
G1 X165.912 Y126.515 E9.47240
G1 X166.284 Y126.888 E9.49885
G1 X167.299 Y127.907 F6600.000
G1 F2400.000
G1 X168.431 Y129.042 E9.57932
G1 X169.490 Y129.690 E9.64163
G1 X170.335 Y129.977 E9.68642
G1 X171.727 Y130.069 E9.75644
G1 X172.384 Y129.952 E9.78992
G1 X173.191 Y129.946 E9.83043
G1 X203.877 Y129.958 E11.37042
G1 X204.823 Y129.787 E11.41867
G1 X205.117 Y129.685 E11.43430
G1 X205.519 Y129.595 E11.45497
G1 X206.904 Y128.847 E11.53396
G1 X209.294 Y126.449 E11.70387
G1 X209.759 Y125.671 E11.74937
G1 X212.930 Y125.650 E11.90850
G1 X214.198 Y125.326 E11.97416
G1 X215.149 Y124.821 E12.02823
G1 X217.048 Y123.030 E12.15923
G1 X217.811 Y122.230 E12.21467
G1 X218.353 Y121.412 E12.26394
G1 X218.503 Y121.008 E12.28558
G1 X218.856 Y120.880 E12.30442
G1 X219.692 Y120.342 E12.35431
G1 X220.431 Y119.647 E12.40525
G1 X222.047 Y118.029 E12.52000
G1 X222.981 Y116.248 E12.62093
G1 X223.084 Y115.709 E12.64843
G1 X223.115 Y115.187 E12.67471
G1 X223.175 Y114.778 E12.69542
G1 X223.163 Y91.056 E13.88597
G1 X223.169 Y90.270 E13.92541
G1 X223.279 Y89.726 E13.95327
G1 X223.279 Y88.766 E14.00144
G1 X223.170 Y88.181 E14.03133
G1 X223.279 Y87.635 E14.05925
G1 X223.279 Y86.626 E14.10988
G1 X222.637 Y84.715 E14.21105
G1 X222.179 Y84.125 E14.24855
G1 X219.303 Y81.257 E14.45237
G1 X218.354 Y80.610 E14.51002
G1 X217.707 Y79.661 E14.56766
G1 X214.839 Y76.785 E14.77148
G1 X214.249 Y76.327 E14.80898
G1 X212.338 Y75.685 E14.91015
G1 X211.329 Y75.685 E14.96078
G1 X211.135 Y75.724 E14.97070
G1 X210.398 Y74.899 F6600.000
G1 F2400.000
G1 X210.422 Y74.778 E14.97690
G1 X210.422 Y73.769 E15.02753
G1 X209.780 Y71.859 E15.12870
G1 X209.322 Y71.268 E15.16621
G1 X206.446 Y68.400 E15.37001
G1 X205.497 Y67.753 E15.42767
G1 X204.850 Y66.804 E15.48532
G1 X201.982 Y63.928 E15.68913
G1 X201.392 Y63.470 E15.72663
G1 X199.662 Y62.889 E15.81820
G1 X198.241 Y62.874 F6600.000
G1 F2400.000
G1 X197.928 Y62.938 E15.83425
G1 X197.142 Y62.944 E15.87367
G1 X183.968 Y62.934 E16.53484
G1 X183.959 Y46.878 E17.34061
G1 X183.958 Y45.320 F6600.000
G1 F2400.000
G1 X183.964 Y44.298 E17.39191
G1 X184.081 Y43.641 E17.42541
G1 X183.970 Y42.159 E17.49998
G1 X183.702 Y41.405 E17.54016
G1 X183.056 Y40.347 E17.60237
G1 X180.341 Y37.632 E17.79504
G1 X179.046 Y36.819 E17.87178
G1 X177.542 Y36.433 E17.94971
G1 X161.998 Y36.425 E18.72983
G1 X161.245 Y36.572 E18.76832
G1 X160.698 Y36.655 E18.79606
G1 X159.723 Y37.020 E18.84835
G1 X158.843 Y37.599 E18.90120
G1 X156.721 Y39.725 E19.05192
G1 X156.054 Y40.846 F6600.000
G1 F2400.000
G1 X155.840 Y41.240 E19.07444
G1 X155.276 Y40.939 E19.10650
G1 E15.10650
G92 E0
G1 Z0.450 F6600.000
G1 X149.378 Y40.606
G1 Z0.350
G1 E4.00000 F2400.000
G1 X134.150 Y40.616 E4.76421
G1 X133.884 Y40.598 E4.77759
G1 X132.545 Y40.826 E4.84577
G1 X131.286 Y41.434 E4.91593
G1 X130.173 Y42.460 E4.99189
G1 X112.317 Y42.470 E5.88798
G1 X112.121 Y42.455 E5.89787
G1 X110.824 Y42.596 E5.96335
G1 X108.863 Y43.602 E6.07394
G1 X106.701 Y45.764 E6.22737
G1 X106.001 Y46.847 E6.29211
G1 X105.617 Y47.972 E6.35177
G1 X105.521 Y49.240 E6.41560
G1 X105.532 Y50.507 F6600.000
G1 F2400.000
G1 X105.523 Y64.440 E7.11482
G1 X104.922 Y64.775 E7.14933
G1 X104.436 Y65.225 E7.18257
G1 X102.407 Y63.224 E7.32555
G1 X101.363 Y62.628 E7.38592
G1 X100.219 Y62.337 E7.44512
G1 X99.142 Y62.316 E7.49921
G1 X98.584 Y62.426 E7.52776
G1 X88.980 Y62.433 E8.00972
G1 X88.501 Y62.779 F6600.000
G1 F2400.000
G1 X98.620 Y62.771 E8.51752
G1 X99.155 Y62.661 E8.54494
G1 X100.193 Y62.681 E8.59705
G1 X101.212 Y62.939 E8.64981
G1 X102.217 Y63.512 E8.70785
G1 X104.431 Y65.706 E8.86429
G1 X105.110 Y65.065 E8.91111
G1 X105.868 Y64.643 E8.95465
G1 X105.877 Y50.259 E9.67653
G1 X105.882 Y48.980 F6600.000
G1 F2400.000
G1 X105.950 Y48.061 E9.72277
G1 X106.303 Y47.015 E9.77816
G1 X106.959 Y45.994 E9.83903
G1 X109.088 Y43.866 E9.99014
G1 X110.951 Y42.918 E10.09504
G1 X112.109 Y42.800 E10.15344
G1 X112.304 Y42.815 E10.16327
G1 X130.309 Y42.804 E11.06688
G1 X131.461 Y41.732 E11.14586
G1 X132.628 Y41.161 E11.21108
G1 X133.882 Y40.944 E11.27495
G1 X134.139 Y40.960 E11.28785
G1 X146.490 Y40.953 E11.90771
G1 E7.90771
G92 E0
G1 Z0.450 F6600.000
G1 X154.289 Y41.057
G1 Z0.350
G1 E4.00000 F2400.000
G1 X155.128 Y41.244 E4.04310
G1 X155.979 Y41.713 E4.09186
G1 X156.470 Y40.796 E4.14408
G1 X157.275 Y39.658 F6600.000
G1 F2400.000
G1 X159.075 Y37.855 E4.27193
G1 X159.863 Y37.336 E4.31931
G1 X160.768 Y36.993 E4.36789
G1 X161.305 Y36.912 E4.39513
G1 X162.015 Y36.770 E4.43147
G1 X177.521 Y36.778 E5.20963
G1 X178.887 Y37.125 E5.28037
G1 X180.111 Y37.890 E5.35283
G1 X182.797 Y40.576 E5.54345
G1 X183.397 Y41.568 E5.60162
G1 X183.637 Y42.251 E5.63796
G1 X183.735 Y43.642 E5.70796
G1 X183.619 Y44.264 E5.73972
G1 X183.614 Y44.936 E5.77341
G1 X183.614 Y46.492 F6600.000
G1 F2400.000
G1 X183.623 Y63.279 E6.61588
G1 X197.143 Y63.289 E7.29441
G1 X197.965 Y63.283 E7.33565
G1 X198.507 Y63.173 E7.36341
G1 X200.115 Y63.395 F6600.000
G1 F2400.000
G1 X201.204 Y63.761 E7.42107
G1 X201.746 Y64.180 E7.45545
G1 X204.594 Y67.036 E7.65787
G1 X205.176 Y67.894 E7.70989
G1 X205.233 Y68.017 E7.71672
G1 X205.357 Y68.074 E7.72354
G1 X206.214 Y68.656 E7.77556
G1 X209.070 Y71.504 E7.97798
G1 X209.489 Y72.046 E8.01236
G1 X210.078 Y73.797 E8.10506
G1 X210.078 Y74.541 E8.14237
G1 X211.408 Y76.030 F6600.000
G1 F2400.000
G1 X212.310 Y76.030 E8.18760
G1 X214.061 Y76.618 E8.28030
G1 X214.603 Y77.037 E8.31468
G1 X217.451 Y79.893 E8.51710
G1 X218.033 Y80.750 E8.56912
G1 X218.090 Y80.874 E8.57595
G1 X218.213 Y80.931 E8.58277
G1 X219.071 Y81.513 E8.63479
G1 X221.927 Y84.361 E8.83721
G1 X222.346 Y84.903 E8.87159
G1 X222.934 Y86.654 E8.96430
G1 X222.934 Y87.617 E9.01260
G1 X222.828 Y88.129 E9.03887
G1 X222.828 Y88.270 E9.04592
G1 X222.934 Y88.785 E9.07232
G1 X222.934 Y89.707 E9.11861
G1 X222.825 Y90.232 E9.14553
G1 X222.818 Y91.054 E9.18679
G1 X222.830 Y114.765 E10.37674
G1 X222.771 Y115.151 E10.39631
G1 X222.743 Y115.656 E10.42171
G1 X222.647 Y116.158 E10.44736
G1 X221.785 Y117.804 E10.54059
G1 X220.189 Y119.401 E10.65389
G1 X219.467 Y120.079 E10.70360
G1 X218.688 Y120.577 E10.75001
G1 X218.232 Y120.735 E10.77423
G1 X218.053 Y121.241 E10.80116
G1 X217.550 Y122.004 E10.84701
G1 X216.807 Y122.782 E10.90102
G1 X214.966 Y124.528 E11.02837
G1 X214.091 Y124.997 E11.07815
G1 X212.865 Y125.311 E11.14168
G1 X209.561 Y125.327 E11.30749
G1 X209.034 Y126.222 E11.35964
G1 X206.717 Y128.557 E11.52472
G1 X205.420 Y129.264 E11.59883
G1 X205.021 Y129.353 E11.61934
G1 X204.746 Y129.450 E11.63397
G1 X203.861 Y129.613 E11.67915
G1 X173.190 Y129.602 E13.21841
G1 X172.350 Y129.608 E13.26055
G1 X171.728 Y129.724 E13.29232
G1 X170.381 Y129.634 E13.36007
G1 X169.653 Y129.385 E13.39869
G1 X168.660 Y128.784 E13.45694
G1 X167.778 Y127.899 E13.51963
G1 X166.763 Y126.881 F6600.000
G1 F2400.000
G1 X166.167 Y126.283 E13.56200
G1 X165.586 Y125.436 E13.61357
G1 X165.465 Y125.131 E13.63002
G1 X165.226 Y125.040 E13.64286
G1 X164.434 Y124.539 E13.68990
G1 X161.776 Y121.872 E13.87885
G1 X161.279 Y121.034 E13.92778
G1 X152.446 Y121.040 E14.37106
G1 X152.446 Y123.238 E14.48139
G1 X152.405 Y124.895 E14.56457
G1 X152.000 Y126.140 E14.63029
G1 X151.381 Y127.125 E14.68866
G1 X150.428 Y128.175 F6600.000
G1 F2400.000
G1 X149.246 Y129.357 E14.77260
G1 X148.016 Y130.109 E14.84494
G1 X146.623 Y130.447 E14.91684
G1 X141.796 Y130.444 E15.15912
G1 X141.280 Y130.551 E15.18557
G1 X140.358 Y130.551 E15.23185
G1 X139.843 Y130.445 E15.25821
G1 X138.314 Y130.443 E15.33495
G1 X137.796 Y130.551 E15.36151
G1 X136.874 Y130.551 E15.40780
G1 X136.358 Y130.445 E15.43420
G1 X136.206 Y130.445 E15.44188
G1 X135.640 Y130.556 E15.47078
G1 X134.703 Y130.534 E15.51783
G1 X134.075 Y130.432 E15.54979
G1 X132.528 Y129.624 E15.63736
G1 X131.245 Y128.325 E15.72896
G1 X130.224 Y127.291 F6600.000
G1 F2400.000
G1 X129.948 Y127.011 E15.74866
G1 X129.431 Y126.161 E15.79862
G1 X126.317 Y126.160 E15.95490
G1 X125.555 Y127.291 E16.02331
G1 X124.557 Y128.325 F6600.000
G1 F2400.000
G1 X123.540 Y129.391 E16.09724
G1 X122.367 Y130.124 E16.16667
G1 X121.084 Y130.447 E16.23305
G1 X110.441 Y130.444 E16.76716
G1 X109.925 Y130.551 E16.79363
G1 X108.996 Y130.551 E16.84024
G1 X107.877 Y130.279 E16.89803
G1 X107.122 Y129.900 E16.94041
G1 X106.252 Y129.101 E16.99971
G1 X98.095 Y129.099 E17.40907
G1 X97.579 Y129.206 E17.43554
G1 X96.699 Y129.206 E17.47968
G1 X95.464 Y128.910 E17.54344
G1 X94.396 Y128.272 E17.60584
G1 X91.900 Y125.750 E17.78395
G1 X91.348 Y124.862 E17.83644
G1 X91.001 Y123.877 E17.88884
G1 X90.906 Y121.890 E17.98864
G1 X90.906 Y116.491 E18.25962
G1 X90.519 Y115.337 F6600.000
G1 F2400.000
G1 X87.712 Y112.530 E18.45887
G1 X87.061 Y111.512 E18.51948
G1 X86.736 Y110.636 E18.56641
G1 X86.618 Y108.561 E18.67068
G1 X86.632 Y108.334 E18.68211
G1 X86.628 Y103.729 E18.91320
G1 E14.91320
G92 E0
G1 Z0.450 F6600.000
G1 X86.624 Y100.470
G1 Z0.350
G1 E4.00000 F2400.000
G1 X86.623 Y98.684 E4.08966
G1 X86.010 Y98.277 E4.12657
G1 X85.828 Y98.095 E4.13946
G1 E0.13946
G92 E0
G1 Z0.450 F6600.000
G1 X84.193 Y96.466
G1 Z0.350
G1 E4.00000 F2400.000
G1 X83.484 Y95.760 E4.05017
G1 X82.902 Y94.954 E4.10009
G1 X82.335 Y93.109 E4.19694
G1 X82.335 Y90.926 E4.30652
G1 X81.982 Y89.872 F6600.000
G1 F2400.000
G1 X81.307 Y89.399 E4.34785
G1 X78.863 Y86.958 E4.52121
G1 X78.064 Y85.421 E4.60814
G1 X77.963 Y84.794 E4.64004
G1 X77.940 Y83.857 E4.68709
G1 X78.055 Y83.279 E4.71664
G1 X78.061 Y82.445 E4.75851
G1 X78.049 Y68.443 E5.46122
G1 X78.444 Y67.010 E5.53577
G1 X79.279 Y65.800 E5.60958
G1 X79.539 Y65.573 E5.62689
G1 X80.977 Y64.121 E5.72945
G1 X81.580 Y63.635 E5.76833
G1 X82.553 Y63.075 E5.82465
G1 X83.676 Y62.782 E5.88291
G1 X86.730 Y62.780 E6.03615
G1 X86.250 Y63.125 F6600.000
G1 F2400.000
G1 X83.699 Y63.127 E6.16419
G1 X82.664 Y63.402 E6.21791
G1 X81.771 Y63.923 E6.26983
G1 X81.488 Y64.167 E6.28857
