; generated by PrusaSlicer 2.3.1+win64 on 2021-06-26 at 20:41:31 UTC

; 

; external perimeters extrusion width = 0.45mm
; perimeters extrusion width = 0.45mm
; infill extrusion width = 0.45mm
; solid infill extrusion width = 0.45mm
; top infill extrusion width = 0.40mm
; support material extrusion width = 0.35mm
; first layer extrusion width = 0.42mm

M107
M190 S80 ; set bed temperature and wait for it to be reached
M104 S230 ; set temperature
;TYPE:Custom
G28 ; home all axes
G1 Z5 F5000 ; lift nozzle
M109 S230 ; set temperature and wait for it to be reached
G21 ; set units to millimeters
G90 ; use absolute coordinates
M82 ; use absolute distances for extrusion
G92 E0
; Filament gcode
;LAYER_CHANGE
;Z:0.35
;HEIGHT:0.35
G1 Z0.350 F6600.000
G1 E-4.00000 F2400.000
G92 E0
G1 Z0.450 F6600.000
G1 X145.190 Y48.388
G1 Z0.350
G1 E4.00000 F2400.000
;TYPE:Skirt
;WIDTH:0.42
G1 X148.545 Y38.321 E4.53256
G1 X148.928 Y37.705 E4.56898
G1 X150.742 Y35.893 E4.69763
G1 X151.251 Y35.562 E4.72812
G1 X151.835 Y35.395 E4.75860
G1 X171.621 Y35.379 E5.75157
G1 X172.315 Y35.502 E5.78694
G1 X172.925 Y35.855 E5.82231
G1 X175.166 Y38.086 E5.98099
G1 X175.547 Y38.674 E6.01619
G1 X184.224 Y64.981 E7.40636
G1 X184.281 Y67.563 E7.53599
G1 X184.126 Y84.157 E8.36880
G1 X183.853 Y85.432 E8.43424
G1 X183.415 Y86.108 E8.47465
G1 X173.298 Y96.225 E9.19273
G1 X172.912 Y96.526 E9.21725
G1 X172.463 Y96.726 E9.24195
G1 X171.873 Y96.816 E9.27191
G1 X148.156 Y96.816 E10.46217
G1 X147.412 Y96.674 E10.50015
G1 X146.744 Y96.244 E10.54004
G1 X140.255 Y89.754 E11.00062
G1 X139.928 Y89.314 E11.02813
G1 X139.731 Y88.803 E11.05563
G1 X139.676 Y88.324 E11.07980
G1 X139.831 Y64.760 E12.26244
G1 X139.933 Y64.161 E12.29292
G1 X145.171 Y48.445 E13.12428
G1 X145.498 Y48.554 F6600.000
G1 F2400.000
G1 X148.867 Y38.445 E13.65903
G1 X149.191 Y37.929 E13.68965
G1 X150.966 Y36.155 E13.81559
G1 X151.398 Y35.874 E13.84144
G1 X151.894 Y35.736 E13.86729
G1 X171.621 Y35.724 E14.85730
G1 X172.206 Y35.829 E14.88712
G1 X172.718 Y36.131 E14.91694
G1 X174.908 Y38.316 E15.07222
G1 X175.235 Y38.820 E15.10235
G1 X183.890 Y65.069 E16.48945
G1 X183.936 Y67.562 E16.61460
G1 X183.781 Y84.152 E17.44722
G1 X183.530 Y85.310 E17.50668
G1 X183.166 Y85.869 E17.54014
G1 X173.054 Y95.981 E18.25784
G1 X172.358 Y96.398 E18.29854
G1 X171.868 Y96.472 E18.32343
G1 X148.156 Y96.472 E19.51345
G1 X147.535 Y96.352 E19.54517
G1 X146.981 Y95.993 E19.57832
G1 X140.502 Y89.514 E20.03812
G1 X140.228 Y89.144 E20.06126
G1 X140.065 Y88.716 E20.08423
G1 X140.177 Y64.758 E21.28662
G1 X140.261 Y64.269 E21.31151
G1 X145.479 Y48.611 E22.13980
G1 X145.806 Y48.720 F6600.000
G1 F2400.000
G1 X149.188 Y38.572 E22.67662
G1 X149.451 Y38.156 E22.70135
G1 X151.190 Y36.417 E22.82476
G1 X151.541 Y36.187 E22.84581
G1 X151.943 Y36.077 E22.86672
G1 X171.620 Y36.069 E23.85426
G1 X172.094 Y36.156 E23.87843
G1 X172.504 Y36.403 E23.90246
G1 X174.654 Y38.549 E24.05493
G1 X174.920 Y38.961 E24.07953
G1 X183.556 Y65.154 E25.46365
G1 X183.592 Y67.561 E25.58446
G1 X183.436 Y84.144 E26.41674
G1 X183.209 Y85.184 E26.47015
G1 X182.918 Y85.630 E26.49686
G1 X172.813 Y95.735 E27.21406
G1 X172.255 Y96.068 E27.24666
G1 X171.866 Y96.127 E27.26643
G1 X148.156 Y96.127 E28.45632
G1 X147.661 Y96.031 E28.48162
G1 X147.220 Y95.744 E28.50805
G1 X140.752 Y89.276 E28.96711
G1 X140.532 Y88.981 E28.98560
G1 X140.400 Y88.634 E29.00423
G1 X140.521 Y64.763 E30.20220
G1 X140.589 Y64.375 E30.22197
G1 X145.787 Y48.777 E31.04710
G1 E27.04710
G92 E0
G1 Z0.450 F6600.000
G1 X173.675 Y39.471
G1 Z0.350
G1 E4.00000 F2400.000
;TYPE:Support material
G1 X171.618 Y37.414 E4.14605
G1 X170.921 Y37.414 E4.18102
G1 X173.520 Y40.013 E4.36552
G1 X173.520 Y40.710 E4.40048
G1 X170.224 Y37.414 E4.63443
G1 X169.527 Y37.414 E4.66940
G1 X173.520 Y41.407 E4.95280
G1 X173.520 Y42.103 E4.98777
G1 X168.830 Y37.414 E5.32062
G1 X168.134 Y37.414 E5.35559
G1 X173.520 Y42.800 E5.73789
G1 X173.520 Y43.497 E5.77286
G1 X167.437 Y37.414 E6.20462
G1 X166.740 Y37.414 E6.23959
G1 X173.520 Y44.194 E6.72080
G1 X173.520 Y44.891 E6.75577
G1 X166.043 Y37.414 E7.28643
G1 X165.347 Y37.414 E7.32140
G1 X173.520 Y45.587 E7.90152
G1 X173.520 Y46.284 E7.93648
G1 X164.650 Y37.414 E8.56605
G1 X163.953 Y37.414 E8.60102
G1 X173.520 Y46.981 E9.28005
G1 X173.520 Y47.678 E9.31502
G1 X163.256 Y37.414 E10.04349
G1 X162.559 Y37.414 E10.07846
G1 X173.520 Y48.374 E10.85639
G1 X173.520 Y49.071 E10.89136
G1 X161.863 Y37.414 E11.71874
G1 X161.166 Y37.414 E11.75371
G1 X173.520 Y49.768 E12.63055
G1 X173.520 Y50.465 E12.66551
G1 X160.469 Y37.414 E13.59180
G1 X159.772 Y37.414 E13.62677
G1 X173.520 Y51.162 E14.60251
G1 X173.520 Y51.858 E14.63748
G1 X159.076 Y37.414 E15.66268
G1 X158.379 Y37.414 E15.69765
G1 X173.520 Y52.555 E16.77229
G1 X173.520 Y53.252 E16.80726
G1 X157.682 Y37.414 E17.93136
G1 X156.985 Y37.414 E17.96633
G1 X173.520 Y53.949 E19.13989
G1 X173.520 Y54.645 E19.17486
G1 X156.288 Y37.414 E20.39786
G1 X155.592 Y37.414 E20.43283
G1 X173.520 Y55.342 E21.70529
G1 X173.520 Y56.039 E21.74026
G1 X154.895 Y37.414 E23.06218
G1 X154.198 Y37.414 E23.09714
G1 X173.520 Y56.736 E24.46851
G1 X173.520 Y57.433 E24.50348
G1 X153.501 Y37.414 E25.92430
G1 X152.805 Y37.414 E25.95927
G1 X173.675 Y58.285 E27.44056
G1 X174.077 Y58.686 F6600.000
G1 F2400.000
G1 X177.806 Y62.415 E27.70518
G1 X177.806 Y61.718 E27.74015
G1 X174.929 Y58.842 E27.94431
G1 X175.626 Y58.842 E27.97928
G1 X177.961 Y61.177 E28.14500
G1 X178.363 Y62.972 F6600.000
G1 F2400.000
G1 X182.092 Y66.701 E28.40963
G1 X182.092 Y66.004 E28.44460
G1 X179.215 Y63.127 E28.64876
G1 X179.912 Y63.127 E28.68373
G1 X182.247 Y65.462 E28.84946
G1 E24.84946
G92 E0
G1 Z0.450 F6600.000
G1 X182.247 Y67.553
G1 Z0.350
G1 E4.00000 F2400.000
G1 X152.093 Y37.414 E6.13958
G1 X151.752 Y37.755 E6.16380
G1 X182.092 Y68.094 E8.31710
G1 X182.092 Y68.791 E8.35206
G1 X151.404 Y38.103 E10.53009
G1 X151.055 Y38.452 E10.55481
G1 X182.092 Y69.488 E12.75756
G1 X182.092 Y70.185 E12.79253
G1 X150.707 Y38.800 E15.02000
G1 X150.437 Y39.070 E15.03916
G1 X150.437 Y39.227 E15.04704
G1 X182.092 Y70.881 E17.29367
G1 X182.092 Y71.578 E17.32864
G1 X150.437 Y39.924 E19.57527
G1 X150.437 Y40.620 E19.61024
G1 X182.092 Y72.275 E21.85688
G1 X182.092 Y72.972 E21.89185
G1 X150.437 Y41.317 E24.13848
G1 X150.437 Y42.014 E24.17345
G1 X182.092 Y73.669 E26.42009
G1 X182.092 Y74.365 E26.45505
G1 X150.437 Y42.711 E28.70169
G1 X150.437 Y43.408 E28.73666
G1 X182.092 Y75.062 E30.98329
G1 X182.092 Y75.759 E31.01826
G1 X150.437 Y44.104 E33.26490
G1 X150.437 Y44.801 E33.29986
G1 X182.092 Y76.456 E35.54650
G1 X182.092 Y77.152 E35.58147
G1 X150.437 Y45.498 E37.82810
G1 X150.437 Y46.195 E37.86307
G1 X182.092 Y77.849 E40.10971
G1 X182.092 Y78.546 E40.14468
G1 X150.437 Y46.891 E42.39131
G1 X150.437 Y47.588 E42.42628
G1 X182.092 Y79.243 E44.67291
G1 X182.092 Y79.940 E44.70788
G1 X150.437 Y48.285 E46.95452
G1 X150.437 Y48.982 E46.98949
G1 X182.092 Y80.636 E49.23612
G1 X182.092 Y81.333 E49.27109
G1 X150.437 Y49.679 E51.51772
G1 X150.437 Y50.375 E51.55269
G1 X182.092 Y82.030 E53.79933
G1 X182.092 Y82.727 E53.83430
G1 X150.437 Y51.072 E56.08093
G1 X150.437 Y51.769 E56.11590
G1 X182.092 Y83.423 E58.36253
G1 X182.092 Y84.120 E58.39750
G1 X150.437 Y52.466 E60.64414
G1 X150.437 Y53.162 E60.67911
G1 X181.960 Y84.686 E62.91641
G1 X181.612 Y85.034 E62.94114
G1 X150.437 Y53.859 E65.15372
G1 X150.437 Y54.556 E65.18869
G1 X181.263 Y85.382 E67.37654
G1 X180.915 Y85.731 E67.40127
G1 X150.437 Y55.253 E69.56440
G1 X150.437 Y55.950 E69.59937
G1 X180.567 Y86.079 E71.73777
G1 X180.435 Y86.211 E71.74709
G1 X180.001 Y86.211 E71.76887
G1 X150.437 Y56.646 E73.86714
G1 X150.437 Y57.343 E73.90211
G1 X179.304 Y86.211 E75.95093
G1 X178.608 Y86.211 E75.98590
G1 X150.437 Y58.040 E77.98526
G1 X150.437 Y58.737 E78.02023
G1 X177.911 Y86.211 E79.97014
G1 X177.806 Y86.211 E79.97540
G1 X177.806 Y86.802 E80.00511
G1 X149.845 Y58.842 E81.98958
G1 X149.148 Y58.842 E82.02455
G1 X177.806 Y87.499 E84.05847
G1 X177.806 Y88.196 E84.09344
G1 X148.452 Y58.842 E86.17682
G1 X147.808 Y58.842 E86.20914
G1 X147.781 Y58.868 E86.21101
G1 X177.779 Y88.866 E88.34009
G1 X177.431 Y89.215 E88.36481
G1 X147.433 Y59.217 E90.49389
G1 X147.085 Y59.565 E90.51861
G1 X177.083 Y89.563 E92.64769
G1 X176.734 Y89.911 E92.67241
G1 X146.736 Y59.913 E94.80149
G1 X146.388 Y60.262 E94.82621
G1 X176.386 Y90.260 E96.95529
G1 X176.150 Y90.496 E96.97206
G1 X175.925 Y90.496 E96.98331
G1 X146.151 Y60.722 E99.09647
G1 X146.151 Y61.419 E99.13144
G1 X175.229 Y90.496 E101.19515
G1 X174.532 Y90.496 E101.23012
G1 X146.151 Y62.116 E103.24438
G1 X146.151 Y62.812 E103.27935
G1 X173.835 Y90.496 E105.24415
G1 X173.520 Y90.496 E105.25995
G1 X173.520 Y90.878 E105.27912
G1 X145.769 Y63.127 E107.24870
G1 X145.073 Y63.127 E107.28367
G1 X173.520 Y91.575 E109.30270
G1 X173.520 Y92.272 E109.33767
G1 X144.376 Y63.127 E111.40615
G1 X143.679 Y63.127 E111.44112
G1 X173.520 Y92.969 E113.55906
G1 X173.520 Y93.125 E113.56693
G1 X173.250 Y93.395 E113.58609
G1 X143.252 Y63.397 E115.71516
G1 X142.904 Y63.746 E115.73989
G1 X172.902 Y93.744 E117.86896
G1 X172.554 Y94.092 E117.89369
G1 X142.555 Y64.094 E120.02276
G1 X142.207 Y64.442 E120.04749
G1 X172.205 Y94.441 E122.17656
G1 X171.850 Y94.782 E122.20130
G1 X141.866 Y64.798 E124.32936
G1 X141.866 Y65.495 E124.36432
G1 X171.153 Y94.782 E126.44293
G1 X170.456 Y94.782 E126.47790
G1 X141.866 Y66.191 E128.50705
G1 X141.866 Y66.888 E128.54202
G1 X169.759 Y94.782 E130.52172
G1 X169.062 Y94.782 E130.55669
G1 X141.866 Y67.585 E132.48693
G1 X141.866 Y68.282 E132.52190
G1 X168.366 Y94.782 E134.40270
G1 X167.669 Y94.782 E134.43767
G1 X141.866 Y68.979 E136.26901
G1 X141.866 Y69.675 E136.30397
G1 X166.972 Y94.782 E138.08586
G1 X166.275 Y94.782 E138.12083
G1 X141.866 Y70.372 E139.85326
G1 X141.866 Y71.069 E139.88823
G1 X165.579 Y94.782 E141.57121
G1 X164.882 Y94.782 E141.60618
G1 X141.866 Y71.766 E143.23971
G1 X141.866 Y72.463 E143.27468
G1 X164.185 Y94.782 E144.85875
G1 X163.488 Y94.782 E144.89372
G1 X141.866 Y73.159 E146.42834
G1 X141.866 Y73.856 E146.46331
G1 X162.791 Y94.782 E147.94848
G1 X162.095 Y94.782 E147.98345
G1 X141.866 Y74.553 E149.41917
G1 X141.866 Y75.250 E149.45413
G1 X161.398 Y94.782 E150.84040
G1 X160.701 Y94.782 E150.87537
G1 X141.866 Y75.946 E152.21217
G1 X141.866 Y76.643 E152.24714
G1 X160.004 Y94.782 E153.53450
G1 X159.308 Y94.782 E153.56947
G1 X141.866 Y77.340 E154.80737
G1 X141.866 Y78.037 E154.84234
G1 X158.611 Y94.782 E156.03079
G1 X157.914 Y94.782 E156.06576
G1 X141.866 Y78.734 E157.20476
G1 X141.866 Y79.430 E157.23972
G1 X157.217 Y94.782 E158.32927
G1 X156.520 Y94.782 E158.36424
G1 X141.866 Y80.127 E159.40433
G1 X141.866 Y80.824 E159.43930
G1 X155.824 Y94.782 E160.42993
G1 X155.127 Y94.782 E160.46490
G1 X141.866 Y81.521 E161.40609
G1 X141.866 Y82.217 E161.44106
G1 X154.430 Y94.782 E162.33279
G1 X153.733 Y94.782 E162.36776
G1 X141.866 Y82.914 E163.21003
G1 X141.866 Y83.611 E163.24500
G1 X153.036 Y94.782 E164.03783
G1 X152.340 Y94.782 E164.07280
G1 X141.866 Y84.308 E164.81617
G1 X141.866 Y85.005 E164.85114
G1 X151.643 Y94.782 E165.54506
G1 X150.946 Y94.782 E165.58002
G1 X141.866 Y85.701 E166.22449
G1 X141.866 Y86.398 E166.25946
G1 X150.249 Y94.782 E166.85447
G1 X149.553 Y94.782 E166.88944
G1 X146.151 Y91.381 E167.13083
G1 X146.151 Y92.077 E167.16580
G1 X148.856 Y94.782 E167.35774
G1 X148.159 Y94.782 E167.39271
G1 X145.996 Y92.619 E167.54621
G1 E163.54621
G92 E0
G1 Z0.450 F6600.000
G1 X145.422 Y90.651
G1 Z0.350
G1 E4.00000 F2400.000
G1 X141.866 Y87.095 E4.25241
G1 X141.866 Y87.792 E4.28738
G1 X144.570 Y90.496 E4.47932
G1 X143.873 Y90.496 E4.51429
G1 X141.711 Y88.333 E4.66779
;LAYER_CHANGE
;Z:0.65
;HEIGHT:0.3
G1 Z0.650 F6600.000
M104 S200 ; set temperature
M140 S60 ; set bed temperature
G1 E0.66779 F2400.000
G92 E0
G1 Z0.750 F6600.000
G1 X140.091 Y89.534
G1 Z0.650
G1 E4.00000 F2400.000
;TYPE:Skirt
G1 F3600.000
G1 X139.928 Y89.314 E4.01215
G1 X139.731 Y88.803 E4.03646
G1 X139.676 Y88.324 E4.05783
G1 X139.831 Y64.760 E5.10305
G1 X139.933 Y64.161 E5.12999
G1 X148.545 Y38.321 E6.33810
G1 X148.928 Y37.705 E6.37029
G1 X150.742 Y35.893 E6.48400
G1 X151.251 Y35.562 E6.51094
G1 X151.835 Y35.395 E6.53788
G1 X171.621 Y35.379 E7.41548
G1 X172.315 Y35.502 E7.44674
G1 X172.925 Y35.855 E7.47800
G1 X175.166 Y38.086 E7.61824
G1 X175.547 Y38.674 E7.64935
G1 X184.224 Y64.981 E8.87800
G1 X184.281 Y67.563 E8.99256
G1 X184.126 Y84.157 E9.72861
G1 X183.853 Y85.432 E9.78645
G1 X183.415 Y86.108 E9.82216
G1 X173.298 Y96.225 E10.45680
G1 X172.912 Y96.526 E10.47848
G1 X172.463 Y96.726 E10.50031
G1 X171.873 Y96.816 E10.52678
G1 X148.156 Y96.816 E11.57875
G1 X147.412 Y96.674 E11.61232
G1 X146.744 Y96.244 E11.64757
G1 X140.255 Y89.754 E12.05464
G1 X140.127 Y89.583 E12.06413
G1 X140.402 Y89.379 F6600.000
G1 F3600.000
G1 X140.228 Y89.144 E12.07711
G1 X140.065 Y88.716 E12.09742
G1 X140.177 Y64.758 E13.16009
G1 X140.261 Y64.269 E13.18209
G1 X148.867 Y38.445 E14.38943
G1 X149.191 Y37.929 E14.41649
G1 X150.966 Y36.155 E14.52780
G1 X151.398 Y35.874 E14.55064
G1 X151.894 Y35.736 E14.57348
G1 X171.621 Y35.724 E15.44847
G1 X172.206 Y35.829 E15.47482
G1 X172.718 Y36.131 E15.50118
G1 X174.908 Y38.316 E15.63841
G1 X175.235 Y38.820 E15.66505
G1 X183.890 Y65.069 E16.89098
G1 X183.936 Y67.562 E17.00159
G1 X183.781 Y84.152 E17.73747
G1 X183.530 Y85.310 E17.79002
G1 X183.166 Y85.869 E17.81959
G1 X173.054 Y95.981 E18.45390
G1 X172.358 Y96.398 E18.48987
G1 X171.868 Y96.472 E18.51187
G1 X148.156 Y96.472 E19.56362
G1 X147.535 Y96.352 E19.59166
G1 X146.981 Y95.993 E19.62095
G1 X140.502 Y89.514 E20.02733
G1 X140.438 Y89.427 E20.03214
G1 X140.712 Y89.223 F6600.000
G1 F3600.000
G1 X140.532 Y88.981 E20.04555
G1 X140.400 Y88.634 E20.06202
G1 X140.521 Y64.763 E21.12080
G1 X140.589 Y64.375 E21.13827
G1 X149.188 Y38.572 E22.34463
G1 X149.451 Y38.156 E22.36649
G1 X151.190 Y36.417 E22.47556
G1 X151.541 Y36.187 E22.49417
G1 X151.943 Y36.077 E22.51265
G1 X171.620 Y36.069 E23.38544
G1 X172.094 Y36.156 E23.40681
G1 X172.504 Y36.403 E23.42804
G1 X174.654 Y38.549 E23.56280
G1 X174.920 Y38.961 E23.58453
G1 X183.556 Y65.154 E24.80784
G1 X183.592 Y67.561 E24.91461
G1 X183.436 Y84.144 E25.65019
G1 X183.209 Y85.184 E25.69739
G1 X182.918 Y85.630 E25.72100
G1 X172.813 Y95.735 E26.35486
G1 X172.255 Y96.068 E26.38368
G1 X171.866 Y96.127 E26.40115
G1 X148.156 Y96.127 E27.45279
G1 X147.661 Y96.031 E27.47515
G1 X147.220 Y95.744 E27.49851
G1 X140.748 Y89.271 E27.90449
G1 E23.90449 F2400.000
G92 E0
G1 Z0.750 F6600.000
G1 X178.692 Y83.369
G1 Z0.650
G1 E4.00000 F2400.000
;TYPE:Support material interface
;WIDTH:0.35
G1 F3600.000
G1 X178.692 Y66.098 E4.61526
G1 X177.406 Y66.098 E4.66106
G1 X177.406 Y83.240 E5.27175
G1 X176.120 Y83.240 E5.31755
G1 X176.120 Y66.098 E5.92823
G1 X174.836 Y66.098 E5.97401
G1 X174.835 Y61.812 E6.12668
G1 X174.835 Y87.526 E7.04271
G1 X173.549 Y87.526 E7.08850
G1 X173.549 Y61.812 E8.00453
G1 X172.264 Y61.812 E8.05033
G1 X172.264 Y87.526 E8.96636
G1 X170.978 Y87.526 E9.01216
G1 X170.978 Y61.812 E9.92818
G1 X170.550 Y61.812 E9.94343
G1 X170.550 Y40.384 E10.70679
G1 X169.692 Y40.384 E10.73734
G1 X169.692 Y91.811 E12.56939
G1 X168.407 Y91.811 E12.61519
G1 X168.407 Y40.384 E14.44724
G1 X167.121 Y40.384 E14.49304
G1 X167.121 Y91.811 E16.32510
G1 X165.836 Y91.811 E16.37089
G1 X165.836 Y40.384 E18.20295
G1 X164.550 Y40.384 E18.24875
G1 X164.550 Y91.811 E20.08080
G1 X163.264 Y91.811 E20.12660
G1 X163.264 Y40.384 E21.95865
G1 X161.979 Y40.384 E22.00445
G1 X161.979 Y91.811 E23.83650
G1 X160.693 Y91.811 E23.88230
G1 X160.693 Y40.384 E25.71436
G1 X159.407 Y40.384 E25.76016
G1 X159.407 Y91.811 E27.59221
G1 X158.122 Y91.811 E27.63801
G1 X158.122 Y40.384 E29.47006
G1 X156.836 Y40.384 E29.51586
G1 X156.836 Y91.811 E31.34791
G1 X155.551 Y91.811 E31.39371
G1 X155.551 Y40.384 E33.22577
G1 X154.265 Y40.384 E33.27156
G1 X154.265 Y91.811 E35.10362
G1 X152.979 Y91.811 E35.14942
G1 X152.979 Y61.812 E36.21812
G1 X151.694 Y61.812 E36.26391
G1 X151.694 Y91.811 E37.33261
G1 X150.408 Y91.811 E37.37841
G1 X150.408 Y61.812 E38.44711
G1 X149.122 Y61.812 E38.49291
G1 X149.122 Y91.811 E39.56161
G1 X149.122 Y87.526 E39.71428
G1 X147.837 Y87.526 E39.76005
G1 X147.837 Y66.098 E40.52341
