; generated by PrusaSlicer 2.3.1+win64 on 2021-07-20 at 20:05:46 UTC

; 

; external perimeters extrusion width = 0.45mm
; perimeters extrusion width = 0.45mm
; infill extrusion width = 0.45mm
; solid infill extrusion width = 0.45mm
; top infill extrusion width = 0.40mm
; support material extrusion width = 0.35mm
; first layer extrusion width = 0.42mm

M107
M190 S80 ; set bed temperature and wait for it to be reached
M104 S230 ; set temperature
;TYPE:Custom
G28 ; home all axes
G1 Z5 F5000 ; lift nozzle
M109 S230 ; set temperature and wait for it to be reached
G21 ; set units to millimeters
G90 ; use absolute coordinates
M82 ; use absolute distances for extrusion
G92 E0
; Filament gcode
;LAYER_CHANGE
;Z:0.35
;HEIGHT:0.35
G1 Z0.350 F6600.000
G1 E-4.00000 F2400.000
G92 E0
G1 Z0.450 F6600.000
G1 X120.872 Y91.042
G1 Z0.350
G1 E4.00000 F2400.000
;TYPE:Skirt
;WIDTH:0.42
G1 X122.844 Y89.370 E4.12974
G1 X123.348 Y89.154 E4.15725
G1 X124.352 Y88.952 E4.20865
G1 X160.693 Y88.949 E6.03245
G1 X161.453 Y89.097 E6.07130
G1 X162.104 Y89.521 E6.11032
G1 X164.345 Y91.782 E6.27005
G1 X164.646 Y92.309 E6.30053
G1 X164.777 Y92.906 E6.33119
G1 X164.626 Y112.430 E7.31106
G1 X164.126 Y130.771 E8.23185
G1 X163.981 Y131.464 E8.26740
G1 X163.608 Y132.066 E8.30294
G1 X162.963 Y132.548 E8.34335
G1 X162.182 Y132.742 E8.38376
G1 X144.842 Y132.899 E9.25397
G1 X123.182 Y132.899 E10.34104
G1 X122.481 Y132.757 E10.37693
G1 X121.872 Y132.382 E10.41282
G1 X121.121 Y131.548 E10.46913
G1 X120.927 Y131.119 E10.49277
G1 X120.837 Y130.656 E10.51642
G1 X120.332 Y111.938 E11.45615
G1 X120.332 Y93.021 E12.40553
G1 X120.425 Y91.864 E12.46377
G1 X120.600 Y91.427 E12.48742
G1 X120.837 Y91.091 E12.50805
G1 X121.133 Y91.268 F6600.000
G1 F2400.000
G1 X123.012 Y89.672 E12.63179
G1 X123.441 Y89.486 E12.65525
G1 X124.373 Y89.296 E12.70298
G1 X160.693 Y89.294 E14.52571
G1 X161.325 Y89.418 E14.55807
G1 X161.868 Y89.772 E14.59058
G1 X164.060 Y91.978 E14.74666
G1 X164.322 Y92.429 E14.77282
G1 X164.434 Y92.935 E14.79883
G1 X164.282 Y112.423 E15.77687
G1 X163.936 Y125.339 E16.42531
G1 X163.775 Y130.860 E16.70253
G1 X163.641 Y131.384 E16.72965
G1 X163.347 Y131.841 E16.75693
G1 X162.809 Y132.240 E16.79055
G1 X162.158 Y132.398 E16.82418
G1 X144.840 Y132.554 E17.69333
G1 X123.195 Y132.554 E18.77957
G1 X122.606 Y132.436 E18.80971
G1 X122.096 Y132.120 E18.83985
G1 X121.424 Y131.383 E18.88988
G1 X121.181 Y130.623 E18.92995
G1 X120.677 Y111.926 E19.86861
G1 X120.677 Y93.035 E20.81666
G1 X120.752 Y91.976 E20.86993
G1 X121.104 Y91.320 E20.90730
G1 X121.392 Y91.495 F6600.000
G1 F2400.000
G1 X123.184 Y89.971 E21.02536
G1 X123.538 Y89.817 E21.04470
G1 X124.393 Y89.640 E21.08854
G1 X160.692 Y89.639 E22.91023
G1 X161.198 Y89.738 E22.93609
G1 X161.631 Y90.023 E22.96210
G1 X163.779 Y92.179 E23.11486
G1 X163.998 Y92.547 E23.13634
G1 X164.090 Y92.965 E23.15781
G1 X163.936 Y112.432 E24.13481
G1 X163.436 Y130.768 E25.05535
G1 X163.336 Y131.222 E25.07867
G1 X163.087 Y131.614 E25.10199
G1 X162.655 Y131.930 E25.12884
G1 X162.135 Y132.053 E25.15569
G1 X144.837 Y132.209 E26.02384
G1 X123.207 Y132.209 E27.10933
G1 X122.732 Y132.115 E27.13364
G1 X122.324 Y131.860 E27.15781
G1 X121.728 Y131.220 E27.20170
G1 X121.524 Y130.591 E27.23486
G1 X121.022 Y111.917 E28.17236
G1 X121.022 Y93.051 E29.11919
G1 X121.080 Y92.086 E29.16769
G1 X121.364 Y91.548 E29.19826
G1 X122.388 Y92.399 F6600.000
;TYPE:Support material
G1 F2400.000
G1 X147.842 Y117.852 E31.00479
G1 X147.145 Y117.852 E31.03976
G1 X122.366 Y93.074 E32.79838
G1 X122.366 Y93.771 E32.83335
G1 X146.448 Y117.852 E34.54252
G1 X145.751 Y117.852 E34.57749
G1 X122.366 Y94.467 E36.23721
G1 X122.366 Y95.164 E36.27217
G1 X145.054 Y117.852 E37.88244
G1 X144.358 Y117.852 E37.91741
G1 X122.366 Y95.861 E39.47821
G1 X122.366 Y96.558 E39.51318
G1 X143.661 Y117.852 E41.02454
G1 X142.964 Y117.852 E41.05951
G1 X122.366 Y97.255 E42.52141
G1 X122.366 Y97.951 E42.55638
G1 X142.267 Y117.852 E43.96883
G1 X141.571 Y117.852 E44.00380
G1 X122.366 Y98.648 E45.36680
G1 X122.366 Y99.345 E45.40176
G1 X140.874 Y117.852 E46.71531
G1 X140.177 Y117.852 E46.75028
G1 X122.366 Y100.042 E48.01437
G1 X122.366 Y100.738 E48.04934
G1 X139.480 Y117.852 E49.26397
G1 X138.783 Y117.852 E49.29894
G1 X122.366 Y101.435 E50.46413
G1 X122.366 Y102.132 E50.49910
G1 X138.087 Y117.852 E51.61483
G1 X137.390 Y117.852 E51.64980
G1 X122.366 Y102.829 E52.71607
G1 X122.366 Y103.526 E52.75104
G1 X136.693 Y117.852 E53.76787
G1 X136.378 Y117.852 E53.78367
G1 X136.378 Y118.234 E53.80284
G1 X122.366 Y104.222 E54.79732
G1 X122.366 Y104.919 E54.83229
G1 X136.378 Y118.931 E55.82677
G1 X136.378 Y119.628 E55.86174
G1 X122.366 Y105.616 E56.85623
G1 X122.366 Y106.313 E56.89119
G1 X136.378 Y120.325 E57.88568
G1 X136.378 Y121.022 E57.92065
G1 X122.366 Y107.009 E58.91513
G1 X122.366 Y107.706 E58.95010
G1 X145.369 Y130.709 E60.58270
G1 X146.066 Y130.709 E60.61767
G1 X136.840 Y121.483 E61.27250
G1 X137.536 Y121.483 E61.30747
G1 X146.763 Y130.709 E61.96230
G1 X147.460 Y130.709 E61.99727
G1 X138.233 Y121.483 E62.65210
G1 X138.930 Y121.483 E62.68706
G1 X148.156 Y130.709 E63.34189
G1 X148.853 Y130.709 E63.37686
G1 X139.627 Y121.483 E64.03169
G1 X140.324 Y121.483 E64.06666
G1 X149.550 Y130.709 E64.72149
G1 X150.247 Y130.709 E64.75646
G1 X141.020 Y121.483 E65.41129
G1 X141.717 Y121.483 E65.44626
G1 X150.943 Y130.709 E66.10109
G1 X151.640 Y130.709 E66.13605
G1 X142.414 Y121.483 E66.79088
G1 X143.111 Y121.483 E66.82585
G1 X152.337 Y130.709 E67.48068
G1 X153.034 Y130.709 E67.51565
G1 X143.807 Y121.483 E68.17048
G1 X144.504 Y121.483 E68.20545
G1 X153.731 Y130.709 E68.86028
G1 X154.427 Y130.709 E68.89525
G1 X145.201 Y121.483 E69.55008
G1 X145.898 Y121.483 E69.58504
G1 X155.124 Y130.709 E70.23987
G1 X155.821 Y130.709 E70.27484
G1 X146.595 Y121.483 E70.92967
G1 X147.291 Y121.483 E70.96464
G1 X156.518 Y130.709 E71.61947
G1 X157.214 Y130.709 E71.65444
G1 X147.988 Y121.483 E72.30927
G1 X148.580 Y121.483 E72.33897
G1 X148.580 Y121.378 E72.34424
G1 X157.911 Y130.709 E73.00651
G1 X158.608 Y130.709 E73.04148
G1 X148.580 Y120.681 E73.75321
G1 X148.580 Y119.984 E73.78817
G1 X159.305 Y130.709 E74.54936
G1 X160.002 Y130.709 E74.58432
G1 X148.580 Y119.288 E75.39496
G1 X148.580 Y118.591 E75.42993
G1 X160.698 Y130.709 E76.29001
G1 X161.395 Y130.709 E76.32498
G1 X122.846 Y92.160 E79.06095
G1 X123.195 Y91.812 E79.08568
G1 X162.092 Y130.709 E81.84637
G1 X162.092 Y130.013 E81.88134
G1 X123.543 Y91.463 E84.61731
G1 X123.891 Y91.115 E84.64204
G1 X162.092 Y129.316 E87.35329
G1 X162.092 Y128.619 E87.38826
G1 X124.457 Y90.984 E90.05937
G1 X125.154 Y90.984 E90.09434
G1 X162.092 Y127.922 E92.71601
G1 X162.092 Y127.225 E92.75097
G1 X125.850 Y90.984 E95.32319
G1 X126.547 Y90.984 E95.35815
G1 X162.092 Y126.529 E97.88091
G1 X162.092 Y125.832 E97.91588
G1 X127.244 Y90.984 E100.38919
G1 X127.941 Y90.984 E100.42415
G1 X162.247 Y125.290 E102.85902
G1 E98.85902
G92 E0
G1 Z0.450 F6600.000
G1 X144.828 Y130.864
G1 Z0.350
G1 E4.00000 F2400.000
G1 X122.366 Y108.403 E5.59416
G1 X122.366 Y109.100 E5.62913
G1 X143.976 Y130.709 E7.16283
G1 X143.279 Y130.709 E7.19780
G1 X122.366 Y109.797 E8.68204
G1 X122.366 Y110.493 E8.71701
G1 X142.582 Y130.709 E10.15180
G1 X141.885 Y130.709 E10.18677
G1 X122.366 Y111.190 E11.57211
G1 X122.366 Y111.887 E11.60707
G1 X141.189 Y130.709 E12.94296
G1 X140.492 Y130.709 E12.97793
G1 X122.866 Y113.084 E14.22887
G1 X122.866 Y113.780 E14.26384
G1 X139.795 Y130.709 E15.46533
G1 X139.098 Y130.709 E15.50030
G1 X122.866 Y114.477 E16.65234
G1 X122.866 Y115.174 E16.68731
G1 X138.401 Y130.709 E17.78989
G1 X137.705 Y130.709 E17.82486
G1 X122.866 Y115.871 E18.87800
G1 X122.866 Y116.568 E18.91296
G1 X137.008 Y130.709 E19.91664
G1 X136.311 Y130.709 E19.95161
G1 X122.866 Y117.264 E20.90584
G1 X122.866 Y117.961 E20.94081
G1 X135.614 Y130.709 E21.84558
G1 X134.918 Y130.709 E21.88055
G1 X122.866 Y118.658 E22.73587
G1 X122.866 Y119.355 E22.77084
G1 X134.221 Y130.709 E23.57671
G1 X133.524 Y130.709 E23.61168
G1 X122.866 Y120.052 E24.36809
G1 X122.866 Y120.748 E24.40306
G1 X132.827 Y130.709 E25.11002
G1 X132.130 Y130.709 E25.14499
G1 X122.866 Y121.445 E25.80250
G1 X122.866 Y122.142 E25.83747
G1 X131.434 Y130.709 E26.44552
G1 X130.737 Y130.709 E26.48049
G1 X122.866 Y122.839 E27.03909
G1 X122.866 Y123.535 E27.07406
G1 X130.040 Y130.709 E27.58321
G1 X129.343 Y130.709 E27.61818
G1 X122.866 Y124.232 E28.07787
G1 X122.866 Y124.929 E28.11284
G1 X128.647 Y130.709 E28.52308
G1 X127.950 Y130.709 E28.55805
G1 X122.866 Y125.626 E28.91884
G1 X122.866 Y126.323 E28.95381
G1 X127.253 Y130.709 E29.26515
G1 X126.556 Y130.709 E29.30012
G1 X122.866 Y127.019 E29.56200
G1 X122.866 Y127.716 E29.59697
G1 X125.859 Y130.709 E29.80940
G1 X125.163 Y130.709 E29.84437
G1 X122.866 Y128.413 E30.00734
G1 X122.866 Y129.110 E30.04231
G1 X124.466 Y130.709 E30.15584
G1 X123.769 Y130.709 E30.19080
G1 X122.866 Y129.807 E30.25488
G1 X122.866 Y130.503 E30.28984
G1 X123.227 Y130.864 E30.31548
G1 E26.31548
G92 E0
G1 Z0.450 F6600.000
G1 X141.319 Y93.214
G1 Z0.350
G1 E4.00000 F2400.000
G1 X139.089 Y90.984 E4.15827
G1 X138.392 Y90.984 E4.19324
G1 X141.164 Y93.755 E4.38995
G1 X141.164 Y94.452 E4.42492
G1 X137.696 Y90.984 E4.67108
G1 X136.999 Y90.984 E4.70605
G1 X141.164 Y95.149 E5.00166
G1 X141.164 Y95.845 E5.03663
G1 X136.302 Y90.984 E5.38170
G1 X135.605 Y90.984 E5.41667
G1 X141.164 Y96.542 E5.81119
G1 X141.164 Y97.239 E5.84616
G1 X134.908 Y90.984 E6.29013
G1 X134.212 Y90.984 E6.32510
G1 X141.164 Y97.936 E6.81853
G1 X141.164 Y98.633 E6.85350
G1 X133.515 Y90.984 E7.39638
G1 X132.818 Y90.984 E7.43135
G1 X141.164 Y99.329 E8.02368
G1 X141.164 Y100.026 E8.05865
G1 X132.121 Y90.984 E8.70044
G1 X131.425 Y90.984 E8.73540
G1 X141.164 Y100.723 E9.42664
G1 X141.164 Y101.420 E9.46161
G1 X130.728 Y90.984 E10.20231
G1 X130.031 Y90.984 E10.23727
G1 X141.164 Y102.117 E11.02742
G1 X141.164 Y102.813 E11.06239
G1 X129.334 Y90.984 E11.90199
G1 X128.637 Y90.984 E11.93696
G1 X141.319 Y103.665 E12.83702
G1 X141.839 Y104.185 F6600.000
G1 F2400.000
G1 X162.092 Y124.438 E14.27446
G1 X162.092 Y123.741 E14.30943
G1 X142.691 Y104.340 E15.68639
G1 X143.388 Y104.340 E15.72136
G1 X162.092 Y123.045 E17.04887
G1 X162.092 Y122.348 E17.08384
G1 X143.794 Y104.050 E18.38249
G1 X143.794 Y103.353 E18.41746
G1 X162.092 Y121.651 E19.71611
G1 X162.092 Y120.954 E19.75108
G1 X143.794 Y102.657 E21.04973
G1 X143.794 Y101.960 E21.08470
G1 X162.092 Y120.258 E22.38335
G1 X162.092 Y119.561 E22.41831
G1 X143.794 Y101.263 E23.71696
G1 X143.794 Y100.566 E23.75193
G1 X162.092 Y118.864 E25.05058
G1 X162.092 Y118.167 E25.08555
G1 X143.794 Y99.870 E26.38420
G1 X143.794 Y99.173 E26.41917
G1 X162.092 Y117.470 E27.71782
G1 X162.092 Y116.774 E27.75279
G1 X143.794 Y98.476 E29.05144
G1 X143.794 Y97.779 E29.08641
G1 X162.092 Y116.077 E30.38506
G1 X162.092 Y115.380 E30.42003
G1 X143.794 Y97.082 E31.71868
G1 X143.794 Y96.386 E31.75365
G1 X162.092 Y114.683 E33.05230
G1 X162.092 Y113.987 E33.08727
G1 X143.794 Y95.689 E34.38592
G1 X143.794 Y94.992 E34.42088
G1 X162.092 Y113.290 E35.71954
G1 X162.092 Y112.910 E35.73857
G1 X162.251 Y112.752 E35.74984
G1 X143.794 Y94.295 E37.05975
G1 X143.794 Y93.598 E37.09472
G1 X162.592 Y112.396 E38.42886
G1 X162.592 Y111.699 E38.46383
G1 X143.794 Y92.902 E39.79796
G1 X143.794 Y92.640 E39.81110
G1 X144.012 Y92.422 E39.82654
G1 X162.592 Y111.003 E41.14524
G1 X162.592 Y110.306 E41.18021
G1 X144.360 Y92.074 E42.47418
G1 X144.709 Y91.726 E42.49891
G1 X162.592 Y109.609 E43.76815
G1 X162.592 Y108.912 E43.80312
G1 X145.057 Y91.377 E45.04764
G1 X145.405 Y91.029 E45.07237
G1 X162.592 Y108.215 E46.29216
G1 X162.592 Y107.519 E46.32713
G1 X146.057 Y90.984 E47.50069
G1 X146.754 Y90.984 E47.53566
G1 X162.592 Y106.822 E48.65976
G1 X162.592 Y106.125 E48.69473
G1 X147.450 Y90.984 E49.76938
G1 X148.147 Y90.984 E49.80435
G1 X162.592 Y105.428 E50.82955
G1 X162.592 Y104.732 E50.86452
G1 X148.844 Y90.984 E51.84026
G1 X149.541 Y90.984 E51.87523
G1 X162.592 Y104.035 E52.80152
G1 X162.592 Y103.338 E52.83649
G1 X150.238 Y90.984 E53.71333
G1 X150.934 Y90.984 E53.74830
G1 X162.592 Y102.641 E54.57568
G1 X162.592 Y101.944 E54.61065
G1 X151.631 Y90.984 E55.38858
G1 X152.328 Y90.984 E55.42355
G1 X162.592 Y101.248 E56.15203
G1 X162.592 Y100.551 E56.18700
G1 X153.025 Y90.984 E56.86602
G1 X153.722 Y90.984 E56.90099
G1 X162.592 Y99.854 E57.53056
G1 X162.592 Y99.157 E57.56553
G1 X154.418 Y90.984 E58.14565
G1 X155.115 Y90.984 E58.18062
G1 X162.592 Y98.461 E58.71129
G1 X162.592 Y97.764 E58.74626
G1 X155.812 Y90.984 E59.22747
G1 X156.509 Y90.984 E59.26244
G1 X162.592 Y97.067 E59.69420
G1 X162.592 Y96.370 E59.72917
G1 X157.205 Y90.984 E60.11147
G1 X157.902 Y90.984 E60.14644
G1 X162.592 Y95.673 E60.47930
G1 X162.592 Y94.977 E60.51427
G1 X158.599 Y90.984 E60.79767
G1 X159.296 Y90.984 E60.83263
G1 X162.592 Y94.280 E61.06658
G1 X162.592 Y93.583 E61.10155
G1 X159.993 Y90.984 E61.28605
G1 X160.689 Y90.984 E61.32101
G1 X162.747 Y93.041 E61.46707
;LAYER_CHANGE
;Z:0.65
;HEIGHT:0.3
G1 Z0.650 F6600.000
M104 S200 ; set temperature
M140 S60 ; set bed temperature
G1 E57.46707 F2400.000
G92 E0
G1 Z0.750 F6600.000
G1 X164.712 Y92.608
G1 Z0.650
G1 E4.00000 F2400.000
;TYPE:Skirt
G1 F3600.000
G1 X164.777 Y92.906 E4.01355
G1 X164.626 Y112.430 E4.87956
G1 X164.126 Y130.771 E5.69337
G1 X163.981 Y131.464 E5.72479
G1 X163.608 Y132.066 E5.75620
G1 X162.963 Y132.548 E5.79191
G1 X162.182 Y132.742 E5.82763
G1 X144.842 Y132.899 E6.59673
G1 X123.182 Y132.899 E7.55749
G1 X122.481 Y132.757 E7.58921
G1 X121.872 Y132.382 E7.62093
G1 X121.121 Y131.548 E7.67070
G1 X120.927 Y131.119 E7.69160
G1 X120.837 Y130.656 E7.71249
G1 X120.332 Y111.938 E8.54304
G1 X120.332 Y93.021 E9.38211
G1 X120.425 Y91.864 E9.43359
G1 X120.600 Y91.427 E9.45448
G1 X120.872 Y91.042 E9.47538
G1 X122.844 Y89.370 E9.59005
G1 X123.348 Y89.154 E9.61436
G1 X124.352 Y88.952 E9.65979
G1 X160.693 Y88.949 E11.27169
G1 X161.453 Y89.097 E11.30602
G1 X162.104 Y89.521 E11.34051
G1 X164.345 Y91.782 E11.48168
G1 X164.646 Y92.309 E11.50862
G1 X164.699 Y92.549 E11.51950
G1 X164.365 Y92.623 F6600.000
G1 F3600.000
G1 X164.434 Y92.935 E11.53367
G1 X164.282 Y112.423 E12.39808
G1 X163.775 Y130.860 E13.21618
G1 X163.641 Y131.384 E13.24015
G1 X163.347 Y131.841 E13.26426
G1 X162.809 Y132.240 E13.29398
G1 X162.158 Y132.398 E13.32370
G1 X144.840 Y132.554 E14.09186
G1 X123.195 Y132.554 E15.05189
G1 X122.606 Y132.436 E15.07853
G1 X122.096 Y132.120 E15.10517
G1 X121.424 Y131.383 E15.14939
G1 X121.181 Y130.623 E15.18480
G1 X120.677 Y111.926 E16.01440
G1 X120.677 Y93.035 E16.85229
G1 X120.752 Y91.976 E16.89937
G1 X121.133 Y91.268 E16.93506
G1 X123.012 Y89.672 E17.04442
G1 X123.441 Y89.486 E17.06515
G1 X124.373 Y89.296 E17.10734
G1 X160.693 Y89.294 E18.71829
G1 X161.325 Y89.418 E18.74689
G1 X161.868 Y89.772 E18.77562
G1 X164.060 Y91.978 E18.91356
G1 X164.322 Y92.429 E18.93669
G1 X164.352 Y92.564 E18.94284
G1 X164.018 Y92.638 F6600.000
G1 F3600.000
G1 X164.090 Y92.965 E18.95771
G1 X163.936 Y112.432 E19.82120
G1 X163.436 Y130.768 E20.63477
G1 X163.336 Y131.222 E20.65538
G1 X163.087 Y131.614 E20.67599
G1 X162.655 Y131.930 E20.69973
G1 X162.135 Y132.053 E20.72346
G1 X144.837 Y132.209 E21.49073
G1 X123.207 Y132.209 E22.45010
G1 X122.732 Y132.115 E22.47159
G1 X122.324 Y131.860 E22.49295
G1 X121.728 Y131.220 E22.53174
G1 X121.524 Y130.591 E22.56105
G1 X121.022 Y111.917 E23.38962
G1 X121.022 Y93.051 E24.22644
G1 X121.080 Y92.086 E24.26930
G1 X121.392 Y91.495 E24.29898
G1 X123.184 Y89.971 E24.40332
G1 X123.538 Y89.817 E24.42041
G1 X124.393 Y89.640 E24.45916
G1 X160.692 Y89.639 E26.06919
G1 X161.198 Y89.738 E26.09205
G1 X161.631 Y90.023 E26.11503
G1 X163.779 Y92.179 E26.25004
G1 X164.005 Y92.579 E26.27040
G1 E22.27040 F2400.000
G92 E0
G1 Z0.750 F6600.000
G1 X159.192 Y111.225
G1 Z0.650
G1 E4.00000 F2400.000
;TYPE:Support material interface
;WIDTH:0.35
G1 F3600.000
G1 X159.192 Y93.954 E4.61526
G1 X157.907 Y93.954 E4.66106
G1 X157.907 Y111.096 E5.27175
G1 X156.621 Y111.096 E5.31755
G1 X156.621 Y93.954 E5.92823
G1 X155.335 Y93.954 E5.97403
G1 X155.335 Y111.096 E6.58472
G1 X154.050 Y111.096 E6.63052
G1 X154.050 Y93.954 E7.24120
G1 X152.764 Y93.954 E7.28700
G1 X152.764 Y111.096 E7.89768
