; generated by PrusaSlicer 2.3.1+win64 on 2021-07-21 at 23:29:20 UTC

; 

; external perimeters extrusion width = 0.45mm
; perimeters extrusion width = 0.45mm
; infill extrusion width = 0.45mm
; solid infill extrusion width = 0.45mm
; top infill extrusion width = 0.40mm
; support material extrusion width = 0.35mm
; first layer extrusion width = 0.42mm

M107
M190 S80 ; set bed temperature and wait for it to be reached
M104 S230 ; set temperature
;TYPE:Custom
G28 ; home all axes
G1 Z5 F5000 ; lift nozzle
M109 S230 ; set temperature and wait for it to be reached
G21 ; set units to millimeters
G90 ; use absolute coordinates
M82 ; use absolute distances for extrusion
G92 E0
; Filament gcode
;LAYER_CHANGE
;Z:0.35
;HEIGHT:0.35
G1 Z0.350 F6600.000
G1 E-4.00000 F2400.000
G92 E0
G1 Z0.450 F6600.000
G1 X102.666 Y68.911
G1 Z0.350
G1 E4.00000 F2400.000
;TYPE:Skirt
;WIDTH:0.42
G1 X104.519 Y67.012 E4.13316
G1 X105.101 Y66.646 E4.16766
G1 X105.775 Y66.496 E4.20233
G1 X142.943 Y65.096 E6.06898
G1 X160.722 Y64.940 E6.96123
G1 X187.588 Y65.109 E8.30957
G1 X188.177 Y65.270 E8.34023
G1 X188.692 Y65.599 E8.37088
G1 X191.213 Y68.114 E8.54960
G1 X191.542 Y68.570 E8.57781
G1 X191.718 Y69.029 E8.60251
G1 X191.779 Y69.518 E8.62720
G1 X191.602 Y92.858 E9.79859
G1 X185.722 Y110.248 E10.71986
G1 X185.493 Y110.703 E10.74544
G1 X185.158 Y111.088 E10.77101
G1 X184.576 Y111.452 E10.80551
G1 X183.905 Y111.602 E10.84001
G1 X146.676 Y113.002 E12.70970
G1 X124.518 Y113.158 E13.82176
G1 X110.358 Y113.001 E14.53239
G1 X109.838 Y112.916 E14.55885
G1 X109.355 Y112.697 E14.58548
G1 X108.331 Y111.745 E14.65564
G1 X107.925 Y111.050 E14.69605
G1 X102.288 Y94.252 E15.58524
G1 X102.192 Y93.784 E15.60924
G1 X102.192 Y70.442 E16.78068
G1 X102.406 Y69.452 E16.83150
G1 X102.640 Y68.965 E16.85862
G1 X102.949 Y69.115 F6600.000
G1 F2400.000
G1 X104.753 Y67.265 E16.98829
G1 X105.236 Y66.964 E17.01685
G1 X105.794 Y66.840 E17.04556
G1 X142.960 Y65.441 E18.91205
G1 X160.723 Y65.284 E19.80355
G1 X187.541 Y65.450 E21.14944
G1 X188.041 Y65.587 E21.17545
G1 X188.473 Y65.866 E21.20130
G1 X190.960 Y68.349 E21.37763
G1 X191.236 Y68.729 E21.40125
G1 X191.384 Y69.112 E21.42183
G1 X191.434 Y69.522 E21.44257
G1 X191.260 Y92.808 E22.61121
G1 X185.398 Y110.129 E23.52892
G1 X185.206 Y110.512 E23.55046
G1 X184.926 Y110.833 E23.57184
G1 X184.443 Y111.134 E23.60039
G1 X183.884 Y111.257 E23.62910
G1 X146.675 Y112.658 E25.49782
G1 X124.516 Y112.813 E26.60987
G1 X110.376 Y112.657 E27.31957
G1 X109.927 Y112.582 E27.34239
G1 X109.515 Y112.391 E27.36521
G1 X108.584 Y111.511 E27.42948
G1 X108.249 Y110.934 E27.46295
G1 X102.536 Y93.757 E28.37143
G1 X102.535 Y70.477 E29.53978
G1 X102.735 Y69.558 E29.58695
G1 X102.923 Y69.169 E29.60866
G1 X103.231 Y69.319 F6600.000
G1 F2400.000
G1 X103.251 Y69.278 E29.61098
G1 X104.987 Y67.518 E29.73503
G1 X105.370 Y67.281 E29.75764
G1 X105.813 Y67.184 E29.78039
G1 X142.975 Y65.785 E31.64671
G1 X160.721 Y65.629 E32.53734
G1 X187.496 Y65.792 E33.88111
G1 X187.901 Y65.902 E33.90216
G1 X188.253 Y66.131 E33.92321
G1 X190.710 Y68.586 E34.09752
G1 X190.932 Y68.891 E34.11643
G1 X191.089 Y69.524 E34.14918
G1 X190.919 Y92.757 E35.31517
G1 X185.073 Y110.013 E36.22956
G1 X184.692 Y110.580 E36.26384
G1 X184.305 Y110.817 E36.28659
G1 X183.865 Y110.913 E36.30920
G1 X146.672 Y112.313 E38.17707
G1 X124.518 Y112.468 E39.28893
G1 X110.389 Y112.312 E39.99807
G1 X110.017 Y112.249 E40.01699
G1 X109.680 Y112.087 E40.03576
G1 X108.840 Y111.279 E40.09426
G1 X108.576 Y110.823 E40.12069
G1 X102.879 Y93.729 E41.02496
G1 X102.879 Y70.509 E42.19026
G1 X103.064 Y69.662 E42.23377
G1 X103.205 Y69.373 E42.24992
G1 E38.24992
G92 E0
G1 Z0.450 F6600.000
G1 X143.518 Y94.368
G1 Z0.350
G1 E4.00000 F2400.000
;TYPE:Support material
G1 X141.364 Y92.214 E4.15290
G1 X141.364 Y91.517 E4.18787
G1 X144.060 Y94.213 E4.37921
G1 X144.756 Y94.213 E4.41417
G1 X141.364 Y90.820 E4.65497
G1 X141.364 Y90.123 E4.68993
G1 X145.453 Y94.213 E4.98018
G1 X146.150 Y94.213 E5.01515
G1 X141.364 Y89.426 E5.35484
G1 X141.364 Y88.730 E5.38981
G1 X162.204 Y109.570 E6.86889
G1 X162.900 Y109.570 E6.90386
G1 X141.364 Y88.033 E8.43240
G1 X141.364 Y87.336 E8.46736
G1 X163.597 Y109.570 E10.04535
G1 X164.294 Y109.570 E10.08032
G1 X141.364 Y86.639 E11.70776
G1 X141.364 Y85.943 E11.74273
G1 X164.991 Y109.570 E13.41962
G1 X165.687 Y109.570 E13.45459
G1 X141.364 Y85.246 E15.18094
G1 X141.364 Y84.549 E15.21591
G1 X166.384 Y109.570 E16.99171
G1 X167.081 Y109.570 E17.02667
G1 X141.364 Y83.852 E18.85193
G1 X141.364 Y83.155 E18.88689
G1 X167.778 Y109.570 E20.76160
G1 X168.475 Y109.570 E20.79657
G1 X141.364 Y82.459 E22.72073
G1 X141.364 Y81.762 E22.75570
G1 X169.171 Y109.570 E24.72931
G1 X169.868 Y109.570 E24.76428
G1 X141.364 Y81.065 E26.78734
G1 X141.364 Y80.368 E26.82231
G1 X170.565 Y109.570 E28.89483
G1 X171.262 Y109.570 E28.92980
G1 X141.364 Y79.671 E31.05177
G1 X141.364 Y78.975 E31.08674
G1 X171.958 Y109.570 E33.25816
G1 X172.655 Y109.570 E33.29313
G1 X141.364 Y78.278 E35.51401
G1 X141.364 Y77.581 E35.54898
G1 X173.352 Y109.570 E37.81931
G1 X174.049 Y109.570 E37.85427
G1 X141.364 Y76.884 E40.17406
G1 X141.364 Y76.188 E40.20903
G1 X174.746 Y109.570 E42.57826
G1 X175.442 Y109.570 E42.61323
G1 X141.364 Y75.491 E45.03192
G1 X141.364 Y74.794 E45.06689
G1 X176.139 Y109.570 E47.53503
G1 X176.836 Y109.570 E47.57000
G1 X141.364 Y74.097 E50.08760
G1 X141.364 Y73.400 E50.12257
G1 X177.533 Y109.570 E52.68962
G1 X178.229 Y109.570 E52.72458
G1 X141.364 Y72.704 E55.34109
G1 X141.364 Y72.007 E55.37605
G1 X178.926 Y109.570 E58.04201
G1 X179.623 Y109.570 E58.07698
G1 X141.364 Y71.310 E60.79239
G1 X141.364 Y70.613 E60.82736
G1 X180.320 Y109.570 E63.59222
G1 X181.017 Y109.570 E63.62719
G1 X141.364 Y69.916 E66.44150
G1 X141.364 Y69.220 E66.47647
G1 X181.713 Y109.570 E69.34024
G1 X182.410 Y109.570 E69.37520
G1 X141.495 Y68.654 E72.27910
G1 X141.844 Y68.306 E72.30382
G1 X183.107 Y109.570 E75.23244
G1 X183.804 Y109.570 E75.26741
G1 X142.192 Y67.958 E78.22076
G1 X142.540 Y67.609 E78.24548
G1 X183.804 Y108.873 E81.17411
G1 X183.804 Y108.176 E81.20907
G1 X142.889 Y67.261 E84.11297
G1 X143.020 Y67.129 E84.12229
G1 X143.454 Y67.129 E84.14408
G1 X183.804 Y107.479 E87.00784
G1 X183.804 Y106.782 E87.04281
G1 X144.151 Y67.129 E89.85713
G1 X144.848 Y67.129 E89.89210
G1 X183.804 Y106.086 E92.65695
G1 X183.804 Y105.389 E92.69192
G1 X145.544 Y67.129 E95.40733
G1 X146.241 Y67.129 E95.44230
G1 X183.959 Y104.847 E98.11927
G1 E94.11927
G92 E0
G1 Z0.450 F6600.000
G1 X161.662 Y109.725
G1 Z0.350
G1 E4.00000 F2400.000
G1 X147.149 Y95.212 E5.03002
G1 X147.149 Y95.909 E5.06499
G1 X160.810 Y109.570 E6.03453
G1 X160.113 Y109.570 E6.06950
G1 X147.149 Y96.606 E6.98960
G1 X147.149 Y97.302 E7.02457
G1 X159.416 Y109.570 E7.89521
G1 X158.720 Y109.570 E7.93018
G1 X147.149 Y97.999 E8.75137
G1 X147.149 Y98.696 E8.78634
G1 X158.023 Y109.570 E9.55807
G1 X157.326 Y109.570 E9.59304
G1 X147.149 Y99.393 E10.31533
G1 X147.149 Y100.090 E10.35030
G1 X156.629 Y109.570 E11.02313
G1 X155.932 Y109.570 E11.05809
G1 X147.149 Y100.786 E11.68147
G1 X147.149 Y101.483 E11.71644
G1 X155.236 Y109.570 E12.29036
G1 X154.539 Y109.570 E12.32533
G1 X147.149 Y102.180 E12.84980
G1 X147.149 Y102.877 E12.88477
G1 X153.842 Y109.570 E13.35979
G1 X153.145 Y109.570 E13.39476
G1 X147.149 Y103.573 E13.82032
G1 X147.149 Y104.270 E13.85529
G1 X152.449 Y109.570 E14.23141
G1 X151.752 Y109.570 E14.26637
G1 X147.149 Y104.967 E14.59303
G1 X147.149 Y105.664 E14.62800
G1 X151.055 Y109.570 E14.90521
G1 X150.358 Y109.570 E14.94018
G1 X147.149 Y106.361 E15.16793
G1 X147.149 Y107.057 E15.20290
G1 X149.661 Y109.570 E15.38120
G1 X148.965 Y109.570 E15.41617
G1 X147.149 Y107.754 E15.54501
G1 X147.149 Y108.451 E15.57998
G1 X148.268 Y109.570 E15.65937
G1 X147.571 Y109.570 E15.69434
G1 X146.994 Y108.992 E15.73530
G1 E11.73530
G92 E0
G1 Z0.450 F6600.000
G1 X160.718 Y66.974
G1 Z0.350
G1 E4.00000 F2400.000
G1 X163.161 Y69.417 E4.17338
G1 X163.161 Y70.114 E4.20835
G1 X160.177 Y67.129 E4.42016
G1 X159.480 Y67.129 E4.45513
G1 X163.161 Y70.811 E4.71640
G1 X163.161 Y71.507 E4.75137
G1 X158.783 Y67.129 E5.06209
G1 X158.086 Y67.129 E5.09706
G1 X163.161 Y72.204 E5.45724
G1 X163.161 Y72.901 E5.49221
G1 X157.390 Y67.129 E5.90184
G1 X156.693 Y67.129 E5.93680
G1 X163.161 Y73.598 E6.39589
G1 X163.161 Y74.295 E6.43086
G1 X155.996 Y67.129 E6.93939
G1 X155.299 Y67.129 E6.97436
G1 X163.161 Y74.991 E7.53235
G1 X163.161 Y75.688 E7.56732
G1 X154.603 Y67.129 E8.17476
G1 X153.906 Y67.129 E8.20973
G1 X163.161 Y76.385 E8.86662
G1 X163.161 Y77.082 E8.90159
G1 X153.209 Y67.129 E9.60794
G1 X152.512 Y67.129 E9.64291
G1 X163.161 Y77.779 E10.39871
G1 X163.161 Y78.475 E10.43367
G1 X151.815 Y67.129 E11.23893
G1 X151.119 Y67.129 E11.27390
G1 X163.161 Y79.172 E12.12860
G1 X163.161 Y79.869 E12.16357
G1 X150.422 Y67.129 E13.06773
G1 X149.725 Y67.129 E13.10270
G1 X163.161 Y80.566 E14.05631
G1 X163.161 Y81.262 E14.09128
G1 X149.028 Y67.129 E15.09435
G1 X148.332 Y67.129 E15.12932
G1 X163.161 Y81.959 E16.18184
G1 X163.161 Y82.656 E16.21681
G1 X147.635 Y67.129 E17.31878
G1 X146.938 Y67.129 E17.35375
G1 X183.804 Y103.995 E19.97025
G1 X183.804 Y103.299 E20.00522
G1 X163.992 Y83.486 E21.41136
G1 X164.688 Y83.486 E21.44633
G1 X183.804 Y102.602 E22.80302
G1 X183.804 Y101.905 E22.83799
G1 X165.385 Y83.486 E24.14523
G1 X166.082 Y83.486 E24.18020
G1 X183.804 Y101.208 E25.43799
G1 X183.804 Y100.511 E25.47296
G1 X166.779 Y83.486 E26.68129
G1 X167.475 Y83.486 E26.71626
G1 X183.804 Y99.815 E27.87514
G1 X183.804 Y99.118 E27.91011
G1 X167.792 Y83.106 E29.04654
G1 X167.792 Y82.409 E29.08151
G1 X183.804 Y98.421 E30.21794
G1 X183.804 Y97.724 E30.25291
G1 X167.792 Y81.712 E31.38934
G1 X167.792 Y81.015 E31.42431
G1 X183.804 Y97.028 E32.56074
G1 X183.804 Y96.331 E32.59571
G1 X167.792 Y80.319 E33.73214
G1 X167.792 Y79.622 E33.76711
G1 X183.804 Y95.634 E34.90354
G1 X183.804 Y94.937 E34.93851
G1 X167.792 Y78.925 E36.07494
G1 X167.792 Y78.228 E36.10991
G1 X183.804 Y94.240 E37.24634
G1 X183.804 Y94.213 E37.24773
G1 X184.473 Y94.213 E37.28131
G1 X167.792 Y77.532 E38.46522
G1 X167.792 Y76.835 E38.50019
G1 X185.170 Y94.213 E39.73356
G1 X185.866 Y94.213 E39.76853
G1 X167.792 Y76.138 E41.05135
G1 X167.792 Y75.441 E41.08632
G1 X186.563 Y94.213 E42.41860
G1 X187.260 Y94.213 E42.45357
G1 X167.792 Y74.744 E43.83530
G1 X167.792 Y74.048 E43.87027
G1 X187.945 Y94.201 E45.30061
G1 X188.293 Y93.852 E45.32533
G1 X167.792 Y73.351 E46.78040
G1 X167.792 Y72.654 E46.81537
G1 X188.642 Y93.504 E48.29516
G1 X188.990 Y93.156 E48.31989
G1 X167.792 Y71.957 E49.82441
G1 X167.792 Y71.261 E49.85938
G1 X189.338 Y92.807 E51.38863
G1 X189.589 Y92.556 E51.40644
G1 X189.589 Y92.361 E51.41622
G1 X167.792 Y70.564 E52.96328
G1 X167.792 Y69.867 E52.99824
G1 X189.589 Y91.665 E54.54530
G1 X189.589 Y90.968 E54.58027
G1 X167.792 Y69.170 E56.12733
G1 X167.792 Y68.786 E56.14662
G1 X167.948 Y68.630 E56.15770
G1 X189.589 Y90.271 E57.69367
G1 X189.589 Y89.574 E57.72864
G1 X168.296 Y68.281 E59.23989
G1 X168.645 Y67.933 E59.26461
G1 X189.589 Y88.877 E60.75113
G1 X189.589 Y88.181 E60.78610
G1 X168.993 Y67.584 E62.24789
G1 X169.342 Y67.236 E62.27261
G1 X189.589 Y87.484 E63.70968
G1 X189.589 Y86.787 E63.74465
G1 X169.932 Y67.129 E65.13982
G1 X170.629 Y67.129 E65.17479
G1 X189.589 Y86.090 E66.52051
G1 X189.589 Y85.394 E66.55548
G1 X171.325 Y67.129 E67.85175
G1 X172.022 Y67.129 E67.88671
G1 X189.589 Y84.697 E69.13353
G1 X189.589 Y84.000 E69.16850
G1 X172.719 Y67.129 E70.36586
G1 X173.416 Y67.129 E70.40083
G1 X189.589 Y83.303 E71.54874
G1 X189.589 Y82.606 E71.58370
G1 X174.112 Y67.129 E72.68216
G1 X174.809 Y67.129 E72.71713
G1 X189.589 Y81.910 E73.76613
G1 X189.589 Y81.213 E73.80110
G1 X175.506 Y67.129 E74.80065
G1 X176.203 Y67.129 E74.83562
G1 X189.589 Y80.516 E75.78571
G1 X189.589 Y79.819 E75.82068
G1 X176.900 Y67.129 E76.72132
G1 X177.596 Y67.129 E76.75629
G1 X189.589 Y79.123 E77.60748
G1 X189.589 Y78.426 E77.64245
G1 X178.293 Y67.129 E78.44419
G1 X178.990 Y67.129 E78.47916
G1 X189.589 Y77.729 E79.23144
G1 X189.589 Y77.032 E79.26641
G1 X179.687 Y67.129 E79.96924
G1 X180.383 Y67.129 E80.00421
G1 X189.589 Y76.335 E80.65759
G1 X189.589 Y75.639 E80.69255
G1 X181.080 Y67.129 E81.29648
G1 X181.777 Y67.129 E81.33145
G1 X189.589 Y74.942 E81.88592
G1 X189.589 Y74.245 E81.92089
G1 X182.474 Y67.129 E82.42590
G1 X183.171 Y67.129 E82.46087
G1 X189.589 Y73.548 E82.91644
G1 X189.589 Y72.851 E82.95141
G1 X183.867 Y67.129 E83.35752
G1 X184.564 Y67.129 E83.39249
G1 X189.589 Y72.155 E83.74915
G1 X189.589 Y71.458 E83.78412
G1 X185.261 Y67.129 E84.09132
G1 X185.958 Y67.129 E84.12629
G1 X189.589 Y70.761 E84.38404
G1 X189.589 Y70.064 E84.41901
G1 X186.654 Y67.129 E84.62731
G1 X187.351 Y67.129 E84.66228
G1 X189.745 Y69.523 E84.83214
G1 E80.83214
G92 E0
G1 Z0.450 F6600.000
G1 X152.600 Y70.921
G1 Z0.350
G1 E4.00000 F2400.000
G1 X150.207 Y68.528 E4.16986
G1 X149.510 Y68.528 E4.20483
G1 X152.445 Y71.463 E4.41313
G1 X152.445 Y72.159 E4.44810
G1 X148.813 Y68.528 E4.70585
G1 X148.116 Y68.528 E4.74082
G1 X152.445 Y72.856 E5.04803
G1 X152.445 Y73.553 E5.08299
G1 X147.420 Y68.528 E5.43965
G1 X146.723 Y68.528 E5.47462
G1 X152.445 Y74.250 E5.88073
G1 X152.445 Y74.947 E5.91570
G1 X146.026 Y68.528 E6.37127
G1 X145.329 Y68.528 E6.40624
G1 X152.445 Y75.643 E6.91125
G1 X152.445 Y76.340 E6.94622
G1 X144.632 Y68.528 E7.50069
G1 X143.936 Y68.528 E7.53566
G1 X152.445 Y77.037 E8.13959
G1 X152.445 Y77.734 E8.17455
G1 X143.239 Y68.528 E8.82793
G1 X142.542 Y68.528 E8.86290
G1 X152.445 Y78.430 E9.56573
G1 X152.445 Y79.127 E9.60070
G1 X141.845 Y68.528 E10.35298
G1 X141.149 Y68.528 E10.38795
G1 X152.445 Y79.824 E11.18969
G1 X152.445 Y80.521 E11.22466
G1 X140.452 Y68.528 E12.07585
G1 X139.755 Y68.528 E12.11082
G1 X152.445 Y81.218 E13.01146
G1 X152.445 Y81.914 E13.04643
G1 X139.058 Y68.528 E13.99652
G1 X138.361 Y68.528 E14.03149
G1 X152.445 Y82.611 E15.03104
G1 X152.445 Y83.308 E15.06601
G1 X137.665 Y68.528 E16.11501
G1 X136.968 Y68.528 E16.14998
G1 X152.445 Y84.005 E17.24844
G1 X152.445 Y84.702 E17.28340
G1 X136.271 Y68.528 E18.43131
G1 X135.574 Y68.528 E18.46628
G1 X152.445 Y85.398 E19.66364
G1 X152.445 Y86.095 E19.69861
G1 X134.878 Y68.528 E20.94543
G1 X134.181 Y68.528 E20.98039
G1 X152.445 Y86.792 E22.27666
G1 X152.445 Y87.489 E22.31163
G1 X133.484 Y68.528 E23.65735
G1 X132.787 Y68.528 E23.69232
G1 X152.445 Y88.185 E25.08749
G1 X152.445 Y88.882 E25.12246
G1 X132.197 Y68.634 E26.55953
G1 X131.849 Y68.983 E26.58425
G1 X152.445 Y89.579 E28.04604
G1 X152.445 Y90.276 E28.08101
G1 X131.500 Y69.331 E29.56753
G1 X131.152 Y69.680 E29.59225
G1 X152.445 Y90.973 E31.10350
G1 X152.445 Y91.669 E31.13847
G1 X130.803 Y70.028 E32.67444
G1 X130.647 Y70.184 E32.68552
G1 X130.647 Y70.568 E32.70481
G1 X152.445 Y92.366 E34.25187
G1 X152.445 Y93.063 E34.28684
G1 X130.647 Y71.265 E35.83390
G1 X130.647 Y71.962 E35.86886
G1 X152.445 Y93.760 E37.41592
G1 X152.445 Y93.955 E37.42570
G1 X152.194 Y94.206 E37.44351
G1 X130.647 Y72.659 E38.97276
G1 X130.647 Y73.356 E39.00773
G1 X151.845 Y94.554 E40.51225
G1 X151.497 Y94.902 E40.53698
G1 X130.647 Y74.052 E42.01677
G1 X130.647 Y74.749 E42.05174
G1 X151.149 Y95.251 E43.50681
G1 X150.800 Y95.599 E43.53153
G1 X130.647 Y75.446 E44.96187
G1 X130.647 Y76.143 E44.99684
G1 X150.115 Y95.611 E46.37857
G1 X149.419 Y95.611 E46.41354
G1 X130.647 Y76.840 E47.74582
G1 X130.647 Y77.536 E47.78079
G1 X148.722 Y95.611 E49.06361
G1 X148.025 Y95.611 E49.09858
G1 X130.647 Y78.233 E50.33195
G1 X130.647 Y78.930 E50.36692
G1 X147.328 Y95.611 E51.55083
G1 X146.659 Y95.611 E51.58441
G1 X146.659 Y95.639 E51.58580
G1 X130.647 Y79.627 E52.72223
G1 X130.647 Y80.323 E52.75720
G1 X146.659 Y96.335 E53.89363
G1 X146.659 Y97.032 E53.92860
G1 X130.647 Y81.020 E55.06503
G1 X130.647 Y81.717 E55.10000
G1 X146.659 Y97.729 E56.23643
G1 X146.659 Y98.426 E56.27140
G1 X130.647 Y82.414 E57.40783
G1 X130.647 Y83.111 E57.44280
G1 X146.659 Y99.123 E58.57923
G1 X146.659 Y99.819 E58.61420
G1 X130.647 Y83.807 E59.75063
G1 X130.647 Y84.504 E59.78560
G1 X146.659 Y100.516 E60.92203
G1 X146.659 Y101.213 E60.95700
G1 X130.331 Y84.885 E62.11588
G1 X129.634 Y84.885 E62.15085
G1 X146.659 Y101.910 E63.35918
G1 X146.659 Y102.607 E63.39415
