; generated by PrusaSlicer 2.3.1+win64 on 2021-07-20 at 19:28:07 UTC

; 

; external perimeters extrusion width = 0.45mm
; perimeters extrusion width = 0.45mm
; infill extrusion width = 0.45mm
; solid infill extrusion width = 0.45mm
; top infill extrusion width = 0.40mm
; support material extrusion width = 0.35mm
; first layer extrusion width = 0.42mm

M107
M190 S80 ; set bed temperature and wait for it to be reached
M104 S230 ; set temperature
;TYPE:Custom
G28 ; home all axes
G1 Z5 F5000 ; lift nozzle
M109 S230 ; set temperature and wait for it to be reached
G21 ; set units to millimeters
G90 ; use absolute coordinates
M82 ; use absolute distances for extrusion
G92 E0
; Filament gcode
;LAYER_CHANGE
;Z:0.35
;HEIGHT:0.35
G1 Z0.350 F6600.000
G1 E-4.00000 F2400.000
G92 E0
G1 Z0.450 F6600.000
G1 X134.288 Y66.312
G1 Z0.350
G1 E4.00000 F2400.000
;TYPE:Skirt
;WIDTH:0.42
G1 X134.550 Y65.916 E4.02382
G1 X134.894 Y65.594 E4.04747
G1 X153.284 Y56.338 E5.08072
G1 X153.710 Y56.182 E5.10349
G1 X154.188 Y56.123 E5.12766
G1 X173.721 Y56.123 E6.10792
G1 X174.471 Y56.268 E6.14625
G1 X175.115 Y56.679 E6.18457
G1 X177.353 Y58.932 E6.34396
G1 X177.647 Y59.419 E6.37251
G1 X177.795 Y59.968 E6.40107
G1 X177.651 Y88.063 E7.81106
G1 X177.458 Y88.806 E7.84956
G1 X173.027 Y97.807 E8.35306
G1 X172.718 Y98.221 E8.37899
G1 X170.890 Y100.018 E8.50762
G1 X170.341 Y100.308 E8.53880
G1 X169.729 Y100.418 E8.56998
G1 X154.872 Y100.574 E9.31564
G1 X154.125 Y100.432 E9.35379
G1 X153.673 Y100.183 E9.37972
G1 X135.266 Y86.658 E10.52600
G1 X134.105 Y85.496 E10.60846
G1 X133.812 Y84.936 E10.64017
G1 X133.705 Y84.310 E10.67205
G1 X133.861 Y67.637 E11.50883
G1 X133.957 Y67.094 E11.53651
G1 X134.265 Y66.367 E11.57611
G1 X134.581 Y66.502 F6600.000
G1 F2400.000
G1 X135.107 Y65.865 E11.61753
G1 X153.794 Y56.516 E12.66618
G1 X173.721 Y56.468 E13.66623
G1 X174.347 Y56.590 E13.69827
G1 X174.882 Y56.934 E13.73016
G1 X177.074 Y59.135 E13.88607
G1 X177.330 Y59.553 E13.91065
G1 X177.454 Y60.026 E13.93522
G1 X177.306 Y88.051 E15.34168
G1 X177.144 Y88.662 E15.37340
G1 X172.725 Y97.640 E15.87560
G1 X172.468 Y97.984 E15.89714
G1 X170.676 Y99.748 E16.02335
G1 X170.219 Y99.985 E16.04920
G1 X169.714 Y100.073 E16.07489
G1 X154.877 Y100.229 E16.81957
G1 X154.247 Y100.109 E16.85176
G1 X153.874 Y99.902 E16.87314
G1 X135.472 Y86.381 E18.01918
G1 X134.375 Y85.281 E18.09710
G1 X134.136 Y84.818 E18.12327
G1 X134.050 Y84.301 E18.14960
G1 X134.206 Y67.652 E18.98515
G1 X134.289 Y67.189 E19.00876
G1 X134.558 Y66.557 E19.04323
G1 X134.874 Y66.692 F6600.000
G1 F2400.000
G1 X134.902 Y66.627 E19.04680
G1 X135.315 Y66.140 E19.07885
G1 X153.875 Y56.851 E20.12041
G1 X173.720 Y56.813 E21.11637
G1 X174.221 Y56.911 E21.14196
G1 X174.651 Y57.190 E21.16768
G1 X176.798 Y59.343 E21.32030
G1 X177.012 Y59.687 E21.34064
G1 X177.113 Y60.077 E21.36084
G1 X176.961 Y88.034 E22.76392
G1 X176.832 Y88.516 E22.78894
G1 X172.425 Y97.471 E23.28984
G1 X170.466 Y99.474 E23.43046
G1 X170.103 Y99.660 E23.45094
G1 X169.703 Y99.728 E23.47128
G1 X154.877 Y99.884 E24.21536
G1 X154.371 Y99.787 E24.24122
G1 X135.677 Y86.104 E25.40388
G1 X134.649 Y85.071 E25.47699
G1 X134.461 Y84.703 E25.49776
G1 X134.394 Y84.291 E25.51867
G1 X134.550 Y67.669 E26.35291
G1 X134.620 Y67.287 E26.37239
G1 X134.851 Y66.747 E26.40185
G1 E22.40185
G92 E0
G1 Z0.450 F6600.000
G1 X135.739 Y84.284
G1 Z0.350
G1 E4.00000 F2400.000
;TYPE:Support material
G1 X136.482 Y85.027 E4.05275
G1 X137.179 Y85.027 E4.08771
G1 X135.894 Y83.742 E4.17890
G1 X135.894 Y83.045 E4.21387
G1 X137.876 Y85.027 E4.35450
G1 X138.573 Y85.027 E4.38947
G1 X135.894 Y82.349 E4.57956
G1 X135.894 Y81.652 E4.61453
G1 X139.270 Y85.027 E4.85408
G1 X139.966 Y85.027 E4.88904
G1 X135.894 Y80.955 E5.17804
G1 X135.894 Y80.258 E5.21301
G1 X140.663 Y85.027 E5.55146
G1 X141.360 Y85.027 E5.58643
G1 X135.894 Y79.561 E5.97433
G1 X135.894 Y78.865 E6.00930
G1 X142.057 Y85.027 E6.44665
G1 X142.753 Y85.027 E6.48162
G1 X135.894 Y78.168 E6.96843
G1 X135.894 Y77.471 E7.00340
G1 X143.450 Y85.027 E7.53966
G1 X144.147 Y85.027 E7.57463
G1 X135.894 Y76.774 E8.16035
G1 X135.894 Y76.078 E8.19532
G1 X144.844 Y85.027 E8.83048
G1 X145.541 Y85.027 E8.86545
G1 X135.894 Y75.381 E9.55007
G1 X135.894 Y74.684 E9.58504
G1 X146.237 Y85.027 E10.31912
G1 X146.934 Y85.027 E10.35408
G1 X135.894 Y73.987 E11.13761
G1 X135.894 Y73.290 E11.17258
G1 X147.631 Y85.027 E12.00556
G1 X148.328 Y85.027 E12.04053
G1 X135.894 Y72.594 E12.92296
G1 X135.894 Y71.897 E12.95793
G1 X149.025 Y85.027 E13.88982
G1 X149.721 Y85.027 E13.92479
G1 X135.894 Y71.200 E14.90613
G1 X135.894 Y70.503 E14.94110
G1 X150.418 Y85.027 E15.97189
G1 X151.115 Y85.027 E16.00686
G1 X135.894 Y69.807 E17.08710
G1 X135.894 Y69.110 E17.12207
G1 X151.967 Y85.182 E18.26279
G1 E14.26279
G92 E0
G1 Z0.450 F6600.000
G1 X154.872 Y98.539
G1 Z0.350
G1 E4.00000 F2400.000
G1 X152.537 Y96.204 E4.16572
G1 X152.537 Y95.507 E4.20069
G1 X155.413 Y98.384 E4.40484
G1 X156.110 Y98.384 E4.43981
G1 X152.537 Y94.810 E4.69342
G1 X152.537 Y94.114 E4.72839
G1 X156.807 Y98.384 E5.03145
G1 X157.504 Y98.384 E5.06642
G1 X152.537 Y93.417 E5.41894
G1 X152.537 Y92.720 E5.45391
G1 X158.201 Y98.384 E5.85588
G1 X158.897 Y98.384 E5.89084
G1 X152.537 Y92.023 E6.34227
G1 X152.537 Y91.327 E6.37724
G1 X159.594 Y98.384 E6.87811
G1 X160.291 Y98.384 E6.91308
G1 X152.537 Y90.630 E7.46341
G1 X152.537 Y89.933 E7.49838
G1 X160.988 Y98.384 E8.09816
G1 X161.685 Y98.384 E8.13313
G1 X152.537 Y89.236 E8.78236
G1 X152.537 Y88.539 E8.81733
G1 X162.381 Y98.384 E9.51602
G1 X163.078 Y98.384 E9.55099
G1 X152.537 Y87.843 E10.29913
G1 X152.537 Y87.146 E10.33410
G1 X163.775 Y98.384 E11.13169
G1 X164.472 Y98.384 E11.16666
G1 X152.537 Y86.449 E12.01370
G1 X152.537 Y85.752 E12.04867
G1 X165.168 Y98.384 E12.94517
G1 X165.865 Y98.384 E12.98014
G1 X135.894 Y68.413 E15.10728
G1 X135.894 Y67.716 E15.14224
G1 X166.562 Y98.384 E17.31883
G1 X167.259 Y98.384 E17.35380
G1 X136.104 Y67.229 E19.56494
G1 X136.801 Y67.229 E19.59991
G1 X167.956 Y98.384 E21.81105
G1 X168.652 Y98.384 E21.84602
G1 X137.498 Y67.229 E24.05716
G1 X138.195 Y67.229 E24.09213
G1 X169.349 Y98.384 E26.30327
G1 X169.678 Y98.384 E26.31979
G1 X169.862 Y98.200 E26.33283
G1 X138.892 Y67.229 E28.53093
G1 X139.588 Y67.229 E28.56590
G1 X170.210 Y97.852 E30.73926
G1 X170.559 Y97.503 E30.76399
G1 X140.285 Y67.229 E32.91263
G1 X140.982 Y67.229 E32.94760
G1 X170.907 Y97.155 E35.07151
G1 X171.256 Y96.806 E35.09624
G1 X141.679 Y67.229 E37.19543
G1 X142.375 Y67.229 E37.23040
G1 X171.335 Y96.189 E39.28574
G1 X171.335 Y95.492 E39.32071
G1 X143.072 Y67.229 E41.32659
G1 X143.769 Y67.229 E41.36156
G1 X171.335 Y94.795 E43.31799
G1 X171.335 Y94.098 E43.35296
G1 X144.466 Y67.229 E45.25994
G1 X145.163 Y67.229 E45.29491
G1 X171.335 Y93.401 E47.15244
G1 X171.335 Y92.705 E47.18741
G1 X145.859 Y67.229 E48.99548
G1 X146.556 Y67.229 E49.03045
G1 X171.335 Y92.008 E50.78907
G1 X171.335 Y91.311 E50.82404
G1 X147.253 Y67.229 E52.53321
G1 X147.950 Y67.229 E52.56817
G1 X171.335 Y90.614 E54.22789
G1 X171.335 Y89.918 E54.26286
G1 X148.646 Y67.229 E55.87312
G1 X149.343 Y67.229 E55.90809
G1 X171.926 Y89.813 E57.51090
G1 X172.623 Y89.813 E57.54587
G1 X150.040 Y67.229 E59.14868
G1 X150.737 Y67.229 E59.18365
G1 X173.320 Y89.813 E60.78646
G1 X173.964 Y89.813 E60.81877
G1 X173.990 Y89.786 E60.82065
G1 X151.434 Y67.229 E62.42158
G1 X152.130 Y67.229 E62.45655
G1 X174.339 Y89.438 E64.03276
G1 X174.687 Y89.089 E64.05748
G1 X152.537 Y66.939 E65.62956
G1 X152.537 Y66.242 E65.66453
G1 X175.035 Y88.741 E67.26133
G1 X175.384 Y88.393 E67.28606
G1 X152.537 Y65.546 E68.90758
G1 X152.537 Y64.849 E68.94255
G1 X175.620 Y87.932 E70.58085
G1 X175.620 Y87.235 E70.61582
G1 X152.537 Y64.152 E72.25412
G1 X152.537 Y63.455 E72.28909
G1 X175.620 Y86.539 E73.92739
G1 X175.620 Y85.842 E73.96236
G1 X152.537 Y62.758 E75.60067
G1 X152.537 Y62.062 E75.63563
G1 X175.620 Y85.145 E77.27394
G1 X175.620 Y84.448 E77.30891
G1 X152.537 Y61.365 E78.94721
G1 X152.537 Y60.668 E78.98218
G1 X175.620 Y83.751 E80.62048
G1 X175.620 Y83.055 E80.65545
G1 X152.537 Y59.971 E82.29375
G1 X152.537 Y59.814 E82.30162
G1 X152.807 Y59.544 E82.32078
G1 X175.620 Y82.358 E83.93992
G1 X175.620 Y81.661 E83.97489
G1 X153.155 Y59.196 E85.56931
G1 X153.504 Y58.848 E85.59404
G1 X175.620 Y80.964 E87.16373
G1 X175.620 Y80.268 E87.19870
G1 X153.852 Y58.499 E88.74366
G1 X154.208 Y58.158 E88.76839
G1 X175.620 Y79.571 E90.28812
G1 X175.620 Y78.874 E90.32309
G1 X154.904 Y58.158 E91.79336
G1 X155.601 Y58.158 E91.82833
G1 X175.620 Y78.177 E93.24915
G1 X175.620 Y77.480 E93.28412
G1 X156.298 Y58.158 E94.65549
G1 X156.995 Y58.158 E94.69046
G1 X175.620 Y76.784 E96.01238
G1 X175.620 Y76.087 E96.04734
G1 X157.692 Y58.158 E97.31981
G1 X158.388 Y58.158 E97.35478
G1 X175.620 Y75.390 E98.57779
G1 X175.620 Y74.693 E98.61275
G1 X159.085 Y58.158 E99.78631
G1 X159.782 Y58.158 E99.82128
G1 X175.620 Y73.996 E100.94538
G1 X175.620 Y73.300 E100.98035
G1 X160.479 Y58.158 E102.05500
G1 X161.175 Y58.158 E102.08997
G1 X175.620 Y72.603 E103.11517
G1 X175.620 Y71.906 E103.15014
G1 X161.872 Y58.158 E104.12588
G1 X162.569 Y58.158 E104.16085
G1 X175.620 Y71.209 E105.08714
G1 X175.620 Y70.513 E105.12211
G1 X163.266 Y58.158 E105.99895
G1 X163.963 Y58.158 E106.03392
G1 X175.620 Y69.816 E106.86130
G1 X175.620 Y69.119 E106.89627
G1 X164.659 Y58.158 E107.67420
G1 X165.356 Y58.158 E107.70917
G1 X175.620 Y68.422 E108.43765
G1 X175.620 Y67.725 E108.47262
G1 X166.053 Y58.158 E109.15164
G1 X166.750 Y58.158 E109.18661
G1 X175.620 Y67.029 E109.81619
G1 X175.620 Y66.332 E109.85115
G1 X167.446 Y58.158 E110.43127
G1 X168.143 Y58.158 E110.46624
G1 X175.620 Y65.635 E110.99691
G1 X175.620 Y64.938 E111.03188
G1 X168.840 Y58.158 E111.51309
G1 X169.537 Y58.158 E111.54806
G1 X175.620 Y64.241 E111.97982
G1 X175.620 Y63.545 E112.01479
G1 X170.234 Y58.158 E112.39710
G1 X170.930 Y58.158 E112.43206
G1 X175.620 Y62.848 E112.76492
G1 X175.620 Y62.151 E112.79989
G1 X171.627 Y58.158 E113.08329
G1 X172.324 Y58.158 E113.11826
G1 X175.620 Y61.454 E113.35220
G1 X175.620 Y60.758 E113.38717
G1 X173.021 Y58.158 E113.57167
G1 X173.718 Y58.158 E113.60664
G1 X175.775 Y60.216 E113.75269
;LAYER_CHANGE
;Z:0.65
;HEIGHT:0.3
G1 Z0.650 F6600.000
M104 S200 ; set temperature
M140 S60 ; set bed temperature
G1 E109.75269 F2400.000
G92 E0
G1 Z0.750 F6600.000
G1 X177.721 Y59.694
G1 Z0.650
G1 E4.00000 F2400.000
;TYPE:Skirt
G1 F3600.000
G1 X177.795 Y59.968 E4.01262
G1 X177.651 Y88.063 E5.25878
G1 X177.458 Y88.806 E5.29281
G1 X173.027 Y97.807 E5.73781
G1 X172.718 Y98.221 E5.76073
G1 X170.890 Y100.018 E5.87441
G1 X170.341 Y100.308 E5.90197
G1 X169.729 Y100.418 E5.92952
G1 X154.872 Y100.574 E6.58854
G1 X154.125 Y100.432 E6.62226
G1 X153.673 Y100.183 E6.64518
G1 X135.266 Y86.658 E7.65828
G1 X134.105 Y85.496 E7.73115
G1 X133.812 Y84.936 E7.75917
G1 X133.705 Y84.310 E7.78735
G1 X133.861 Y67.637 E8.52690
G1 X133.957 Y67.094 E8.55137
G1 X134.288 Y66.312 E8.58903
G1 X134.550 Y65.916 E8.61009
G1 X134.894 Y65.594 E8.63099
G1 X153.284 Y56.338 E9.54419
G1 X153.710 Y56.182 E9.56431
G1 X154.188 Y56.123 E9.58567
G1 X173.721 Y56.123 E10.45204
G1 X174.471 Y56.268 E10.48591
G1 X175.115 Y56.679 E10.51978
G1 X177.353 Y58.932 E10.66065
G1 X177.647 Y59.419 E10.68589
G1 X177.706 Y59.636 E10.69584
G1 X177.374 Y59.723 F6600.000
G1 F3600.000
G1 X177.454 Y60.026 E10.70975
G1 X177.306 Y88.051 E11.95279
G1 X177.144 Y88.662 E11.98083
G1 X172.725 Y97.640 E12.42468
G1 X172.468 Y97.984 E12.44372
G1 X170.676 Y99.748 E12.55526
G1 X170.219 Y99.985 E12.57811
G1 X169.714 Y100.073 E12.60081
G1 X154.877 Y100.229 E13.25897
G1 X154.247 Y100.109 E13.28742
G1 X153.874 Y99.902 E13.30632
G1 X135.472 Y86.381 E14.31919
G1 X134.375 Y85.281 E14.38807
G1 X134.136 Y84.818 E14.41119
G1 X134.050 Y84.301 E14.43446
G1 X134.206 Y67.652 E15.17293
G1 X134.289 Y67.189 E15.19380
G1 X134.595 Y66.470 E15.22846
G1 X135.107 Y65.865 E15.26360
G1 X153.794 Y56.516 E16.19041
G1 X173.721 Y56.468 E17.07426
G1 X174.347 Y56.590 E17.10258
G1 X174.882 Y56.934 E17.13076
G1 X177.074 Y59.135 E17.26856
G1 X177.330 Y59.553 E17.29028
G1 X177.359 Y59.665 E17.29542
G1 X177.028 Y59.751 F6600.000
G1 F3600.000
G1 X177.113 Y60.077 E17.31037
G1 X176.961 Y88.034 E18.55042
G1 X176.832 Y88.516 E18.57253
G1 X172.425 Y97.471 E19.01524
G1 X170.466 Y99.474 E19.13952
G1 X170.103 Y99.660 E19.15762
G1 X169.703 Y99.728 E19.17559
G1 X154.877 Y99.884 E19.83322
G1 X154.371 Y99.787 E19.85608
G1 X135.677 Y86.104 E20.88365
G1 X134.649 Y85.071 E20.94827
G1 X134.461 Y84.703 E20.96662
G1 X134.394 Y84.291 E20.98510
G1 X134.550 Y67.669 E21.72241
G1 X134.620 Y67.287 E21.73963
G1 X134.902 Y66.627 E21.77149
G1 X135.315 Y66.140 E21.79981
G1 X153.875 Y56.851 E22.72035
G1 X173.720 Y56.813 E23.60059
G1 X174.221 Y56.911 E23.62320
G1 X174.651 Y57.190 E23.64594
G1 X176.798 Y59.343 E23.78082
G1 X177.013 Y59.693 E23.79904
G1 E19.79904 F2400.000
G92 E0
G1 Z0.750 F6600.000
G1 X155.061 Y73.985
G1 Z0.650
G1 E4.00000 F2400.000
;TYPE:Support material
;WIDTH:0.35
G1 F3600.000
G1 X138.654 Y73.985 E4.58448
G1 X138.654 Y78.271 E4.73715
G1 X155.061 Y78.271 E5.32163
G1 X155.190 Y82.524 F6600.000
G1 F3600.000
G1 X155.190 Y69.732 E5.77735
G1 X138.397 Y69.732 E6.37557
G1 X138.397 Y82.524 E6.83129
G1 X155.190 Y82.524 E7.42951
G1 E3.42951 F2400.000
G92 E0
G1 Z0.750 F6600.000
G1 X155.507 Y95.542
G1 Z0.650
G1 E4.00000 F2400.000
;TYPE:Support material interface
G1 F3600.000
G1 X155.507 Y61.128 E5.22595
G1 X156.793 Y61.128 E5.27175
G1 X156.793 Y95.413 E6.49312
G1 X158.079 Y95.413 E6.53892
G1 X158.079 Y61.128 E7.76028
G1 X159.364 Y61.128 E7.80608
G1 X159.364 Y95.413 E9.02745
G1 X160.650 Y95.413 E9.07325
G1 X160.650 Y61.128 E10.29462
G1 X161.935 Y61.128 E10.34042
G1 X161.935 Y95.413 E11.56179
G1 X163.221 Y95.413 E11.60759
G1 X163.221 Y61.128 E12.82896
G1 X164.507 Y61.128 E12.87476
G1 X164.507 Y95.413 E14.09613
G1 X165.792 Y95.413 E14.14192
G1 X165.792 Y61.128 E15.36329
G1 X167.078 Y61.128 E15.40909
G1 X167.078 Y95.413 E16.63046
G1 X168.364 Y95.413 E16.67626
G1 X168.364 Y61.128 E17.89763
G1 X169.649 Y61.128 E17.94343
G1 X169.649 Y86.842 E18.85946
G1 X170.935 Y86.842 E18.90525
G1 X170.935 Y61.128 E19.82128
G1 X172.220 Y61.128 E19.86708
G1 X172.220 Y86.971 E20.78769
;LAYER_CHANGE
;Z:0.95
;HEIGHT:0.3
G1 Z0.950 F6600.000
G1 E16.78769 F2400.000
G92 E0
G1 Z1.050 F6600.000
G1 X158.607 Y82.524
G1 Z0.950
G1 E4.00000 F2400.000
;TYPE:Support material
G1 F1424
G1 X158.607 Y69.732 E4.45572
G1 X138.397 Y69.732 E5.17569
G1 X138.397 Y82.524 E5.63142
G1 X158.607 Y82.524 E6.35139
G1 X158.479 Y78.271 F6600.000
G1 F1424
G1 X138.654 Y78.271 E7.05763
G1 X138.654 Y73.985 E7.21030
G1 X158.479 Y73.985 E7.91653
;LAYER_CHANGE
;Z:1.25
;HEIGHT:0.3
G1 Z1.250 F6600.000
G1 F3600.000
G1 X138.654 Y73.985 E8.62277
G1 X138.654 Y78.271 E8.77544
G1 X158.479 Y78.271 E9.48168
G1 X158.607 Y82.524 F6600.000
G1 F3600.000
G1 X158.607 Y69.732 E9.93740
G1 X138.397 Y69.732 E10.65737
G1 X138.397 Y82.524 E11.11310
G1 X158.607 Y82.524 E11.83307
G1 E7.83307 F2400.000
G92 E0
G1 Z1.350 F6600.000
G1 X159.961 Y92.318
G1 Z1.250
G1 E4.00000 F2400.000
;TYPE:Overhang perimeter
;WIDTH:0.4
;HEIGHT:0.4
G1 F3600.000
G1 X159.961 Y64.224 E5.46774
G1 X170.054 Y64.224 E5.99506
G1 X170.054 Y73.109 E6.45924
G1 X163.331 Y92.318 E7.52249
G1 X160.021 Y92.318 E7.69544
G1 X159.597 Y92.682 F6600.000
G1 F3600.000
G1 X159.597 Y63.860 E9.20122
G1 X170.418 Y63.860 E9.76660
G1 X170.418 Y73.171 E10.25304
G1 X163.589 Y92.682 E11.33302
G1 X159.657 Y92.682 E11.53849
G1 X159.232 Y93.046 F6600.000
G1 F3600.000
G1 X159.232 Y63.496 E13.08233
G1 X170.782 Y63.496 E13.68576
G1 X170.782 Y73.233 E14.19445
G1 X163.848 Y93.046 E15.29116
G1 X159.292 Y93.046 E15.52916
G1 E11.52916 F2400.000
G92 E0
G1 Z1.350 F6600.000
G1 X169.941 Y65.254
G1 Z1.250
G1 E4.00000 F2400.000
;TYPE:Bridge infill
;WIDTH:0.403298
G1 F3600.000
G1 X169.226 Y64.540 E4.05364
G1 X168.585 Y64.540 E4.08769
G1 X169.738 Y65.693 E4.17427
G1 X169.738 Y66.334 E4.20831
G1 X167.944 Y64.540 E4.34304
G1 X167.303 Y64.540 E4.37709
G1 X169.738 Y66.975 E4.55997
G1 X169.738 Y67.616 E4.59401
G1 X166.662 Y64.540 E4.82504
G1 X166.021 Y64.540 E4.85909
G1 X169.738 Y68.257 E5.13826
G1 X169.738 Y68.898 E5.17231
G1 X165.380 Y64.540 E5.49964
