; generated by PrusaSlicer 2.3.1+win64 on 2021-07-20 at 17:14:54 UTC

; 

; external perimeters extrusion width = 0.45mm
; perimeters extrusion width = 0.45mm
; infill extrusion width = 0.45mm
; solid infill extrusion width = 0.45mm
; top infill extrusion width = 0.40mm
; support material extrusion width = 0.35mm
; first layer extrusion width = 0.42mm

M107
M190 S80 ; set bed temperature and wait for it to be reached
M104 S230 ; set temperature
;TYPE:Custom
G28 ; home all axes
G1 Z5 F5000 ; lift nozzle
M109 S230 ; set temperature and wait for it to be reached
G21 ; set units to millimeters
G90 ; use absolute coordinates
M82 ; use absolute distances for extrusion
G92 E0
; Filament gcode
;LAYER_CHANGE
;Z:0.35
;HEIGHT:0.35
G1 Z0.350 F6600.000
G1 E-4.00000 F2400.000
G92 E0
G1 Z0.450 F6600.000
G1 X97.813 Y65.487
G1 Z0.350
G1 E4.00000 F2400.000
;TYPE:Skirt
;WIDTH:0.42
G1 X99.703 Y63.651 E4.13225
G1 X100.250 Y63.394 E4.16256
G1 X101.278 Y63.181 E4.21526
G1 X137.633 Y63.178 E6.03977
G1 X173.065 Y66.103 E7.82398
G1 X173.597 Y66.259 E7.85183
G1 X174.071 Y66.554 E7.87986
G1 X176.401 Y68.887 E8.04532
G1 X176.737 Y69.479 E8.07947
G1 X176.860 Y70.144 E8.11344
G1 X176.704 Y89.577 E9.08872
G1 X176.201 Y107.971 E10.01217
G1 X175.981 Y108.770 E10.05379
G1 X175.457 Y109.418 E10.09558
G1 X174.862 Y109.755 E10.12990
G1 X174.193 Y109.877 E10.16405
G1 X135.059 Y109.875 E12.12803
G1 X99.793 Y106.961 E13.90393
G1 X99.337 Y106.857 E13.92740
G1 X98.916 Y106.652 E13.95087
G1 X98.076 Y105.864 E14.00868
G1 X97.749 Y105.299 E14.04143
G1 X97.619 Y104.663 E14.07401
G1 X97.272 Y86.654 E14.97800
G1 X97.273 Y66.816 E15.97358
G1 X97.422 Y66.102 E16.01017
G1 X97.781 Y65.538 E16.04374
G1 X98.068 Y65.721 F6600.000
G1 F2400.000
G1 X99.884 Y63.945 E16.17123
G1 X100.353 Y63.723 E16.19724
G1 X101.304 Y63.525 E16.24600
G1 X137.633 Y63.523 E18.06921
G1 X173.009 Y66.444 E19.85062
G1 X173.464 Y66.577 E19.87439
G1 X173.864 Y66.830 E19.89817
G1 X176.130 Y69.101 E20.05917
G1 X176.413 Y69.594 E20.08772
G1 X176.515 Y70.154 E20.11627
G1 X176.360 Y89.568 E21.09062
G1 X175.857 Y107.939 E22.01289
G1 X175.677 Y108.607 E22.04762
G1 X175.244 Y109.146 E22.08235
G1 X174.750 Y109.429 E22.11090
G1 X174.188 Y109.532 E22.13961
G1 X135.073 Y109.530 E24.10259
G1 X99.835 Y106.618 E25.87708
G1 X99.092 Y106.355 E25.91668
G1 X98.349 Y105.653 E25.96796
G1 X98.072 Y105.178 E25.99556
G1 X97.963 Y104.642 E26.02300
G1 X97.617 Y86.652 E26.92598
G1 X97.617 Y66.833 E27.92062
G1 X97.741 Y66.233 E27.95139
G1 X98.036 Y65.771 E27.97886
G1 X98.322 Y65.955 F6600.000
G1 F2400.000
G1 X100.065 Y64.239 E28.10163
G1 X100.454 Y64.053 E28.12325
G1 X101.325 Y63.869 E28.16794
G1 X137.633 Y63.867 E29.99006
G1 X172.958 Y66.785 E31.76893
G1 X173.328 Y66.894 E31.78827
G1 X173.652 Y67.103 E31.80761
G1 X175.859 Y69.314 E31.96444
G1 X176.088 Y69.712 E31.98747
G1 X176.170 Y70.164 E32.01051
G1 X176.015 Y89.557 E32.98381
G1 X175.513 Y107.909 E33.90518
G1 X175.373 Y108.443 E33.93287
G1 X175.031 Y108.876 E33.96057
G1 X174.633 Y109.105 E33.98360
G1 X174.181 Y109.187 E34.00664
G1 X135.090 Y109.186 E35.96846
G1 X99.876 Y106.276 E37.74173
G1 X99.267 Y106.058 E37.77419
G1 X98.618 Y105.437 E37.81929
G1 X98.395 Y105.055 E37.84148
G1 X98.308 Y104.625 E37.86352
G1 X97.962 Y86.651 E38.76572
G1 X97.962 Y66.846 E39.75966
G1 X98.061 Y66.363 E39.78439
G1 X98.290 Y66.005 E39.80569
G1 E35.80569
G92 E0
G1 Z0.450 F6600.000
G1 X118.260 Y67.442
G1 Z0.350
G1 E4.00000 F2400.000
;TYPE:Support material
G1 X116.030 Y65.212 E4.15827
G1 X115.333 Y65.212 E4.19324
G1 X118.104 Y67.984 E4.38995
G1 X118.104 Y68.681 E4.42492
G1 X114.636 Y65.212 E4.67108
G1 X113.939 Y65.212 E4.70605
G1 X118.104 Y69.377 E5.00166
G1 X118.104 Y70.074 E5.03663
G1 X113.243 Y65.212 E5.38170
G1 X112.546 Y65.212 E5.41667
G1 X118.104 Y70.771 E5.81119
G1 X118.104 Y71.468 E5.84616
G1 X111.849 Y65.212 E6.29013
G1 X111.152 Y65.212 E6.32510
G1 X118.104 Y72.165 E6.81853
G1 X118.104 Y72.861 E6.85350
G1 X110.455 Y65.212 E7.39638
G1 X109.759 Y65.212 E7.43135
G1 X118.104 Y73.558 E8.02368
G1 X118.104 Y74.255 E8.05865
G1 X109.062 Y65.212 E8.70044
G1 X108.365 Y65.212 E8.73540
G1 X118.104 Y74.952 E9.42664
G1 X118.104 Y75.648 E9.46161
G1 X107.668 Y65.212 E10.20231
G1 X106.971 Y65.212 E10.23727
G1 X118.104 Y76.345 E11.02742
G1 X118.104 Y77.042 E11.06239
G1 X106.275 Y65.212 E11.90199
G1 X105.578 Y65.212 E11.93696
G1 X118.260 Y77.894 E12.83702
G1 X118.780 Y78.414 F6600.000
G1 F2400.000
G1 X139.033 Y98.667 E14.27446
G1 X139.033 Y97.970 E14.30943
G1 X119.631 Y78.569 E15.68639
G1 X120.328 Y78.569 E15.72136
G1 X139.033 Y97.273 E17.04887
G1 X139.033 Y96.577 E17.08384
G1 X120.735 Y78.279 E18.38249
G1 X120.735 Y77.582 E18.41746
G1 X139.033 Y95.880 E19.71611
G1 X139.033 Y95.183 E19.75108
G1 X120.735 Y76.885 E21.04973
G1 X120.735 Y76.189 E21.08470
G1 X139.033 Y94.486 E22.38335
G1 X139.033 Y93.790 E22.41831
G1 X120.735 Y75.492 E23.71696
G1 X120.735 Y74.795 E23.75193
G1 X139.033 Y93.093 E25.05058
G1 X139.033 Y92.396 E25.08555
G1 X120.735 Y74.098 E26.38420
G1 X120.735 Y73.402 E26.41917
G1 X139.033 Y91.699 E27.71782
G1 X139.033 Y91.002 E27.75279
G1 X120.735 Y72.705 E29.05144
G1 X120.735 Y72.008 E29.08641
G1 X139.033 Y90.306 E30.38506
G1 X139.033 Y89.609 E30.42003
G1 X120.735 Y71.311 E31.71868
G1 X120.735 Y70.614 E31.75365
G1 X139.033 Y88.912 E33.05230
G1 X139.033 Y88.215 E33.08727
G1 X120.735 Y69.918 E34.38592
G1 X120.735 Y69.221 E34.42088
G1 X139.033 Y87.519 E35.71954
G1 X139.033 Y87.139 E35.73857
G1 X139.191 Y86.980 E35.74984
G1 X120.735 Y68.524 E37.05975
G1 X120.735 Y67.827 E37.09472
G1 X139.533 Y86.625 E38.42886
G1 X139.533 Y85.928 E38.46383
G1 X120.735 Y67.130 E39.79796
G1 X120.735 Y66.869 E39.81110
G1 X120.952 Y66.651 E39.82654
G1 X139.533 Y85.231 E41.14524
G1 X139.533 Y84.535 E41.18021
G1 X121.301 Y66.303 E42.47418
G1 X121.649 Y65.954 E42.49891
G1 X139.533 Y83.838 E43.76815
G1 X139.533 Y83.141 E43.80312
G1 X121.998 Y65.606 E45.04764
G1 X122.346 Y65.258 E45.07237
G1 X139.533 Y82.444 E46.29216
G1 X139.533 Y81.747 E46.32713
G1 X122.997 Y65.212 E47.50069
G1 X123.694 Y65.212 E47.53566
G1 X139.533 Y81.051 E48.65976
G1 X139.533 Y80.354 E48.69473
G1 X124.391 Y65.212 E49.76938
G1 X125.088 Y65.212 E49.80435
G1 X139.533 Y79.657 E50.82955
G1 X139.533 Y78.960 E50.86452
G1 X125.785 Y65.212 E51.84026
G1 X126.481 Y65.212 E51.87523
G1 X139.533 Y78.264 E52.80152
G1 X139.533 Y77.567 E52.83649
G1 X127.178 Y65.212 E53.71333
G1 X127.875 Y65.212 E53.74830
G1 X139.533 Y76.870 E54.57568
G1 X139.533 Y76.173 E54.61065
G1 X128.572 Y65.212 E55.38858
G1 X129.268 Y65.212 E55.42355
G1 X139.533 Y75.476 E56.15203
G1 X139.533 Y74.780 E56.18700
G1 X129.965 Y65.212 E56.86602
G1 X130.662 Y65.212 E56.90099
G1 X139.533 Y74.083 E57.53056
G1 X139.533 Y73.386 E57.56553
G1 X131.359 Y65.212 E58.14565
G1 X132.056 Y65.212 E58.18062
G1 X139.533 Y72.689 E58.71129
G1 X139.533 Y71.992 E58.74626
G1 X132.752 Y65.212 E59.22747
G1 X133.449 Y65.212 E59.26244
G1 X139.533 Y71.296 E59.69420
G1 X139.533 Y70.599 E59.72917
G1 X134.146 Y65.212 E60.11147
G1 X134.843 Y65.212 E60.14644
G1 X139.533 Y69.902 E60.47930
G1 X139.533 Y69.205 E60.51427
G1 X135.539 Y65.212 E60.79767
G1 X136.236 Y65.212 E60.83263
G1 X139.533 Y68.509 E61.06658
G1 X139.533 Y67.812 E61.10155
G1 X136.933 Y65.212 E61.28605
G1 X137.630 Y65.212 E61.32101
G1 X139.688 Y67.270 E61.46707
G1 E57.46707
G92 E0
G1 Z0.450 F6600.000
G1 X139.188 Y99.519
G1 Z0.350
G1 E4.00000 F2400.000
G1 X104.881 Y65.212 E6.43487
G1 X104.184 Y65.212 E6.46984
G1 X139.033 Y100.061 E8.94314
G1 X139.033 Y100.757 E8.97811
G1 X103.488 Y65.212 E11.50087
G1 X102.791 Y65.212 E11.53584
G1 X139.033 Y101.454 E14.10805
G1 X139.033 Y102.151 E14.14302
G1 X102.094 Y65.212 E16.76468
G1 X101.397 Y65.212 E16.79965
G1 X139.033 Y102.848 E19.47077
G1 X139.033 Y103.545 E19.50573
G1 X100.832 Y65.344 E22.21698
G1 X100.483 Y65.692 E22.24171
G1 X139.033 Y104.241 E24.97768
G1 X139.033 Y104.938 E25.01265
G1 X100.135 Y66.040 E27.77335
G1 X99.787 Y66.389 E27.79807
G1 X138.336 Y104.938 E30.53404
G1 X137.639 Y104.938 E30.56901
G1 X99.438 Y66.737 E33.28025
G1 X99.307 Y66.869 E33.28958
G1 X99.307 Y67.303 E33.31136
G1 X136.942 Y104.938 E35.98248
G1 X136.245 Y104.938 E36.01744
G1 X99.307 Y67.999 E38.63911
G1 X99.307 Y68.696 E38.67408
G1 X135.549 Y104.938 E41.24629
G1 X134.852 Y104.938 E41.28126
G1 X99.307 Y69.393 E43.80402
G1 X99.307 Y70.090 E43.83898
G1 X134.155 Y104.938 E46.31229
G1 X133.458 Y104.938 E46.34726
G1 X99.307 Y70.786 E48.77111
G1 X99.307 Y71.483 E48.80608
G1 X132.761 Y104.938 E51.18048
G1 X132.065 Y104.938 E51.21545
G1 X99.307 Y72.180 E53.54039
G1 X99.307 Y72.877 E53.57536
G1 X131.368 Y104.938 E55.85085
G1 X130.671 Y104.938 E55.88582
G1 X99.307 Y73.574 E58.11186
G1 X99.307 Y74.270 E58.14683
G1 X129.974 Y104.938 E60.32342
G1 X129.278 Y104.938 E60.35838
G1 X99.307 Y74.967 E62.48552
G1 X99.307 Y75.664 E62.52049
G1 X128.581 Y104.938 E64.59817
G1 X127.884 Y104.938 E64.63314
G1 X99.307 Y76.361 E66.66136
G1 X99.307 Y77.058 E66.69633
G1 X127.187 Y104.938 E68.67511
G1 X126.490 Y104.938 E68.71007
G1 X99.307 Y77.754 E70.63940
G1 X99.307 Y78.451 E70.67436
G1 X125.794 Y104.938 E72.55423
G1 X125.097 Y104.938 E72.58920
G1 X99.307 Y79.148 E74.41962
G1 X99.307 Y79.845 E74.45458
G1 X124.400 Y104.938 E76.23555
G1 X123.703 Y104.938 E76.27051
G1 X99.307 Y80.541 E78.00202
G1 X99.307 Y81.238 E78.03699
G1 X123.007 Y104.938 E79.71905
G1 X122.310 Y104.938 E79.75402
G1 X99.307 Y81.935 E81.38662
G1 X99.307 Y82.632 E81.42159
G1 X121.613 Y104.938 E83.00474
G1 X120.916 Y104.938 E83.03970
G1 X99.307 Y83.329 E84.57340
G1 X99.307 Y84.025 E84.60837
G1 X120.219 Y104.938 E86.09261
G1 X119.523 Y104.938 E86.12758
G1 X99.307 Y84.722 E87.56237
G1 X99.307 Y85.419 E87.59734
G1 X118.826 Y104.938 E88.98268
G1 X118.129 Y104.938 E89.01765
G1 X99.307 Y86.116 E90.35353
G1 X99.307 Y86.639 E90.37980
G1 X99.807 Y87.139 E90.41528
G1 X99.807 Y87.312 E90.42398
G1 X117.432 Y104.938 E91.67493
G1 X116.735 Y104.938 E91.70990
G1 X99.807 Y88.009 E92.91139
G1 X99.807 Y88.706 E92.94636
G1 X116.039 Y104.938 E94.09840
G1 X115.342 Y104.938 E94.13337
G1 X99.807 Y89.403 E95.23595
G1 X99.807 Y90.100 E95.27092
G1 X114.645 Y104.938 E96.32405
G1 X113.948 Y104.938 E96.35902
G1 X99.807 Y90.796 E97.36270
G1 X99.807 Y91.493 E97.39767
G1 X113.252 Y104.938 E98.35190
G1 X112.555 Y104.938 E98.38687
G1 X99.807 Y92.190 E99.29164
G1 X99.807 Y92.887 E99.32661
G1 X111.858 Y104.938 E100.18193
G1 X111.161 Y104.938 E100.21690
G1 X99.807 Y93.584 E101.02276
G1 X99.807 Y94.280 E101.05773
G1 X110.464 Y104.938 E101.81415
G1 X109.768 Y104.938 E101.84912
G1 X99.807 Y94.977 E102.55608
G1 X99.807 Y95.674 E102.59105
G1 X109.071 Y104.938 E103.24855
G1 X108.374 Y104.938 E103.28352
G1 X99.807 Y96.371 E103.89158
G1 X99.807 Y97.067 E103.92655
G1 X107.677 Y104.938 E104.48515
G1 X106.981 Y104.938 E104.52012
G1 X99.807 Y97.764 E105.02926
G1 X99.807 Y98.461 E105.06423
G1 X106.284 Y104.938 E105.52393
G1 X105.587 Y104.938 E105.55890
G1 X99.807 Y99.158 E105.96914
G1 X99.807 Y99.855 E106.00411
G1 X104.890 Y104.938 E106.36490
G1 X104.193 Y104.938 E106.39987
G1 X99.807 Y100.551 E106.71120
G1 X99.807 Y101.248 E106.74617
G1 X103.497 Y104.938 E107.00806
G1 X102.800 Y104.938 E107.04302
G1 X99.807 Y101.945 E107.25545
G1 X99.807 Y102.642 E107.29042
G1 X102.103 Y104.938 E107.45340
G1 X101.406 Y104.938 E107.48837
G1 X99.807 Y103.338 E107.60189
G1 X99.807 Y104.035 E107.63686
G1 X100.710 Y104.938 E107.70093
G1 X100.013 Y104.938 E107.73590
G1 X99.652 Y104.577 E107.76153
G1 E103.76153
G92 E0
G1 Z0.450 F6600.000
G1 X134.789 Y107.481
G1 Z0.350
G1 E4.00000 F2400.000
G1 X135.150 Y107.842 E4.02563
G1 X135.847 Y107.842 E4.06060
G1 X134.944 Y106.939 E4.12467
G1 X134.944 Y106.242 E4.15964
G1 X136.544 Y107.842 E4.27317
G1 X137.241 Y107.842 E4.30813
G1 X134.944 Y105.546 E4.47111
G1 X134.944 Y104.849 E4.50608
G1 X137.938 Y107.842 E4.71851
G1 X138.634 Y107.842 E4.75348
G1 X134.944 Y104.152 E5.01536
G1 X134.944 Y103.455 E5.05033
G1 X139.331 Y107.842 E5.36167
G1 X140.028 Y107.842 E5.39664
G1 X134.944 Y102.759 E5.75743
G1 X134.944 Y102.062 E5.79239
G1 X140.725 Y107.842 E6.20264
G1 X141.421 Y107.842 E6.23760
G1 X134.944 Y101.365 E6.69730
G1 X134.944 Y100.668 E6.73227
G1 X142.118 Y107.842 E7.24142
G1 X142.815 Y107.842 E7.27639
G1 X134.944 Y99.971 E7.83499
G1 X134.944 Y99.275 E7.86996
G1 X143.512 Y107.842 E8.47801
G1 X144.209 Y107.842 E8.51298
G1 X134.944 Y98.578 E9.17049
G1 X134.944 Y97.881 E9.20546
G1 X144.905 Y107.842 E9.91242
G1 X145.602 Y107.842 E9.94739
G1 X134.944 Y97.184 E10.70380
G1 X134.944 Y96.488 E10.73877
G1 X146.299 Y107.842 E11.54464
G1 X146.996 Y107.842 E11.57961
G1 X134.944 Y95.791 E12.43493
G1 X134.944 Y95.094 E12.46990
G1 X147.692 Y107.842 E13.37467
G1 X148.389 Y107.842 E13.40964
G1 X134.944 Y94.397 E14.36386
G1 X134.944 Y93.700 E14.39883
G1 X149.086 Y107.842 E15.40251
G1 X149.783 Y107.842 E15.43748
G1 X134.944 Y93.004 E16.49061
G1 X134.944 Y92.307 E16.52558
G1 X150.480 Y107.842 E17.62817
G1 X151.176 Y107.842 E17.66314
G1 X134.944 Y91.610 E18.81518
G1 X134.944 Y90.913 E18.85015
G1 X151.873 Y107.842 E20.05164
G1 X152.570 Y107.842 E20.08661
G1 X134.944 Y90.216 E21.33755
G1 X134.944 Y90.043 E21.34625
G1 X134.444 Y89.543 E21.38173
G1 X134.444 Y89.020 E21.40801
G1 X153.267 Y107.842 E22.74389
G1 X153.963 Y107.842 E22.77886
G1 X134.444 Y88.323 E24.16419
G1 X134.444 Y87.626 E24.19916
G1 X154.660 Y107.842 E25.63395
G1 X155.357 Y107.842 E25.66892
G1 X134.444 Y86.929 E27.15316
G1 X134.444 Y86.233 E27.18813
G1 X156.054 Y107.842 E28.72183
G1 X156.751 Y107.842 E28.75680
G1 X134.444 Y85.536 E30.33995
G1 X134.444 Y84.839 E30.37492
G1 X157.447 Y107.842 E32.00752
G1 X158.144 Y107.842 E32.04249
G1 X134.444 Y84.142 E33.72454
G1 X134.444 Y83.445 E33.75951
G1 X158.841 Y107.842 E35.49102
G1 X159.538 Y107.842 E35.52599
G1 X134.444 Y82.749 E37.30695
G1 X134.444 Y82.052 E37.34192
G1 X160.235 Y107.842 E39.17233
G1 X160.931 Y107.842 E39.20730
G1 X134.444 Y81.355 E41.08717
G1 X134.444 Y80.658 E41.12214
G1 X161.628 Y107.842 E43.05146
G1 X162.325 Y107.842 E43.08643
G1 X134.444 Y79.962 E45.06520
G1 X134.444 Y79.265 E45.10017
G1 X163.022 Y107.842 E47.12840
G1 X163.718 Y107.842 E47.16337
G1 X134.444 Y78.568 E49.24105
G1 X134.444 Y77.871 E49.27602
G1 X164.415 Y107.842 E51.40315
G1 X165.112 Y107.842 E51.43812
G1 X134.444 Y77.174 E53.61470
G1 X134.444 Y76.478 E53.64967
G1 X165.809 Y107.842 E55.87571
G1 X166.506 Y107.842 E55.91068
G1 X134.444 Y75.781 E58.18617
G1 X134.444 Y75.084 E58.22114
G1 X167.202 Y107.842 E60.54609
G1 X167.899 Y107.842 E60.58106
G1 X134.444 Y74.387 E62.95546
G1 X134.444 Y73.690 E62.99042
G1 X168.596 Y107.842 E65.41428
G1 X169.293 Y107.842 E65.44924
G1 X134.444 Y72.994 E67.92255
G1 X134.444 Y72.297 E67.95752
G1 X169.989 Y107.842 E70.48028
G1 X170.686 Y107.842 E70.51525
G1 X134.444 Y71.600 E73.08746
G1 X134.444 Y70.903 E73.12243
G1 X171.383 Y107.842 E75.74409
G1 X172.080 Y107.842 E75.77906
G1 X134.444 Y70.207 E78.45018
G1 X134.444 Y69.773 E78.47195
G1 X134.576 Y69.641 E78.48128
G1 X172.777 Y107.842 E81.19252
G1 X173.473 Y107.842 E81.22749
G1 X134.924 Y69.293 E83.96346
G1 X135.273 Y68.944 E83.98819
G1 X174.170 Y107.842 E86.74889
G1 X174.170 Y107.145 E86.78385
G1 X135.621 Y68.596 E89.51983
G1 X135.969 Y68.248 E89.54455
G1 X174.170 Y106.449 E92.25580
G1 X174.170 Y105.752 E92.29077
G1 X136.535 Y68.116 E94.96189
G1 X137.232 Y68.116 E94.99685
G1 X174.170 Y105.055 E97.61852
G1 X174.170 Y104.358 E97.65349
G1 X137.928 Y68.116 E100.22570
G1 X138.625 Y68.116 E100.26067
G1 X174.170 Y103.661 E102.78343
G1 X174.170 Y102.965 E102.81839
G1 X139.322 Y68.116 E105.29170
G1 X140.019 Y68.116 E105.32667
G1 X174.325 Y102.423 E107.76153
G1 E103.76153
G92 E0
G1 Z0.450 F6600.000
G1 X174.825 Y70.174
G1 Z0.350
G1 E4.00000 F2400.000
G1 X172.767 Y68.116 E4.14606
G1 X172.071 Y68.116 E4.18103
G1 X174.670 Y70.716 E4.36552
G1 X174.670 Y71.413 E4.40049
G1 X171.374 Y68.116 E4.63444
G1 X170.677 Y68.116 E4.66941
G1 X174.670 Y72.109 E4.95281
G1 X174.670 Y72.806 E4.98777
G1 X169.980 Y68.116 E5.32063
G1 X169.284 Y68.116 E5.35560
G1 X174.670 Y73.503 E5.73790
G1 X174.670 Y74.200 E5.77287
G1 X168.587 Y68.116 E6.20463
G1 X167.890 Y68.116 E6.23960
G1 X174.670 Y74.896 E6.72082
G1 X174.670 Y75.593 E6.75578
