; generated by PrusaSlicer 2.3.1+win64 on 2021-07-21 at 17:57:08 UTC

; 

; external perimeters extrusion width = 0.45mm
; perimeters extrusion width = 0.45mm
; infill extrusion width = 0.45mm
; solid infill extrusion width = 0.45mm
; top infill extrusion width = 0.40mm
; support material extrusion width = 0.35mm
; first layer extrusion width = 0.42mm

M107
M190 S80 ; set bed temperature and wait for it to be reached
M104 S230 ; set temperature
;TYPE:Custom
G28 ; home all axes
G1 Z5 F5000 ; lift nozzle
M109 S230 ; set temperature and wait for it to be reached
G21 ; set units to millimeters
G90 ; use absolute coordinates
M82 ; use absolute distances for extrusion
G92 E0
; Filament gcode
;LAYER_CHANGE
;Z:0.35
;HEIGHT:0.35
G1 Z0.350 F6600.000
G1 E-4.00000 F2400.000
G92 E0
G1 Z0.450 F6600.000
G1 X109.892 Y76.108
G1 Z0.350
G1 E4.00000 F2400.000
;TYPE:Skirt
;WIDTH:0.42
G1 X110.172 Y75.720 E4.02400
G1 X112.131 Y74.065 E4.15269
G1 X112.631 Y73.851 E4.18002
G1 X113.635 Y73.648 E4.23142
G1 X149.976 Y73.645 E6.05522
G1 X188.113 Y76.518 E7.97459
G1 X188.655 Y76.670 E8.00280
G1 X189.134 Y76.963 E8.03100
G1 X191.427 Y79.249 E8.19349
G1 X191.798 Y79.861 E8.22938
G1 X191.934 Y80.559 E8.26510
G1 X191.778 Y99.988 E9.24020
G1 X191.275 Y118.382 E10.16365
G1 X191.072 Y119.154 E10.20371
G1 X190.588 Y119.789 E10.24377
G1 X189.976 Y120.159 E10.27966
G1 X189.277 Y120.295 E10.31538
G1 X171.987 Y120.450 E11.18312
G1 X150.298 Y120.449 E12.27160
G1 X112.312 Y117.586 E14.18337
G1 X111.862 Y117.489 E14.20649
G1 X111.442 Y117.292 E14.22978
G1 X110.622 Y116.543 E14.28550
G1 X110.264 Y115.964 E14.31965
G1 X110.118 Y115.304 E14.35362
G1 X109.615 Y96.606 E15.29230
G1 X109.616 Y77.717 E16.24026
G1 X109.711 Y76.550 E16.29903
G1 X109.870 Y76.163 E16.32001
G1 X110.187 Y76.290 F6600.000
G1 F2400.000
G1 X110.429 Y75.950 E16.34095
G1 X112.298 Y74.367 E16.46389
G1 X112.725 Y74.183 E16.48719
G1 X113.656 Y73.992 E16.53492
G1 X149.976 Y73.990 E18.35765
G1 X188.064 Y76.860 E20.27455
G1 X188.523 Y76.989 E20.29849
G1 X188.931 Y77.243 E20.32258
G1 X191.164 Y79.473 E20.48098
G1 X191.475 Y79.983 E20.51096
G1 X191.589 Y80.569 E20.54094
G1 X191.433 Y99.980 E21.51512
G1 X190.931 Y118.354 E22.43756
G1 X190.765 Y118.996 E22.47087
G1 X190.365 Y119.525 E22.50417
G1 X189.854 Y119.836 E22.53415
G1 X189.268 Y119.950 E22.56413
G1 X171.985 Y120.105 E23.43152
G1 X150.312 Y120.104 E24.51921
G1 X112.349 Y117.243 E26.42983
G1 X111.611 Y116.991 E26.46896
G1 X110.887 Y116.322 E26.51843
G1 X110.585 Y115.836 E26.54714
G1 X110.462 Y115.278 E26.57585
G1 X109.960 Y96.603 E27.51339
G1 X109.961 Y77.732 E28.46047
G1 X110.037 Y76.667 E28.51405
G1 X110.165 Y76.345 E28.53141
G1 X110.500 Y76.526 F6600.000
G1 F2400.000
G1 X110.686 Y76.181 E28.55107
G1 X112.470 Y74.666 E28.66856
G1 X112.822 Y74.514 E28.68776
G1 X113.677 Y74.337 E28.73159
G1 X149.976 Y74.335 E30.55329
G1 X188.016 Y77.201 E32.46781
G1 X188.390 Y77.307 E32.48730
G1 X188.720 Y77.517 E32.50692
G1 X190.901 Y79.696 E32.66165
G1 X191.153 Y80.106 E32.68582
G1 X191.244 Y80.579 E32.70999
G1 X191.089 Y99.973 E33.68329
G1 X190.587 Y118.328 E34.60480
G1 X190.458 Y118.838 E34.63123
G1 X190.141 Y119.262 E34.65780
G1 X189.734 Y119.513 E34.68183
G1 X189.261 Y119.605 E34.70599
G1 X171.986 Y119.761 E35.57299
G1 X150.325 Y119.760 E36.66006
G1 X112.387 Y116.900 E38.56942
G1 X111.779 Y116.689 E38.60174
G1 X111.148 Y116.097 E38.64517
G1 X110.904 Y115.707 E38.66820
G1 X110.806 Y115.259 E38.69124
G1 X110.305 Y96.599 E39.62802
G1 X110.305 Y77.744 E40.57428
G1 X110.365 Y76.777 E40.62292
G1 X110.472 Y76.578 E40.63424
G1 E36.63424
G92 E0
G1 Z0.450 F6600.000
G1 X149.540 Y79.950
G1 Z0.350
G1 E4.00000 F2400.000
;TYPE:Support material
G1 X174.994 Y105.404 E5.80654
G1 X174.297 Y105.404 E5.84150
G1 X149.518 Y80.625 E7.60013
G1 X149.518 Y81.322 E7.63510
G1 X173.600 Y105.404 E9.34426
G1 X172.903 Y105.404 E9.37923
G1 X149.518 Y82.019 E11.03895
G1 X149.518 Y82.715 E11.07392
G1 X172.206 Y105.404 E12.68418
G1 X171.510 Y105.404 E12.71915
G1 X149.518 Y83.412 E14.27996
G1 X149.518 Y84.109 E14.31493
G1 X170.813 Y105.404 E15.82628
G1 X170.116 Y105.404 E15.86125
G1 X149.518 Y84.806 E17.32315
G1 X149.518 Y85.503 E17.35812
G1 X169.419 Y105.404 E18.77057
G1 X168.723 Y105.404 E18.80554
G1 X149.518 Y86.199 E20.16854
G1 X149.518 Y86.896 E20.20351
G1 X168.026 Y105.404 E21.51705
G1 X167.329 Y105.404 E21.55202
G1 X149.518 Y87.593 E22.81611
G1 X149.518 Y88.290 E22.85108
G1 X166.632 Y105.404 E24.06572
G1 X165.935 Y105.404 E24.10069
G1 X149.518 Y88.986 E25.26587
G1 X149.518 Y89.683 E25.30084
G1 X165.239 Y105.404 E26.41657
G1 X164.542 Y105.404 E26.45154
G1 X149.518 Y90.380 E27.51782
G1 X149.518 Y91.077 E27.55279
G1 X163.845 Y105.404 E28.56961
G1 X163.530 Y105.404 E28.58541
G1 X163.530 Y105.786 E28.60458
G1 X149.518 Y91.774 E29.59906
G1 X149.518 Y92.470 E29.63403
G1 X163.530 Y106.482 E30.62852
G1 X163.530 Y107.179 E30.66348
G1 X149.518 Y93.167 E31.65797
G1 X149.518 Y93.864 E31.69294
G1 X163.530 Y107.876 E32.68742
G1 X163.530 Y108.573 E32.72239
G1 X149.518 Y94.561 E33.71687
G1 X149.518 Y95.258 E33.75184
G1 X172.521 Y118.261 E35.38444
G1 X173.218 Y118.261 E35.41941
G1 X163.992 Y109.034 E36.07424
G1 X164.688 Y109.034 E36.10921
G1 X173.915 Y118.261 E36.76404
G1 X174.612 Y118.261 E36.79901
G1 X165.385 Y109.034 E37.45384
G1 X166.082 Y109.034 E37.48881
G1 X175.308 Y118.261 E38.14364
G1 X176.005 Y118.261 E38.17860
G1 X166.779 Y109.034 E38.83343
G1 X167.476 Y109.034 E38.86840
G1 X176.702 Y118.261 E39.52323
G1 X177.399 Y118.261 E39.55820
G1 X168.172 Y109.034 E40.21303
G1 X168.869 Y109.034 E40.24800
G1 X178.095 Y118.261 E40.90283
G1 X178.792 Y118.261 E40.93780
G1 X169.566 Y109.034 E41.59263
G1 X170.263 Y109.034 E41.62759
G1 X179.489 Y118.261 E42.28242
G1 X180.186 Y118.261 E42.31739
G1 X170.959 Y109.034 E42.97222
G1 X171.656 Y109.034 E43.00719
G1 X180.883 Y118.261 E43.66202
G1 X181.579 Y118.261 E43.69699
G1 X172.353 Y109.034 E44.35182
G1 X173.050 Y109.034 E44.38679
G1 X182.276 Y118.261 E45.04162
G1 X182.973 Y118.261 E45.07658
G1 X173.747 Y109.034 E45.73141
G1 X174.443 Y109.034 E45.76638
G1 X183.670 Y118.261 E46.42121
G1 X184.366 Y118.261 E46.45618
G1 X175.140 Y109.034 E47.11101
G1 X175.732 Y109.034 E47.14071
G1 X175.732 Y108.929 E47.14598
G1 X185.063 Y118.261 E47.80825
G1 X185.760 Y118.261 E47.84322
G1 X175.732 Y108.232 E48.55495
G1 X175.732 Y107.536 E48.58992
G1 X186.457 Y118.261 E49.35110
G1 X187.154 Y118.261 E49.38607
G1 X175.732 Y106.839 E50.19670
G1 X175.732 Y106.142 E50.23167
G1 X187.850 Y118.261 E51.09176
G1 X188.547 Y118.261 E51.12672
G1 X149.998 Y79.711 E53.86269
G1 X150.347 Y79.363 E53.88742
G1 X189.244 Y118.261 E56.64812
G1 X189.244 Y117.564 E56.68308
G1 X150.695 Y79.015 E59.41906
G1 X151.043 Y78.666 E59.44378
G1 X189.244 Y116.867 E62.15503
G1 X189.244 Y116.170 E62.19000
G1 X151.609 Y78.535 E64.86112
G1 X152.306 Y78.535 E64.89608
G1 X189.244 Y115.473 E67.51775
G1 X189.244 Y114.777 E67.55272
G1 X153.002 Y78.535 E70.12493
G1 X153.699 Y78.535 E70.15990
G1 X189.244 Y114.080 E72.68266
G1 X189.244 Y113.383 E72.71762
G1 X154.396 Y78.535 E75.19093
G1 X155.093 Y78.535 E75.22590
G1 X189.399 Y112.842 E77.66076
G1 E73.66076
G92 E0
G1 Z0.450 F6600.000
G1 X171.980 Y118.416
G1 Z0.350
G1 E4.00000 F2400.000
G1 X149.518 Y95.954 E5.59416
G1 X149.518 Y96.651 E5.62913
G1 X171.128 Y118.261 E7.16283
G1 X170.431 Y118.261 E7.19780
G1 X149.518 Y97.348 E8.68204
G1 X149.518 Y98.045 E8.71701
G1 X169.734 Y118.261 E10.15180
G1 X169.037 Y118.261 E10.18677
G1 X149.518 Y98.741 E11.57211
G1 X149.518 Y99.438 E11.60707
G1 X168.341 Y118.261 E12.94296
G1 X167.644 Y118.261 E12.97793
G1 X150.018 Y100.635 E14.22887
G1 X150.018 Y101.332 E14.26384
G1 X166.947 Y118.261 E15.46533
G1 X166.250 Y118.261 E15.50030
G1 X150.018 Y102.029 E16.65234
G1 X150.018 Y102.725 E16.68731
G1 X165.553 Y118.261 E17.78989
G1 X164.857 Y118.261 E17.82486
G1 X150.018 Y103.422 E18.87800
G1 X150.018 Y104.119 E18.91296
G1 X164.160 Y118.261 E19.91664
G1 X163.463 Y118.261 E19.95161
G1 X150.018 Y104.816 E20.90584
G1 X150.018 Y105.512 E20.94081
G1 X162.766 Y118.261 E21.84558
G1 X162.070 Y118.261 E21.88055
G1 X150.018 Y106.209 E22.73587
G1 X150.018 Y106.906 E22.77084
G1 X161.373 Y118.261 E23.57671
G1 X160.676 Y118.261 E23.61168
G1 X150.018 Y107.603 E24.36809
G1 X150.018 Y108.300 E24.40306
G1 X159.979 Y118.261 E25.11002
G1 X159.282 Y118.261 E25.14499
G1 X150.018 Y108.996 E25.80250
G1 X150.018 Y109.693 E25.83747
G1 X158.586 Y118.261 E26.44552
G1 X157.889 Y118.261 E26.48049
G1 X150.018 Y110.390 E27.03909
G1 X150.018 Y111.087 E27.07406
G1 X157.192 Y118.261 E27.58321
G1 X156.495 Y118.261 E27.61818
G1 X150.018 Y111.784 E28.07787
G1 X150.018 Y112.480 E28.11284
G1 X155.799 Y118.261 E28.52308
G1 X155.102 Y118.261 E28.55805
G1 X150.018 Y113.177 E28.91884
G1 X150.018 Y113.874 E28.95381
G1 X154.405 Y118.261 E29.26515
G1 X153.708 Y118.261 E29.30012
G1 X150.018 Y114.571 E29.56200
G1 X150.018 Y115.267 E29.59697
G1 X153.011 Y118.261 E29.80940
G1 X152.315 Y118.261 E29.84437
G1 X150.018 Y115.964 E30.00734
G1 X150.018 Y116.661 E30.04231
G1 X151.618 Y118.261 E30.15584
G1 X150.921 Y118.261 E30.19080
G1 X150.018 Y117.358 E30.25488
G1 X150.018 Y118.055 E30.28984
G1 X150.379 Y118.416 E30.31548
G1 E26.31548
G92 E0
G1 Z0.450 F6600.000
G1 X168.471 Y80.765
G1 Z0.350
G1 E4.00000 F2400.000
G1 X166.241 Y78.535 E4.15827
G1 X165.544 Y78.535 E4.19324
G1 X168.316 Y81.306 E4.38995
G1 X168.316 Y82.003 E4.42492
G1 X164.848 Y78.535 E4.67108
G1 X164.151 Y78.535 E4.70605
G1 X168.316 Y82.700 E5.00166
G1 X168.316 Y83.397 E5.03663
G1 X163.454 Y78.535 E5.38170
G1 X162.757 Y78.535 E5.41667
G1 X168.316 Y84.094 E5.81119
G1 X168.316 Y84.790 E5.84616
G1 X162.060 Y78.535 E6.29013
G1 X161.364 Y78.535 E6.32510
G1 X168.316 Y85.487 E6.81853
G1 X168.316 Y86.184 E6.85350
G1 X160.667 Y78.535 E7.39638
G1 X159.970 Y78.535 E7.43135
G1 X168.316 Y86.881 E8.02368
G1 X168.316 Y87.577 E8.05865
G1 X159.273 Y78.535 E8.70044
G1 X158.577 Y78.535 E8.73540
G1 X168.316 Y88.274 E9.42664
G1 X168.316 Y88.971 E9.46161
G1 X157.880 Y78.535 E10.20231
G1 X157.183 Y78.535 E10.23727
G1 X168.316 Y89.668 E11.02742
G1 X168.316 Y90.365 E11.06239
G1 X156.486 Y78.535 E11.90199
G1 X155.789 Y78.535 E11.93696
G1 X168.471 Y91.217 E12.83702
G1 X168.991 Y91.736 F6600.000
G1 F2400.000
G1 X189.244 Y111.990 E14.27446
G1 X189.244 Y111.293 E14.30943
G1 X169.843 Y91.892 E15.68639
G1 X170.540 Y91.892 E15.72136
G1 X189.244 Y110.596 E17.04887
G1 X189.244 Y109.899 E17.08384
G1 X170.946 Y91.602 E18.38249
G1 X170.946 Y90.905 E18.41746
G1 X189.244 Y109.202 E19.71611
G1 X189.244 Y108.506 E19.75108
G1 X170.946 Y90.208 E21.04973
G1 X170.946 Y89.511 E21.08470
G1 X189.244 Y107.809 E22.38335
G1 X189.244 Y107.112 E22.41831
G1 X170.946 Y88.814 E23.71696
G1 X170.946 Y88.118 E23.75193
G1 X189.244 Y106.415 E25.05058
G1 X189.244 Y105.718 E25.08555
G1 X170.946 Y87.421 E26.38420
G1 X170.946 Y86.724 E26.41917
G1 X189.244 Y105.022 E27.71782
G1 X189.244 Y104.325 E27.75279
G1 X170.946 Y86.027 E29.05144
G1 X170.946 Y85.330 E29.08641
G1 X189.244 Y103.628 E30.38506
G1 X189.244 Y102.931 E30.42003
G1 X170.946 Y84.634 E31.71868
G1 X170.946 Y83.937 E31.75365
G1 X189.244 Y102.235 E33.05230
G1 X189.244 Y101.538 E33.08727
G1 X170.946 Y83.240 E34.38592
G1 X170.946 Y82.543 E34.42088
G1 X189.244 Y100.841 E35.71954
G1 X189.244 Y100.462 E35.73857
G1 X189.403 Y100.303 E35.74984
G1 X170.946 Y81.847 E37.05975
G1 X170.946 Y81.150 E37.09472
G1 X189.744 Y99.947 E38.42886
G1 X189.744 Y99.251 E38.46383
G1 X170.946 Y80.453 E39.79796
G1 X170.946 Y80.191 E39.81110
G1 X171.164 Y79.974 E39.82654
G1 X189.744 Y98.554 E41.14524
G1 X189.744 Y97.857 E41.18021
G1 X171.512 Y79.625 E42.47418
G1 X171.861 Y79.277 E42.49891
G1 X189.744 Y97.160 E43.76815
G1 X189.744 Y96.464 E43.80312
G1 X172.209 Y78.929 E45.04764
G1 X172.557 Y78.580 E45.07237
G1 X189.744 Y95.767 E46.29216
G1 X189.744 Y95.070 E46.32713
G1 X173.209 Y78.535 E47.50069
G1 X173.906 Y78.535 E47.53566
G1 X189.744 Y94.373 E48.65976
G1 X189.744 Y93.676 E48.69473
G1 X174.602 Y78.535 E49.76938
G1 X175.299 Y78.535 E49.80435
G1 X189.744 Y92.980 E50.82955
G1 X189.744 Y92.283 E50.86452
G1 X175.996 Y78.535 E51.84026
G1 X176.693 Y78.535 E51.87523
G1 X189.744 Y91.586 E52.80152
G1 X189.744 Y90.889 E52.83649
G1 X177.390 Y78.535 E53.71333
G1 X178.086 Y78.535 E53.74830
G1 X189.744 Y90.192 E54.57568
G1 X189.744 Y89.496 E54.61065
G1 X178.783 Y78.535 E55.38858
G1 X179.480 Y78.535 E55.42355
G1 X189.744 Y88.799 E56.15203
G1 X189.744 Y88.102 E56.18700
G1 X180.177 Y78.535 E56.86602
G1 X180.874 Y78.535 E56.90099
G1 X189.744 Y87.405 E57.53056
G1 X189.744 Y86.709 E57.56553
G1 X181.570 Y78.535 E58.14565
G1 X182.267 Y78.535 E58.18062
G1 X189.744 Y86.012 E58.71129
G1 X189.744 Y85.315 E58.74626
G1 X182.964 Y78.535 E59.22747
G1 X183.661 Y78.535 E59.26244
G1 X189.744 Y84.618 E59.69420
G1 X189.744 Y83.921 E59.72917
G1 X184.357 Y78.535 E60.11147
G1 X185.054 Y78.535 E60.14644
G1 X189.744 Y83.225 E60.47930
G1 X189.744 Y82.528 E60.51427
G1 X185.751 Y78.535 E60.79767
G1 X186.448 Y78.535 E60.83263
G1 X189.744 Y81.831 E61.06658
G1 X189.744 Y81.134 E61.10155
G1 X187.145 Y78.535 E61.28605
G1 X187.841 Y78.535 E61.32101
G1 X189.899 Y80.593 E61.46707
G1 E57.46707
G92 E0
G1 Z0.450 F6600.000
G1 X152.031 Y77.738
G1 Z0.350
G1 E4.00000 F2400.000
G1 X149.973 Y75.680 E4.14606
G1 X149.276 Y75.680 E4.18103
G1 X151.876 Y78.279 E4.36552
G1 X151.876 Y78.976 E4.40049
G1 X148.579 Y75.680 E4.63444
G1 X147.882 Y75.680 E4.66941
G1 X151.876 Y79.673 E4.95281
G1 X151.876 Y80.370 E4.98777
G1 X147.186 Y75.680 E5.32063
G1 X146.489 Y75.680 E5.35560
G1 X151.876 Y81.067 E5.73790
G1 X151.876 Y81.763 E5.77287
G1 X145.792 Y75.680 E6.20463
G1 X145.095 Y75.680 E6.23960
G1 X151.876 Y82.460 E6.72082
G1 X151.876 Y83.157 E6.75578
G1 X144.399 Y75.680 E7.28645
G1 X143.702 Y75.680 E7.32142
G1 X151.876 Y83.854 E7.90154
G1 X151.876 Y84.551 E7.93651
G1 X143.005 Y75.680 E8.56608
G1 X142.308 Y75.680 E8.60105
G1 X151.876 Y85.247 E9.28007
G1 X151.876 Y85.944 E9.31504
G1 X141.611 Y75.680 E10.04352
G1 X140.915 Y75.680 E10.07849
G1 X151.876 Y86.641 E10.85642
G1 X151.876 Y87.338 E10.89139
G1 X140.218 Y75.680 E11.71878
G1 X139.521 Y75.680 E11.75374
G1 X151.876 Y88.034 E12.63058
G1 X151.876 Y88.731 E12.66555
G1 X138.824 Y75.680 E13.59184
G1 X138.128 Y75.680 E13.62681
G1 X151.876 Y89.428 E14.60256
G1 X151.876 Y90.125 E14.63752
G1 X137.431 Y75.680 E15.66272
G1 X136.734 Y75.680 E15.69769
G1 X151.876 Y90.822 E16.77234
G1 X151.876 Y91.518 E16.80731
G1 X136.037 Y75.680 E17.93141
G1 X135.340 Y75.680 E17.96638
G1 X151.876 Y92.215 E19.13994
G1 X151.876 Y92.912 E19.17491
G1 X134.689 Y75.725 E20.39470
G1 X134.341 Y76.074 E20.41943
G1 X151.876 Y93.609 E21.66395
G1 X151.876 Y94.306 E21.69892
G1 X133.992 Y76.422 E22.96817
G1 X133.644 Y76.770 E22.99289
G1 X151.876 Y95.002 E24.28687
G1 X151.876 Y95.699 E24.32183
G1 X133.295 Y77.119 E25.64054
G1 X133.078 Y77.336 E25.65597
G1 X133.078 Y77.598 E25.66911
G1 X151.876 Y96.396 E27.00325
G1 X151.876 Y97.093 E27.03821
G1 X133.078 Y78.295 E28.37235
G1 X133.078 Y78.992 E28.40732
G1 X151.534 Y97.448 E29.71723
G1 X151.376 Y97.607 E29.72850
G1 X151.376 Y97.986 E29.74754
G1 X133.078 Y79.689 E31.04619
G1 X133.078 Y80.385 E31.08116
G1 X151.376 Y98.683 E32.37981
G1 X151.376 Y99.380 E32.41477
G1 X133.078 Y81.082 E33.71342
G1 X133.078 Y81.779 E33.74839
G1 X151.376 Y100.077 E35.04704
G1 X151.376 Y100.773 E35.08201
G1 X133.078 Y82.476 E36.38066
G1 X133.078 Y83.172 E36.41563
G1 X151.376 Y101.470 E37.71428
G1 X151.376 Y102.167 E37.74925
G1 X133.078 Y83.869 E39.04790
G1 X133.078 Y84.566 E39.08287
G1 X151.376 Y102.864 E40.38152
G1 X151.376 Y103.560 E40.41649
G1 X133.078 Y85.263 E41.71514
G1 X133.078 Y85.960 E41.75011
G1 X151.376 Y104.257 E43.04876
G1 X151.376 Y104.954 E43.08373
G1 X133.078 Y86.656 E44.38238
G1 X133.078 Y87.353 E44.41734
G1 X151.376 Y105.651 E45.71599
G1 X151.376 Y106.348 E45.75096
G1 X133.078 Y88.050 E47.04961
G1 X133.078 Y88.747 E47.08458
G1 X151.376 Y107.044 E48.38323
G1 X151.376 Y107.741 E48.41820
G1 X132.671 Y89.037 E49.74571
G1 X131.975 Y89.037 E49.78068
G1 X151.376 Y108.438 E51.15765
G1 X151.376 Y109.135 E51.19261
G1 X131.123 Y88.882 E52.63005
G1 X130.603 Y88.362 F6600.000
G1 F2400.000
