; generated by PrusaSlicer 2.3.1+win64 on 2021-07-20 at 21:24:15 UTC

; 

; external perimeters extrusion width = 0.45mm
; perimeters extrusion width = 0.45mm
; infill extrusion width = 0.45mm
; solid infill extrusion width = 0.45mm
; top infill extrusion width = 0.40mm
; support material extrusion width = 0.35mm
; first layer extrusion width = 0.42mm

M107
M190 S80 ; set bed temperature and wait for it to be reached
M104 S230 ; set temperature
;TYPE:Custom
G28 ; home all axes
G1 Z5 F5000 ; lift nozzle
M109 S230 ; set temperature and wait for it to be reached
G21 ; set units to millimeters
G90 ; use absolute coordinates
M82 ; use absolute distances for extrusion
G92 E0
; Filament gcode
;LAYER_CHANGE
;Z:0.35
;HEIGHT:0.35
G1 Z0.350 F6600.000
G1 E-4.00000 F2400.000
G92 E0
G1 Z0.450 F6600.000
G1 X96.862 Y88.603
G1 Z0.350
G1 E4.00000 F2400.000
;TYPE:Skirt
;WIDTH:0.42
G1 X98.884 Y86.882 E4.13324
G1 X99.402 Y86.666 E4.16145
G1 X100.464 Y86.468 E4.21563
G1 X133.525 Y86.140 E5.87491
G1 X169.771 Y86.140 E7.69394
G1 X170.537 Y86.291 E7.73313
G1 X171.187 Y86.717 E7.77215
G1 X173.425 Y88.975 E7.93170
G1 X173.728 Y89.513 E7.96271
G1 X173.856 Y90.118 E7.99372
G1 X173.704 Y109.621 E8.97252
G1 X173.203 Y127.986 E9.89456
G1 X173.119 Y128.482 E9.91978
G1 X172.915 Y128.945 E9.94519
G1 X172.606 Y129.341 E9.97041
G1 X172.206 Y129.651 E9.99581
G1 X171.718 Y129.859 E10.02244
G1 X171.192 Y129.934 E10.04907
G1 X120.870 Y130.418 E12.57467
G1 X99.237 Y130.418 E13.66033
G1 X98.671 Y130.333 E13.68906
G1 X98.148 Y130.091 E13.71796
G1 X97.435 Y129.441 E13.76639
G1 X97.143 Y129.059 E13.79056
G1 X96.942 Y128.598 E13.81579
G1 X96.861 Y128.102 E13.84101
G1 X96.359 Y109.447 E14.77757
G1 X96.382 Y89.835 E15.76180
G1 X96.520 Y89.179 E15.79542
G1 X96.832 Y88.655 E15.82604
G1 X97.126 Y88.834 F6600.000
G1 F2400.000
G1 X99.064 Y87.176 E15.95407
G1 X99.490 Y87.000 E15.97721
G1 X100.452 Y86.813 E16.02636
G1 X133.518 Y86.484 E17.68589
G1 X169.770 Y86.484 E19.50526
G1 X170.406 Y86.610 E19.53778
G1 X170.948 Y86.965 E19.57029
G1 X173.140 Y89.171 E19.72637
G1 X173.403 Y89.628 E19.75285
G1 X173.513 Y90.145 E19.77933
G1 X173.359 Y109.616 E20.75658
G1 X172.858 Y127.964 E21.67772
G1 X172.790 Y128.381 E21.69894
G1 X172.619 Y128.768 E21.72016
G1 X172.358 Y129.101 E21.74138
G1 X172.026 Y129.357 E21.76244
G1 X171.625 Y129.527 E21.78430
G1 X171.197 Y129.589 E21.80600
G1 X120.861 Y130.073 E24.33229
G1 X99.245 Y130.073 E25.41708
G1 X98.764 Y130.001 E25.44149
G1 X98.324 Y129.794 E25.46590
G1 X97.436 Y128.878 E25.52992
G1 X97.271 Y128.495 E25.55082
G1 X97.205 Y128.084 E25.57172
G1 X96.704 Y109.435 E26.50796
G1 X96.727 Y89.851 E27.49084
G1 X96.845 Y89.294 E27.51939
G1 X97.094 Y88.886 E27.54341
G1 X97.385 Y89.068 F6600.000
G1 F2400.000
G1 X97.418 Y89.016 E27.54650
G1 X99.244 Y87.471 E27.66655
G1 X99.582 Y87.332 E27.68489
G1 X100.458 Y87.158 E27.72971
G1 X133.521 Y86.829 E29.38910
G1 X169.770 Y86.829 E31.20828
G1 X170.276 Y86.929 E31.23415
G1 X170.709 Y87.214 E31.26015
G1 X172.859 Y89.372 E31.41306
G1 X173.079 Y89.746 E31.43482
G1 X173.168 Y90.167 E31.45644
G1 X173.015 Y109.609 E32.43218
G1 X172.514 Y127.944 E33.35268
G1 X172.325 Y128.589 E33.38640
G1 X171.845 Y129.063 E33.42025
G1 X171.190 Y129.245 E33.45439
G1 X120.861 Y129.729 E35.98027
G1 X99.249 Y129.729 E37.06491
G1 X98.857 Y129.668 E37.08482
G1 X98.499 Y129.496 E37.10473
G1 X97.730 Y128.697 E37.16039
G1 X97.550 Y128.070 E37.19314
G1 X97.049 Y109.428 E38.12905
G1 X97.071 Y89.869 E39.11064
G1 X97.169 Y89.412 E39.13410
G1 X97.353 Y89.119 E39.15146
G1 X98.415 Y89.918 F6600.000
;TYPE:Support material
G1 F2400.000
G1 X123.869 Y115.372 E40.95799
G1 X123.172 Y115.372 E40.99296
G1 X98.394 Y90.593 E42.75158
G1 X98.394 Y91.290 E42.78655
G1 X122.475 Y115.372 E44.49572
G1 X121.779 Y115.372 E44.53069
G1 X98.394 Y91.987 E46.19040
G1 X98.394 Y92.683 E46.22537
G1 X121.082 Y115.372 E47.83564
G1 X120.385 Y115.372 E47.87060
G1 X98.394 Y93.380 E49.43141
G1 X98.394 Y94.077 E49.46638
G1 X119.688 Y115.372 E50.97774
G1 X118.991 Y115.372 E51.01271
G1 X98.394 Y94.774 E52.47461
G1 X98.394 Y95.471 E52.50958
G1 X118.295 Y115.372 E53.92203
G1 X117.598 Y115.372 E53.95700
G1 X98.394 Y96.167 E55.31999
G1 X98.394 Y96.864 E55.35496
G1 X116.901 Y115.372 E56.66851
G1 X116.204 Y115.372 E56.70348
G1 X98.394 Y97.561 E57.96757
G1 X98.394 Y98.258 E58.00254
G1 X115.508 Y115.372 E59.21717
G1 X114.811 Y115.372 E59.25214
G1 X98.394 Y98.954 E60.41733
G1 X98.394 Y99.651 E60.45229
G1 X114.114 Y115.372 E61.56803
G1 X113.417 Y115.372 E61.60299
G1 X98.394 Y100.348 E62.66927
G1 X98.394 Y101.045 E62.70424
G1 X112.720 Y115.372 E63.72107
G1 X112.406 Y115.372 E63.73687
G1 X112.406 Y115.754 E63.75604
G1 X98.394 Y101.742 E64.75052
G1 X98.394 Y102.438 E64.78549
G1 X112.406 Y116.450 E65.77997
G1 X112.406 Y117.147 E65.81494
G1 X98.394 Y103.135 E66.80942
G1 X98.394 Y103.832 E66.84439
G1 X112.406 Y117.844 E67.83888
G1 X112.406 Y118.541 E67.87385
G1 X98.394 Y104.529 E68.86833
G1 X98.394 Y105.225 E68.90330
G1 X121.397 Y128.228 E70.53590
G1 X122.093 Y128.228 E70.57087
G1 X112.867 Y119.002 E71.22570
G1 X113.564 Y119.002 E71.26067
G1 X122.790 Y128.228 E71.91550
G1 X123.487 Y128.228 E71.95047
G1 X114.261 Y119.002 E72.60529
G1 X114.957 Y119.002 E72.64026
G1 X124.184 Y128.228 E73.29509
G1 X124.880 Y128.228 E73.33006
G1 X115.654 Y119.002 E73.98489
G1 X116.351 Y119.002 E74.01986
G1 X125.577 Y128.228 E74.67469
G1 X126.274 Y128.228 E74.70966
G1 X117.048 Y119.002 E75.36449
G1 X117.744 Y119.002 E75.39946
G1 X126.971 Y128.228 E76.05428
G1 X127.668 Y128.228 E76.08925
G1 X118.441 Y119.002 E76.74408
G1 X119.138 Y119.002 E76.77905
G1 X128.364 Y128.228 E77.43388
G1 X129.061 Y128.228 E77.46885
G1 X119.835 Y119.002 E78.12368
G1 X120.532 Y119.002 E78.15865
G1 X129.758 Y128.228 E78.81348
G1 X130.455 Y128.228 E78.84845
G1 X121.228 Y119.002 E79.50327
G1 X121.925 Y119.002 E79.53824
G1 X131.151 Y128.228 E80.19307
G1 X131.848 Y128.228 E80.22804
G1 X122.622 Y119.002 E80.88287
G1 X123.319 Y119.002 E80.91784
G1 X132.545 Y128.228 E81.57267
G1 X133.242 Y128.228 E81.60764
G1 X124.015 Y119.002 E82.26247
G1 X124.607 Y119.002 E82.29217
G1 X124.607 Y118.897 E82.29743
G1 X133.939 Y128.228 E82.95971
G1 X134.635 Y128.228 E82.99468
G1 X124.607 Y118.200 E83.70641
G1 X124.607 Y117.504 E83.74137
G1 X135.332 Y128.228 E84.50255
G1 X136.029 Y128.228 E84.53752
G1 X124.607 Y116.807 E85.34816
G1 X124.607 Y116.110 E85.38313
G1 X136.726 Y128.228 E86.24321
G1 X137.423 Y128.228 E86.27818
G1 X98.873 Y89.679 E89.01415
G1 X99.222 Y89.331 E89.03888
G1 X138.119 Y128.228 E91.79957
G1 X138.119 Y127.532 E91.83454
G1 X99.570 Y88.982 E94.57051
G1 X99.919 Y88.634 E94.59524
G1 X138.119 Y126.835 E97.30649
G1 X138.119 Y126.138 E97.34145
G1 X100.484 Y88.503 E100.01257
G1 X101.181 Y88.503 E100.04754
G1 X138.119 Y125.441 E102.66920
G1 X138.119 Y124.745 E102.70417
G1 X101.878 Y88.503 E105.27638
G1 X102.574 Y88.503 E105.31135
G1 X138.119 Y124.048 E107.83411
G1 X138.119 Y123.351 E107.86908
G1 X103.271 Y88.503 E110.34239
G1 X103.968 Y88.503 E110.37735
G1 X138.275 Y122.809 E112.81222
G1 E108.81222
G92 E0
G1 Z0.450 F6600.000
G1 X120.855 Y128.384
G1 Z0.350
G1 E4.00000 F2400.000
G1 X98.394 Y105.922 E5.59416
G1 X98.394 Y106.619 E5.62913
G1 X120.003 Y128.228 E7.16283
G1 X119.306 Y128.228 E7.19780
G1 X98.394 Y107.316 E8.68204
G1 X98.394 Y108.013 E8.71701
G1 X118.609 Y128.228 E10.15180
G1 X117.913 Y128.228 E10.18677
G1 X98.394 Y108.709 E11.57211
G1 X98.394 Y109.406 E11.60707
G1 X117.216 Y128.228 E12.94296
G1 X116.519 Y128.228 E12.97793
G1 X98.894 Y110.603 E14.22887
G1 X98.894 Y111.300 E14.26384
G1 X115.822 Y128.228 E15.46533
G1 X115.126 Y128.228 E15.50030
G1 X98.894 Y111.996 E16.65234
G1 X98.894 Y112.693 E16.68731
G1 X114.429 Y128.228 E17.78989
G1 X113.732 Y128.228 E17.82486
G1 X98.894 Y113.390 E18.87800
G1 X98.894 Y114.087 E18.91296
G1 X113.035 Y128.228 E19.91664
G1 X112.338 Y128.228 E19.95161
G1 X98.894 Y114.784 E20.90584
G1 X98.894 Y115.480 E20.94081
G1 X111.642 Y128.228 E21.84558
G1 X110.945 Y128.228 E21.88055
G1 X98.894 Y116.177 E22.73587
G1 X98.894 Y116.874 E22.77084
G1 X110.248 Y128.228 E23.57671
G1 X109.551 Y128.228 E23.61168
G1 X98.894 Y117.571 E24.36809
G1 X98.894 Y118.268 E24.40306
G1 X108.855 Y128.228 E25.11002
G1 X108.158 Y128.228 E25.14499
G1 X98.894 Y118.964 E25.80250
G1 X98.894 Y119.661 E25.83747
G1 X107.461 Y128.228 E26.44552
G1 X106.764 Y128.228 E26.48049
G1 X98.894 Y120.358 E27.03909
G1 X98.894 Y121.055 E27.07406
G1 X106.067 Y128.228 E27.58321
G1 X105.371 Y128.228 E27.61818
G1 X98.894 Y121.751 E28.07787
G1 X98.894 Y122.448 E28.11284
G1 X104.674 Y128.228 E28.52308
G1 X103.977 Y128.228 E28.55805
G1 X98.894 Y123.145 E28.91884
G1 X98.894 Y123.842 E28.95381
G1 X103.280 Y128.228 E29.26515
G1 X102.584 Y128.228 E29.30012
G1 X98.894 Y124.539 E29.56200
G1 X98.894 Y125.235 E29.59697
G1 X101.887 Y128.228 E29.80940
G1 X101.190 Y128.228 E29.84437
G1 X98.894 Y125.932 E30.00734
G1 X98.894 Y126.629 E30.04231
G1 X100.493 Y128.228 E30.15584
G1 X99.796 Y128.228 E30.19080
G1 X98.894 Y127.326 E30.25488
G1 X98.894 Y128.023 E30.28984
G1 X99.255 Y128.384 E30.31548
G1 E26.31548
G92 E0
G1 Z0.450 F6600.000
G1 X117.346 Y90.733
G1 Z0.350
G1 E4.00000 F2400.000
G1 X115.116 Y88.503 E4.15827
G1 X114.420 Y88.503 E4.19324
G1 X117.191 Y91.274 E4.38995
G1 X117.191 Y91.971 E4.42492
G1 X113.723 Y88.503 E4.67108
G1 X113.026 Y88.503 E4.70605
G1 X117.191 Y92.668 E5.00166
G1 X117.191 Y93.365 E5.03663
G1 X112.329 Y88.503 E5.38170
G1 X111.633 Y88.503 E5.41667
G1 X117.191 Y94.061 E5.81119
G1 X117.191 Y94.758 E5.84616
G1 X110.936 Y88.503 E6.29013
G1 X110.239 Y88.503 E6.32510
G1 X117.191 Y95.455 E6.81853
G1 X117.191 Y96.152 E6.85350
G1 X109.542 Y88.503 E7.39638
G1 X108.845 Y88.503 E7.43135
G1 X117.191 Y96.849 E8.02368
G1 X117.191 Y97.545 E8.05865
G1 X108.149 Y88.503 E8.70044
G1 X107.452 Y88.503 E8.73540
G1 X117.191 Y98.242 E9.42664
G1 X117.191 Y98.939 E9.46161
G1 X106.755 Y88.503 E10.20231
G1 X106.058 Y88.503 E10.23727
G1 X117.191 Y99.636 E11.02742
G1 X117.191 Y100.333 E11.06239
G1 X105.362 Y88.503 E11.90199
G1 X104.665 Y88.503 E11.93696
G1 X117.346 Y101.184 E12.83702
G1 X117.866 Y101.704 F6600.000
G1 F2400.000
G1 X138.119 Y121.957 E14.27446
G1 X138.119 Y121.261 E14.30943
G1 X118.718 Y101.860 E15.68639
G1 X119.415 Y101.860 E15.72136
G1 X138.119 Y120.564 E17.04887
G1 X138.119 Y119.867 E17.08384
G1 X119.822 Y101.569 E18.38249
G1 X119.822 Y100.873 E18.41746
G1 X138.119 Y119.170 E19.71611
G1 X138.119 Y118.474 E19.75108
G1 X119.822 Y100.176 E21.04973
G1 X119.822 Y99.479 E21.08470
G1 X138.119 Y117.777 E22.38335
G1 X138.119 Y117.080 E22.41831
G1 X119.822 Y98.782 E23.71696
G1 X119.822 Y98.086 E23.75193
G1 X138.119 Y116.383 E25.05058
G1 X138.119 Y115.686 E25.08555
G1 X119.822 Y97.389 E26.38420
G1 X119.822 Y96.692 E26.41917
G1 X138.119 Y114.990 E27.71782
G1 X138.119 Y114.293 E27.75279
G1 X119.822 Y95.995 E29.05144
G1 X119.822 Y95.298 E29.08641
G1 X138.119 Y113.596 E30.38506
G1 X138.119 Y112.899 E30.42003
G1 X119.822 Y94.602 E31.71868
G1 X119.822 Y93.905 E31.75365
G1 X138.119 Y112.203 E33.05230
G1 X138.119 Y111.506 E33.08727
G1 X119.822 Y93.208 E34.38592
G1 X119.822 Y92.511 E34.42088
G1 X138.119 Y110.809 E35.71954
G1 X138.119 Y110.430 E35.73857
G1 X138.278 Y110.271 E35.74984
G1 X119.822 Y91.814 E37.05975
G1 X119.822 Y91.118 E37.09472
G1 X138.619 Y109.915 E38.42886
G1 X138.619 Y109.219 E38.46383
G1 X119.822 Y90.421 E39.79796
G1 X119.822 Y90.159 E39.81110
G1 X120.039 Y89.942 E39.82654
G1 X138.619 Y108.522 E41.14524
G1 X138.619 Y107.825 E41.18021
G1 X120.388 Y89.593 E42.47418
G1 X120.736 Y89.245 E42.49891
G1 X138.619 Y107.128 E43.76815
G1 X138.619 Y106.431 E43.80312
G1 X121.084 Y88.896 E45.04764
G1 X121.433 Y88.548 E45.07237
G1 X138.619 Y105.735 E46.29216
G1 X138.619 Y105.038 E46.32713
G1 X122.084 Y88.503 E47.50069
G1 X122.781 Y88.503 E47.53566
G1 X138.619 Y104.341 E48.65976
G1 X138.619 Y103.644 E48.69473
G1 X123.478 Y88.503 E49.76938
G1 X124.175 Y88.503 E49.80435
G1 X138.619 Y102.948 E50.82955
G1 X138.619 Y102.251 E50.86452
G1 X124.871 Y88.503 E51.84026
G1 X125.568 Y88.503 E51.87523
G1 X138.619 Y101.554 E52.80152
G1 X138.619 Y100.857 E52.83649
G1 X126.265 Y88.503 E53.71333
G1 X126.962 Y88.503 E53.74830
G1 X138.619 Y100.160 E54.57568
G1 X138.619 Y99.464 E54.61065
G1 X127.659 Y88.503 E55.38858
G1 X128.355 Y88.503 E55.42355
G1 X138.619 Y98.767 E56.15203
G1 X138.619 Y98.070 E56.18700
G1 X129.052 Y88.503 E56.86602
G1 X129.749 Y88.503 E56.90099
G1 X138.619 Y97.373 E57.53056
G1 X138.619 Y96.677 E57.56553
G1 X130.446 Y88.503 E58.14565
G1 X131.142 Y88.503 E58.18062
G1 X138.619 Y95.980 E58.71129
G1 X138.619 Y95.283 E58.74626
G1 X131.839 Y88.503 E59.22747
G1 X132.536 Y88.503 E59.26244
G1 X138.619 Y94.586 E59.69420
G1 X138.619 Y93.889 E59.72917
G1 X133.233 Y88.503 E60.11147
G1 X133.930 Y88.503 E60.14644
G1 X138.619 Y93.193 E60.47930
G1 X138.619 Y92.496 E60.51427
G1 X134.626 Y88.503 E60.79767
G1 X135.323 Y88.503 E60.83263
G1 X138.619 Y91.799 E61.06658
G1 X138.619 Y91.102 E61.10155
G1 X136.020 Y88.503 E61.28605
G1 X136.717 Y88.503 E61.32101
G1 X138.775 Y90.561 E61.46707
G1 E57.46707
G92 E0
G1 Z0.450 F6600.000
G1 X131.466 Y89.589
G1 Z0.350
G1 E4.00000 F2400.000
G1 X156.919 Y115.043 E5.80654
G1 X156.223 Y115.043 E5.84150
G1 X131.444 Y90.264 E7.60013
G1 X131.444 Y90.961 E7.63510
G1 X155.526 Y115.043 E9.34426
G1 X154.829 Y115.043 E9.37923
G1 X131.444 Y91.658 E11.03895
G1 X131.444 Y92.355 E11.07392
G1 X154.132 Y115.043 E12.68418
G1 X153.435 Y115.043 E12.71915
G1 X131.444 Y93.052 E14.27996
G1 X131.444 Y93.748 E14.31493
G1 X152.739 Y115.043 E15.82628
G1 X152.042 Y115.043 E15.86125
G1 X131.444 Y94.445 E17.32315
G1 X131.444 Y95.142 E17.35812
G1 X151.345 Y115.043 E18.77057
G1 X150.648 Y115.043 E18.80554
G1 X131.444 Y95.839 E20.16854
G1 X131.444 Y96.535 E20.20351
G1 X149.952 Y115.043 E21.51705
G1 X149.255 Y115.043 E21.55202
G1 X131.444 Y97.232 E22.81611
G1 X131.444 Y97.929 E22.85108
G1 X148.558 Y115.043 E24.06572
G1 X147.861 Y115.043 E24.10069
G1 X131.444 Y98.626 E25.26587
G1 X131.444 Y99.323 E25.30084
G1 X147.164 Y115.043 E26.41657
G1 X146.468 Y115.043 E26.45154
G1 X131.444 Y100.019 E27.51782
G1 X131.444 Y100.716 E27.55279
G1 X145.771 Y115.043 E28.56961
G1 X145.456 Y115.043 E28.58541
G1 X145.456 Y115.425 E28.60458
G1 X131.444 Y101.413 E29.59906
G1 X131.444 Y102.110 E29.63403
G1 X145.456 Y116.122 E30.62852
G1 X145.456 Y116.819 E30.66348
G1 X131.444 Y102.807 E31.65797
G1 X131.444 Y103.503 E31.69294
G1 X145.456 Y117.515 E32.68742
G1 X145.456 Y118.212 E32.72239
G1 X131.444 Y104.200 E33.71687
G1 X131.444 Y104.897 E33.75184
G1 X154.447 Y127.900 E35.38444
G1 X155.144 Y127.900 E35.41941
G1 X145.917 Y118.673 E36.07424
G1 X146.614 Y118.673 E36.10921
G1 X155.841 Y127.900 E36.76404
G1 X156.537 Y127.900 E36.79901
G1 X147.311 Y118.673 E37.45384
G1 X148.008 Y118.673 E37.48881
G1 X157.234 Y127.900 E38.14364
G1 X157.931 Y127.900 E38.17860
G1 X148.705 Y118.673 E38.83343
G1 X149.401 Y118.673 E38.86840
G1 X158.628 Y127.900 E39.52323
G1 X159.324 Y127.900 E39.55820
G1 X150.098 Y118.673 E40.21303
G1 X150.795 Y118.673 E40.24800
G1 X160.021 Y127.900 E40.90283
G1 X160.718 Y127.900 E40.93780
G1 X151.492 Y118.673 E41.59263
G1 X152.188 Y118.673 E41.62759
G1 X161.415 Y127.900 E42.28242
G1 X162.112 Y127.900 E42.31739
G1 X152.885 Y118.673 E42.97222
G1 X153.582 Y118.673 E43.00719
G1 X162.808 Y127.900 E43.66202
G1 X163.505 Y127.900 E43.69699
G1 X154.279 Y118.673 E44.35182
G1 X154.976 Y118.673 E44.38679
G1 X164.202 Y127.900 E45.04162
G1 X164.899 Y127.900 E45.07658
G1 X155.672 Y118.673 E45.73141
G1 X156.369 Y118.673 E45.76638
G1 X165.596 Y127.900 E46.42121
G1 X166.292 Y127.900 E46.45618
G1 X157.066 Y118.673 E47.11101
G1 X157.658 Y118.673 E47.14071
G1 X157.658 Y118.569 E47.14598
G1 X166.989 Y127.900 E47.80825
G1 X167.686 Y127.900 E47.84322
G1 X157.658 Y117.872 E48.55495
G1 X157.658 Y117.175 E48.58992
G1 X168.383 Y127.900 E49.35110
G1 X169.079 Y127.900 E49.38607
G1 X157.658 Y116.478 E50.19670
G1 X157.658 Y115.781 E50.23167
G1 X169.776 Y127.900 E51.09176
G1 X170.473 Y127.900 E51.12672
G1 X131.924 Y89.351 E53.86269
G1 X132.272 Y89.002 E53.88742
G1 X171.170 Y127.900 E56.64812
G1 X171.170 Y127.203 E56.68308
G1 X132.621 Y88.654 E59.41906
