; generated by PrusaSlicer 2.3.1+win64 on 2021-07-21 at 00:37:51 UTC

; 

; external perimeters extrusion width = 0.45mm
; perimeters extrusion width = 0.45mm
; infill extrusion width = 0.45mm
; solid infill extrusion width = 0.45mm
; top infill extrusion width = 0.40mm
; support material extrusion width = 0.35mm
; first layer extrusion width = 0.42mm

M107
M190 S80 ; set bed temperature and wait for it to be reached
M104 S230 ; set temperature
;TYPE:Custom
G28 ; home all axes
G1 Z5 F5000 ; lift nozzle
M109 S230 ; set temperature and wait for it to be reached
G21 ; set units to millimeters
G90 ; use absolute coordinates
M82 ; use absolute distances for extrusion
G92 E0
; Filament gcode
;LAYER_CHANGE
;Z:0.35
;HEIGHT:0.35
G1 Z0.350 F6600.000
G1 E-4.00000 F2400.000
G92 E0
G1 Z0.450 F6600.000
G1 X115.715 Y58.684
G1 Z0.350
G1 E4.00000 F2400.000
;TYPE:Skirt
;WIDTH:0.42
G1 X115.994 Y58.296 E4.02400
G1 X117.955 Y56.638 E4.15286
G1 X118.456 Y56.424 E4.18019
G1 X119.460 Y56.221 E4.23159
G1 X155.801 Y56.219 E6.05540
G1 X195.378 Y57.620 E8.04284
G1 X195.951 Y57.761 E8.07245
G1 X196.456 Y58.058 E8.10188
G1 X198.719 Y60.305 E8.26190
G1 X199.124 Y60.932 E8.29936
G1 X199.275 Y61.663 E8.33682
G1 X199.120 Y81.095 E9.31209
G1 X198.617 Y99.489 E10.23554
G1 X198.430 Y100.230 E10.27387
G1 X197.984 Y100.849 E10.31219
G1 X197.353 Y101.255 E10.34982
G1 X196.622 Y101.405 E10.38728
G1 X179.329 Y101.561 E11.25520
G1 X157.679 Y101.561 E12.34173
G1 X118.218 Y100.165 E14.32334
G1 X117.751 Y100.083 E14.34717
G1 X117.318 Y99.896 E14.37081
G1 X116.496 Y99.171 E14.42579
G1 X116.105 Y98.577 E14.46151
G1 X115.943 Y97.880 E14.49740
G1 X115.440 Y79.183 E15.43608
G1 X115.441 Y60.291 E16.38421
G1 X115.536 Y59.124 E16.44298
G1 X115.693 Y58.740 E16.46379
G1 X116.010 Y58.866 F6600.000
G1 F2400.000
G1 X116.254 Y58.523 E16.48491
G1 X118.123 Y56.940 E16.60784
G1 X118.549 Y56.756 E16.63114
G1 X119.481 Y56.566 E16.67887
G1 X155.801 Y56.563 E18.50160
G1 X195.339 Y57.963 E20.48710
G1 X195.827 Y58.083 E20.51231
G1 X196.257 Y58.341 E20.53752
G1 X198.465 Y60.538 E20.69382
G1 X198.805 Y61.064 E20.72523
G1 X198.930 Y61.677 E20.75663
G1 X198.775 Y81.088 E21.73082
G1 X198.273 Y99.461 E22.65325
G1 X198.121 Y100.078 E22.68514
G1 X197.751 Y100.595 E22.71702
G1 X197.226 Y100.935 E22.74843
G1 X196.613 Y101.061 E22.77983
G1 X179.327 Y101.216 E23.64738
G1 X157.686 Y101.216 E24.73345
G1 X118.241 Y99.821 E26.71428
G1 X117.474 Y99.588 E26.75451
G1 X116.750 Y98.938 E26.80331
G1 X116.422 Y98.439 E26.83329
G1 X116.287 Y97.854 E26.86342
G1 X115.785 Y79.176 E27.80112
G1 X115.785 Y60.305 E28.74820
G1 X115.862 Y59.240 E28.80179
G1 X115.988 Y58.922 E28.81896
G1 X116.323 Y59.102 F6600.000
G1 F2400.000
G1 X116.510 Y58.754 E28.83880
G1 X118.295 Y57.239 E28.95629
G1 X118.646 Y57.087 E28.97549
G1 X119.501 Y56.910 E29.01932
G1 X155.800 Y56.908 E30.84102
G1 X195.305 Y58.306 E32.82482
G1 X195.704 Y58.405 E32.84545
G1 X196.054 Y58.620 E32.86607
G1 X198.210 Y60.771 E33.01889
G1 X198.485 Y61.193 E33.04419
G1 X198.586 Y61.687 E33.06949
G1 X198.430 Y81.083 E34.04293
G1 X197.929 Y99.435 E34.96430
G1 X197.810 Y99.928 E34.98974
G1 X197.517 Y100.342 E35.01518
G1 X197.094 Y100.616 E35.04048
G1 X196.603 Y100.716 E35.06564
G1 X179.328 Y100.871 E35.93263
G1 X157.692 Y100.871 E37.01842
G1 X118.265 Y99.477 E38.99834
G1 X117.634 Y99.282 E39.03150
G1 X117.005 Y98.706 E39.07429
G1 X116.739 Y98.304 E39.09846
G1 X116.631 Y97.832 E39.12277
G1 X116.130 Y79.173 E40.05955
G1 X116.130 Y60.318 E41.00581
G1 X116.189 Y59.350 E41.05445
G1 X116.295 Y59.155 E41.06559
G1 E37.06559
G92 E0
G1 Z0.450 F6600.000
G1 X156.882 Y61.061
G1 Z0.350
G1 E4.00000 F2400.000
;TYPE:Support material
G1 X182.335 Y86.514 E5.80654
G1 X181.638 Y86.514 E5.84150
G1 X156.860 Y61.736 E7.60013
G1 X156.860 Y62.432 E7.63510
G1 X180.942 Y86.514 E9.34426
G1 X180.245 Y86.514 E9.37923
G1 X156.860 Y63.129 E11.03895
G1 X156.860 Y63.826 E11.07392
G1 X179.548 Y86.514 E12.68418
G1 X178.851 Y86.514 E12.71915
G1 X156.860 Y64.523 E14.27996
G1 X156.860 Y65.220 E14.31493
G1 X178.155 Y86.514 E15.82628
G1 X177.458 Y86.514 E15.86125
G1 X156.860 Y65.916 E17.32315
G1 X156.860 Y66.613 E17.35812
G1 X176.761 Y86.514 E18.77057
G1 X176.064 Y86.514 E18.80554
G1 X156.860 Y67.310 E20.16854
G1 X156.860 Y68.007 E20.20351
G1 X175.367 Y86.514 E21.51705
G1 X174.671 Y86.514 E21.55202
G1 X156.860 Y68.703 E22.81611
G1 X156.860 Y69.400 E22.85108
G1 X173.974 Y86.514 E24.06572
G1 X173.277 Y86.514 E24.10069
G1 X156.860 Y70.097 E25.26587
G1 X156.860 Y70.794 E25.30084
G1 X172.580 Y86.514 E26.41657
G1 X171.884 Y86.514 E26.45154
G1 X156.860 Y71.491 E27.51782
G1 X156.860 Y72.187 E27.55279
G1 X171.187 Y86.514 E28.56961
G1 X170.872 Y86.514 E28.58541
G1 X170.872 Y86.896 E28.60458
G1 X156.860 Y72.884 E29.59906
G1 X156.860 Y73.581 E29.63403
G1 X170.872 Y87.593 E30.62852
G1 X170.872 Y88.290 E30.66348
G1 X156.860 Y74.278 E31.65797
G1 X156.860 Y74.975 E31.69294
G1 X170.872 Y88.987 E32.68742
G1 X170.872 Y89.683 E32.72239
G1 X156.860 Y75.671 E33.71687
G1 X156.860 Y76.368 E33.75184
G1 X179.863 Y99.371 E35.38444
G1 X180.560 Y99.371 E35.41941
G1 X171.333 Y90.145 E36.07424
G1 X172.030 Y90.145 E36.10921
G1 X181.256 Y99.371 E36.76404
G1 X181.953 Y99.371 E36.79901
G1 X172.727 Y90.145 E37.45384
G1 X173.424 Y90.145 E37.48881
G1 X182.650 Y99.371 E38.14364
G1 X183.347 Y99.371 E38.17860
G1 X174.120 Y90.145 E38.83343
G1 X174.817 Y90.145 E38.86840
G1 X184.044 Y99.371 E39.52323
G1 X184.740 Y99.371 E39.55820
G1 X175.514 Y90.145 E40.21303
G1 X176.211 Y90.145 E40.24800
G1 X185.437 Y99.371 E40.90283
G1 X186.134 Y99.371 E40.93780
G1 X176.908 Y90.145 E41.59263
G1 X177.604 Y90.145 E41.62759
G1 X186.831 Y99.371 E42.28242
G1 X187.527 Y99.371 E42.31739
G1 X178.301 Y90.145 E42.97222
G1 X178.998 Y90.145 E43.00719
G1 X188.224 Y99.371 E43.66202
G1 X188.921 Y99.371 E43.69699
G1 X179.695 Y90.145 E44.35182
G1 X180.391 Y90.145 E44.38679
G1 X189.618 Y99.371 E45.04162
G1 X190.315 Y99.371 E45.07658
G1 X181.088 Y90.145 E45.73141
G1 X181.785 Y90.145 E45.76638
G1 X191.011 Y99.371 E46.42121
G1 X191.708 Y99.371 E46.45618
G1 X182.482 Y90.145 E47.11101
G1 X183.074 Y90.145 E47.14071
G1 X183.074 Y90.040 E47.14598
G1 X192.405 Y99.371 E47.80825
G1 X193.102 Y99.371 E47.84322
G1 X183.074 Y89.343 E48.55495
G1 X183.074 Y88.646 E48.58992
G1 X193.798 Y99.371 E49.35110
G1 X194.495 Y99.371 E49.38607
G1 X183.074 Y87.949 E50.19670
G1 X183.074 Y87.253 E50.23167
G1 X195.192 Y99.371 E51.09176
G1 X195.889 Y99.371 E51.12672
G1 X157.340 Y60.822 E53.86269
G1 X157.688 Y60.474 E53.88742
G1 X196.586 Y99.371 E56.64812
G1 X196.586 Y98.674 E56.68308
G1 X158.037 Y60.125 E59.41906
G1 X158.385 Y59.777 E59.44378
G1 X196.586 Y97.978 E62.15503
G1 X196.586 Y97.281 E62.19000
G1 X158.950 Y59.645 E64.86112
G1 X159.647 Y59.645 E64.89608
G1 X196.586 Y96.584 E67.51775
G1 X196.586 Y95.887 E67.55272
G1 X160.344 Y59.645 E70.12493
G1 X161.041 Y59.645 E70.15990
G1 X196.586 Y95.190 E72.68266
G1 X196.586 Y94.494 E72.71762
G1 X161.737 Y59.645 E75.19093
G1 X162.434 Y59.645 E75.22590
G1 X196.741 Y93.952 E77.66076
G1 E73.66076
G92 E0
G1 Z0.450 F6600.000
G1 X179.321 Y99.526
G1 Z0.350
G1 E4.00000 F2400.000
G1 X156.860 Y77.065 E5.59416
G1 X156.860 Y77.762 E5.62913
G1 X178.469 Y99.371 E7.16283
G1 X177.773 Y99.371 E7.19780
G1 X156.860 Y78.458 E8.68204
G1 X156.860 Y79.155 E8.71701
G1 X177.076 Y99.371 E10.15180
G1 X176.379 Y99.371 E10.18677
G1 X156.860 Y79.852 E11.57211
G1 X156.860 Y80.549 E11.60707
G1 X175.682 Y99.371 E12.94296
G1 X174.985 Y99.371 E12.97793
G1 X157.360 Y81.746 E14.22887
G1 X157.360 Y82.442 E14.26384
G1 X174.289 Y99.371 E15.46533
G1 X173.592 Y99.371 E15.50030
G1 X157.360 Y83.139 E16.65234
G1 X157.360 Y83.836 E16.68731
G1 X172.895 Y99.371 E17.78989
G1 X172.198 Y99.371 E17.82486
G1 X157.360 Y84.533 E18.87800
G1 X157.360 Y85.229 E18.91296
G1 X171.502 Y99.371 E19.91664
G1 X170.805 Y99.371 E19.95161
G1 X157.360 Y85.926 E20.90584
G1 X157.360 Y86.623 E20.94081
G1 X170.108 Y99.371 E21.84558
G1 X169.411 Y99.371 E21.88055
G1 X157.360 Y87.320 E22.73587
G1 X157.360 Y88.017 E22.77084
G1 X168.714 Y99.371 E23.57671
G1 X168.018 Y99.371 E23.61168
G1 X157.360 Y88.713 E24.36809
G1 X157.360 Y89.410 E24.40306
G1 X167.321 Y99.371 E25.11002
G1 X166.624 Y99.371 E25.14499
G1 X157.360 Y90.107 E25.80250
G1 X157.360 Y90.804 E25.83747
G1 X165.927 Y99.371 E26.44552
G1 X165.230 Y99.371 E26.48049
G1 X157.360 Y91.501 E27.03909
G1 X157.360 Y92.197 E27.07406
G1 X164.534 Y99.371 E27.58321
G1 X163.837 Y99.371 E27.61818
G1 X157.360 Y92.894 E28.07787
G1 X157.360 Y93.591 E28.11284
G1 X163.140 Y99.371 E28.52308
G1 X162.443 Y99.371 E28.55805
G1 X157.360 Y94.288 E28.91884
G1 X157.360 Y94.984 E28.95381
G1 X161.747 Y99.371 E29.26515
G1 X161.050 Y99.371 E29.30012
G1 X157.360 Y95.681 E29.56200
G1 X157.360 Y96.378 E29.59697
G1 X160.353 Y99.371 E29.80940
G1 X159.656 Y99.371 E29.84437
G1 X157.360 Y97.075 E30.00734
G1 X157.360 Y97.772 E30.04231
G1 X158.959 Y99.371 E30.15584
G1 X158.263 Y99.371 E30.19080
G1 X157.360 Y98.468 E30.25488
G1 X157.360 Y99.165 E30.28984
G1 X157.721 Y99.526 E30.31548
G1 E26.31548
G92 E0
G1 Z0.450 F6600.000
G1 X175.813 Y61.875
G1 Z0.350
G1 E4.00000 F2400.000
G1 X173.583 Y59.645 E4.15827
G1 X172.886 Y59.645 E4.19324
G1 X175.658 Y62.417 E4.38995
G1 X175.658 Y63.114 E4.42492
G1 X172.189 Y59.645 E4.67108
G1 X171.492 Y59.645 E4.70605
G1 X175.658 Y63.811 E5.00166
G1 X175.658 Y64.507 E5.03663
G1 X170.796 Y59.645 E5.38170
G1 X170.099 Y59.645 E5.41667
G1 X175.658 Y65.204 E5.81119
G1 X175.658 Y65.901 E5.84616
G1 X169.402 Y59.645 E6.29013
G1 X168.705 Y59.645 E6.32510
G1 X175.658 Y66.598 E6.81853
G1 X175.658 Y67.294 E6.85350
G1 X168.009 Y59.645 E7.39638
G1 X167.312 Y59.645 E7.43135
G1 X175.658 Y67.991 E8.02368
G1 X175.658 Y68.688 E8.05865
G1 X166.615 Y59.645 E8.70044
G1 X165.918 Y59.645 E8.73540
G1 X175.658 Y69.385 E9.42664
G1 X175.658 Y70.082 E9.46161
G1 X165.221 Y59.645 E10.20231
G1 X164.525 Y59.645 E10.23727
G1 X175.658 Y70.778 E11.02742
G1 X175.658 Y71.475 E11.06239
G1 X163.828 Y59.645 E11.90199
G1 X163.131 Y59.645 E11.93696
G1 X175.813 Y72.327 E12.83702
G1 X176.333 Y72.847 F6600.000
G1 F2400.000
G1 X196.586 Y93.100 E14.27446
G1 X196.586 Y92.403 E14.30943
G1 X177.185 Y73.002 E15.68639
G1 X177.881 Y73.002 E15.72136
G1 X196.586 Y91.707 E17.04887
G1 X196.586 Y91.010 E17.08384
G1 X178.288 Y72.712 E18.38249
G1 X178.288 Y72.015 E18.41746
G1 X196.586 Y90.313 E19.71611
G1 X196.586 Y89.616 E19.75108
G1 X178.288 Y71.319 E21.04973
G1 X178.288 Y70.622 E21.08470
G1 X196.586 Y88.919 E22.38335
G1 X196.586 Y88.223 E22.41831
G1 X178.288 Y69.925 E23.71696
G1 X178.288 Y69.228 E23.75193
G1 X196.586 Y87.526 E25.05058
G1 X196.586 Y86.829 E25.08555
G1 X178.288 Y68.531 E26.38420
G1 X178.288 Y67.835 E26.41917
G1 X196.586 Y86.132 E27.71782
G1 X196.586 Y85.436 E27.75279
G1 X178.288 Y67.138 E29.05144
G1 X178.288 Y66.441 E29.08641
G1 X196.586 Y84.739 E30.38506
G1 X196.586 Y84.042 E30.42003
G1 X178.288 Y65.744 E31.71868
G1 X178.288 Y65.047 E31.75365
G1 X196.586 Y83.345 E33.05230
G1 X196.586 Y82.648 E33.08727
G1 X178.288 Y64.351 E34.38592
G1 X178.288 Y63.654 E34.42088
G1 X196.586 Y81.952 E35.71954
G1 X196.586 Y81.572 E35.73857
G1 X196.744 Y81.414 E35.74984
G1 X178.288 Y62.957 E37.05975
G1 X178.288 Y62.260 E37.09472
G1 X197.086 Y81.058 E38.42886
G1 X197.086 Y80.361 E38.46383
G1 X178.288 Y61.564 E39.79796
G1 X178.288 Y61.302 E39.81110
G1 X178.506 Y61.084 E39.82654
G1 X197.086 Y79.664 E41.14524
G1 X197.086 Y78.968 E41.18021
G1 X178.854 Y60.736 E42.47418
G1 X179.202 Y60.387 E42.49891
G1 X197.086 Y78.271 E43.76815
G1 X197.086 Y77.574 E43.80312
G1 X179.551 Y60.039 E45.04764
G1 X179.899 Y59.691 E45.07237
G1 X197.086 Y76.877 E46.29216
G1 X197.086 Y76.181 E46.32713
G1 X180.551 Y59.645 E47.50069
G1 X181.247 Y59.645 E47.53566
G1 X197.086 Y75.484 E48.65976
G1 X197.086 Y74.787 E48.69473
G1 X181.944 Y59.645 E49.76938
G1 X182.641 Y59.645 E49.80435
G1 X197.086 Y74.090 E50.82955
G1 X197.086 Y73.393 E50.86452
G1 X183.338 Y59.645 E51.84026
G1 X184.034 Y59.645 E51.87523
G1 X197.086 Y72.697 E52.80152
G1 X197.086 Y72.000 E52.83649
G1 X184.731 Y59.645 E53.71333
G1 X185.428 Y59.645 E53.74830
G1 X197.086 Y71.303 E54.57568
G1 X197.086 Y70.606 E54.61065
G1 X186.125 Y59.645 E55.38858
G1 X186.822 Y59.645 E55.42355
G1 X197.086 Y69.910 E56.15203
G1 X197.086 Y69.213 E56.18700
G1 X187.518 Y59.645 E56.86602
G1 X188.215 Y59.645 E56.90099
G1 X197.086 Y68.516 E57.53056
G1 X197.086 Y67.819 E57.56553
G1 X188.912 Y59.645 E58.14565
G1 X189.609 Y59.645 E58.18062
G1 X197.086 Y67.122 E58.71129
G1 X197.086 Y66.426 E58.74626
G1 X190.305 Y59.645 E59.22747
G1 X191.002 Y59.645 E59.26244
G1 X197.086 Y65.729 E59.69420
G1 X197.086 Y65.032 E59.72917
G1 X191.699 Y59.645 E60.11147
G1 X192.396 Y59.645 E60.14644
G1 X197.086 Y64.335 E60.47930
G1 X197.086 Y63.638 E60.51427
G1 X193.093 Y59.645 E60.79767
G1 X193.789 Y59.645 E60.83263
G1 X197.086 Y62.942 E61.06658
G1 X197.086 Y62.245 E61.10155
G1 X194.486 Y59.645 E61.28605
G1 X195.183 Y59.645 E61.32101
G1 X197.241 Y61.703 E61.46707
G1 E57.46707
G92 E0
G1 Z0.450 F6600.000
G1 X157.855 Y60.311
G1 Z0.350
G1 E4.00000 F2400.000
G1 X155.798 Y58.253 E4.14606
G1 X155.101 Y58.253 E4.18103
G1 X157.700 Y60.853 E4.36552
G1 X157.700 Y61.550 E4.40049
G1 X154.404 Y58.253 E4.63444
G1 X153.707 Y58.253 E4.66941
G1 X157.700 Y62.246 E4.95281
G1 X157.700 Y62.943 E4.98777
G1 X153.010 Y58.253 E5.32063
G1 X152.314 Y58.253 E5.35560
G1 X157.700 Y63.640 E5.73790
G1 X157.700 Y64.337 E5.77287
G1 X151.617 Y58.253 E6.20463
G1 X150.920 Y58.253 E6.23960
G1 X157.700 Y65.033 E6.72082
G1 X157.700 Y65.730 E6.75578
G1 X150.223 Y58.253 E7.28645
G1 X149.526 Y58.253 E7.32142
G1 X157.700 Y66.427 E7.90154
G1 X157.700 Y67.124 E7.93651
G1 X148.830 Y58.253 E8.56608
G1 X148.133 Y58.253 E8.60105
G1 X157.700 Y67.821 E9.28007
G1 X157.700 Y68.517 E9.31504
G1 X147.436 Y58.253 E10.04352
G1 X146.739 Y58.253 E10.07849
G1 X157.700 Y69.214 E10.85642
G1 X157.700 Y69.911 E10.89139
G1 X146.043 Y58.253 E11.71878
G1 X145.346 Y58.253 E11.75374
G1 X157.700 Y70.608 E12.63058
G1 X157.700 Y71.304 E12.66555
G1 X144.649 Y58.253 E13.59184
G1 X143.952 Y58.253 E13.62681
G1 X157.700 Y72.001 E14.60256
G1 X157.700 Y72.698 E14.63752
G1 X143.255 Y58.253 E15.66272
G1 X142.559 Y58.253 E15.69769
G1 X157.700 Y73.395 E16.77234
G1 X157.700 Y74.092 E16.80731
G1 X141.862 Y58.253 E17.93141
G1 X141.165 Y58.253 E17.96638
G1 X157.700 Y74.788 E19.13994
G1 X157.700 Y75.485 E19.17491
G1 X140.514 Y58.299 E20.39470
G1 X140.165 Y58.647 E20.41943
G1 X157.700 Y76.182 E21.66395
G1 X157.700 Y76.879 E21.69892
G1 X139.817 Y58.995 E22.96817
G1 X139.468 Y59.344 E22.99289
G1 X157.700 Y77.576 E24.28687
G1 X157.700 Y78.272 E24.32183
G1 X139.120 Y59.692 E25.64054
G1 X138.903 Y59.910 E25.65597
G1 X138.903 Y60.171 E25.66911
G1 X157.700 Y78.969 E27.00325
G1 X157.700 Y79.666 E27.03821
G1 X138.903 Y60.868 E28.37235
G1 X138.903 Y61.565 E28.40732
G1 X157.359 Y80.021 E29.71723
G1 X157.200 Y80.180 E29.72850
G1 X157.200 Y80.559 E29.74754
G1 X138.903 Y62.262 E31.04619
G1 X138.903 Y62.959 E31.08116
G1 X157.200 Y81.256 E32.37981
G1 X157.200 Y81.953 E32.41477
G1 X138.903 Y63.655 E33.71342
G1 X138.903 Y64.352 E33.74839
G1 X157.200 Y82.650 E35.04704
G1 X157.200 Y83.347 E35.08201
G1 X138.903 Y65.049 E36.38066
G1 X138.903 Y65.746 E36.41563
G1 X157.200 Y84.043 E37.71428
G1 X157.200 Y84.740 E37.74925
G1 X138.903 Y66.442 E39.04790
G1 X138.903 Y67.139 E39.08287
G1 X157.200 Y85.437 E40.38152
G1 X157.200 Y86.134 E40.41649
G1 X138.903 Y67.836 E41.71514
G1 X138.903 Y68.533 E41.75011
G1 X157.200 Y86.831 E43.04876
G1 X157.200 Y87.527 E43.08373
G1 X138.903 Y69.230 E44.38238
G1 X138.903 Y69.926 E44.41734
G1 X157.200 Y88.224 E45.71599
G1 X157.200 Y88.921 E45.75096
G1 X138.903 Y70.623 E47.04961
G1 X138.903 Y71.320 E47.08458
G1 X157.200 Y89.618 E48.38323
G1 X157.200 Y90.314 E48.41820
G1 X138.496 Y71.610 E49.74571
G1 X137.799 Y71.610 E49.78068
G1 X157.200 Y91.011 E51.15765
G1 X157.200 Y91.708 E51.19261
G1 X136.947 Y71.455 E52.63005
G1 X136.427 Y70.935 F6600.000
G1 F2400.000
G1 X123.746 Y58.253 E53.53012
G1 X124.442 Y58.253 E53.56508
G1 X136.272 Y70.083 E54.40468
G1 X136.272 Y69.386 E54.43965
G1 X125.139 Y58.253 E55.22980
G1 X125.836 Y58.253 E55.26477
G1 X136.272 Y68.689 E56.00546
