; generated by PrusaSlicer 2.3.1+win64 on 2021-07-21 at 19:50:35 UTC

; 

; external perimeters extrusion width = 0.45mm
; perimeters extrusion width = 0.45mm
; infill extrusion width = 0.45mm
; solid infill extrusion width = 0.45mm
; top infill extrusion width = 0.40mm
; support material extrusion width = 0.35mm
; first layer extrusion width = 0.42mm

M107
M190 S80 ; set bed temperature and wait for it to be reached
M104 S230 ; set temperature
;TYPE:Custom
G28 ; home all axes
G1 Z5 F5000 ; lift nozzle
M109 S230 ; set temperature and wait for it to be reached
G21 ; set units to millimeters
G90 ; use absolute coordinates
M82 ; use absolute distances for extrusion
G92 E0
; Filament gcode
;LAYER_CHANGE
;Z:0.35
;HEIGHT:0.35
G1 Z0.350 F6600.000
G1 E-4.00000 F2400.000
G92 E0
G1 Z0.450 F6600.000
G1 X90.580 Y59.146
G1 Z0.350
G1 E4.00000 F2400.000
;TYPE:Skirt
;WIDTH:0.42
G1 X90.911 Y58.700 E4.02786
G1 X96.744 Y52.869 E4.44179
G1 X97.248 Y52.529 E4.47227
G1 X98.120 Y52.214 E4.51883
G1 X98.629 Y52.148 E4.54458
G1 X117.448 Y52.148 E5.48903
G1 X162.836 Y53.036 E7.76731
G1 X163.316 Y53.106 E7.79166
G1 X163.769 Y53.289 E7.81618
G1 X164.214 Y53.621 E7.84404
G1 X170.977 Y60.385 E8.32406
G1 X171.287 Y60.802 E8.35016
G1 X171.481 Y61.285 E8.37626
G1 X171.546 Y61.805 E8.40254
G1 X171.390 Y80.817 E9.35672
G1 X171.323 Y81.304 E9.38142
G1 X171.138 Y81.765 E9.40629
G1 X170.807 Y82.210 E9.43415
G1 X164.947 Y88.064 E9.84985
G1 X164.363 Y88.426 E9.88435
G1 X163.246 Y88.753 E9.94275
G1 X140.818 Y89.460 E11.06887
G1 X121.934 Y89.460 E12.01658
G1 X98.780 Y87.866 E13.18133
G1 X97.952 Y87.619 E13.22468
G1 X97.507 Y87.287 E13.25253
G1 X90.745 Y80.525 E13.73247
G1 X90.435 Y80.108 E13.75857
G1 X90.239 Y79.622 E13.78485
G1 X90.174 Y79.102 E13.81113
G1 X90.330 Y60.090 E14.76531
G1 X90.397 Y59.602 E14.79001
G1 X90.558 Y59.201 E14.81170
G1 X90.876 Y59.330 F6600.000
G1 F2400.000
G1 X91.160 Y58.938 E14.83596
G1 X96.976 Y53.124 E15.24866
G1 X97.406 Y52.836 E15.27467
G1 X98.215 Y52.545 E15.31782
G1 X98.632 Y52.492 E15.33887
G1 X117.448 Y52.492 E16.28320
G1 X162.825 Y53.381 E18.56093
G1 X163.594 Y53.586 E18.60085
G1 X163.972 Y53.866 E18.62446
G1 X170.724 Y60.619 E19.10372
G1 X170.985 Y60.968 E19.12558
G1 X171.147 Y61.372 E19.14744
G1 X171.201 Y61.805 E19.16930
G1 X171.046 Y80.809 E20.12310
G1 X170.840 Y81.591 E20.16364
G1 X170.560 Y81.969 E20.18726
G1 X164.725 Y87.800 E20.60124
G1 X164.232 Y88.107 E20.63043
G1 X163.217 Y88.409 E20.68357
G1 X140.810 Y89.115 E21.80865
G1 X121.940 Y89.115 E22.75562
G1 X98.805 Y87.522 E23.91943
G1 X98.112 Y87.313 E23.95573
G1 X97.746 Y87.038 E23.97871
G1 X90.996 Y80.288 E24.45782
G1 X90.735 Y79.939 E24.47968
G1 X90.573 Y79.535 E24.50154
G1 X90.519 Y79.102 E24.52340
G1 X90.674 Y60.098 E25.47720
G1 X90.731 Y59.688 E25.49794
G1 X90.854 Y59.385 E25.51433
G1 X91.188 Y59.475 F6600.000
G1 F2400.000
G1 X97.208 Y53.379 E25.94429
G1 X97.564 Y53.142 E25.96577
G1 X98.305 Y52.879 E26.00520
G1 X117.448 Y52.837 E26.96594
G1 X162.818 Y53.726 E29.24330
G1 X163.424 Y53.887 E29.27478
G1 X163.732 Y54.114 E29.29398
G1 X170.474 Y60.857 E29.77254
G1 X170.813 Y61.459 E29.80723
G1 X170.701 Y80.802 E30.77799
G1 X170.540 Y81.420 E30.81003
G1 X170.313 Y81.728 E30.82923
G1 X164.499 Y87.539 E31.24176
G1 X164.100 Y87.788 E31.26537
G1 X163.190 Y88.066 E31.31314
G1 X140.804 Y88.770 E32.43712
G1 X121.946 Y88.770 E33.38353
G1 X98.833 Y87.178 E34.54623
G1 X98.275 Y87.009 E34.57548
G1 X91.246 Y80.050 E35.07190
G1 X90.906 Y79.445 E35.10673
G1 X91.019 Y60.105 E36.07735
G1 X91.173 Y59.533 E36.10704
G1 E32.10704
G92 E0
G1 Z0.450 F6600.000
G1 X92.209 Y79.111
G1 Z0.350
G1 E4.00000 F2400.000
;TYPE:Support material
G1 X94.649 Y81.551 E4.17317
G1 X95.345 Y81.551 E4.20814
G1 X92.364 Y78.570 E4.41974
G1 X92.364 Y77.873 E4.45471
G1 X96.197 Y81.706 E4.72679
G1 X96.494 Y83.397 F6600.000
G1 F2400.000
G1 X98.934 Y85.837 E4.89996
G1 X99.631 Y85.837 E4.93492
G1 X96.650 Y82.855 E5.14653
G1 X96.650 Y82.158 E5.18150
G1 X100.328 Y85.837 E5.44256
G1 X101.025 Y85.837 E5.47753
G1 X92.364 Y77.176 E6.09220
G1 X92.364 Y76.479 E6.12717
G1 X101.721 Y85.837 E6.79130
G1 X102.418 Y85.837 E6.82627
G1 X92.364 Y75.782 E7.53986
G1 X92.364 Y75.086 E7.57483
G1 X103.115 Y85.837 E8.33786
G1 X103.812 Y85.837 E8.37283
G1 X92.364 Y74.389 E9.18532
G1 X92.364 Y73.692 E9.22029
G1 X104.508 Y85.837 E10.08223
G1 X105.205 Y85.837 E10.11720
G1 X92.364 Y72.995 E11.02860
G1 X92.364 Y72.299 E11.06357
G1 X105.902 Y85.837 E12.02442
G1 X106.599 Y85.837 E12.05939
G1 X92.364 Y71.602 E13.06969
G1 X92.364 Y70.905 E13.10466
G1 X107.296 Y85.837 E14.16442
G1 X107.992 Y85.837 E14.19938
G1 X92.364 Y70.208 E15.30859
G1 X92.364 Y69.511 E15.34356
G1 X108.689 Y85.837 E16.50222
G1 X109.386 Y85.837 E16.53719
G1 X92.364 Y68.815 E17.74531
G1 X92.364 Y68.118 E17.78028
G1 X110.083 Y85.837 E19.03785
G1 X110.779 Y85.837 E19.07281
G1 X92.364 Y67.421 E20.37984
G1 X92.364 Y66.724 E20.41480
G1 X111.476 Y85.837 E21.77128
G1 X112.173 Y85.837 E21.80625
G1 X92.364 Y66.027 E23.21218
G1 X92.364 Y65.331 E23.24714
G1 X112.870 Y85.837 E24.70252
G1 X113.567 Y85.837 E24.73749
G1 X92.364 Y64.634 E26.24233
G1 X92.364 Y63.937 E26.27730
G1 X114.263 Y85.837 E27.83158
G1 X114.960 Y85.837 E27.86655
G1 X92.364 Y63.240 E29.47029
G1 X92.364 Y62.544 E29.50526
G1 X115.657 Y85.837 E31.15845
G1 X116.354 Y85.837 E31.19342
G1 X92.364 Y61.847 E32.89607
G1 X92.364 Y61.150 E32.93104
G1 X117.051 Y85.837 E34.68314
G1 X117.747 Y85.837 E34.71811
G1 X92.364 Y60.453 E36.51966
G1 X92.364 Y60.124 E36.53617
G1 X92.548 Y59.940 E36.54922
G1 X118.260 Y85.653 E38.37413
G1 X118.609 Y85.304 E38.39886
G1 X92.896 Y59.592 E40.22376
G1 X93.245 Y59.244 E40.24849
G1 X118.957 Y84.956 E42.07340
G1 X119.305 Y84.608 E42.09813
G1 X93.593 Y58.895 E43.92303
G1 X93.941 Y58.547 E43.94776
G1 X119.654 Y84.259 E45.77267
G1 X119.733 Y84.180 E45.77827
G1 X119.733 Y83.641 E45.80532
G1 X94.559 Y58.468 E47.59197
G1 X95.256 Y58.468 E47.62694
G1 X119.733 Y82.945 E49.36415
G1 X119.733 Y82.248 E49.39912
G1 X95.953 Y58.468 E51.08687
G1 X96.650 Y58.468 E51.12183
G1 X119.733 Y81.551 E52.76014
G1 X120.429 Y81.551 E52.79510
G1 X96.650 Y57.771 E54.48285
G1 X96.650 Y57.074 E54.51782
G1 X121.126 Y81.551 E56.25503
G1 X121.823 Y81.551 E56.29000
G1 X96.650 Y56.377 E58.07665
G1 X96.650 Y55.839 E58.10370
G1 X96.728 Y55.760 E58.10930
G1 X122.441 Y81.472 E59.93421
G1 X122.789 Y81.124 E59.95894
G1 X97.077 Y55.411 E61.78385
G1 X97.425 Y55.063 E61.80857
G1 X123.138 Y80.775 E63.63348
G1 X123.486 Y80.427 E63.65821
G1 X97.774 Y54.714 E65.48311
G1 X98.122 Y54.366 E65.50784
G1 X123.834 Y80.079 E67.33275
G1 X124.018 Y79.895 E67.34580
G1 X124.018 Y79.566 E67.36231
G1 X98.635 Y54.182 E69.16386
G1 X99.332 Y54.182 E69.19883
G1 X124.018 Y78.869 E70.95093
G1 X124.018 Y78.172 E70.98590
G1 X100.029 Y54.182 E72.68855
G1 X100.725 Y54.182 E72.72352
G1 X124.018 Y77.475 E74.37671
G1 X124.018 Y76.779 E74.41168
G1 X101.422 Y54.182 E76.01542
G1 X102.119 Y54.182 E76.05039
G1 X124.018 Y76.082 E77.60467
G1 X124.018 Y75.385 E77.63964
G1 X102.816 Y54.182 E79.14448
G1 X103.512 Y54.182 E79.17945
G1 X124.018 Y74.688 E80.63483
G1 X124.018 Y73.991 E80.66980
G1 X104.209 Y54.182 E82.07572
G1 X104.906 Y54.182 E82.11069
G1 X124.018 Y73.295 E83.46717
G1 X124.018 Y72.598 E83.50213
G1 X105.603 Y54.182 E84.80916
G1 X106.300 Y54.182 E84.84413
G1 X124.018 Y71.901 E86.10169
G1 X124.018 Y71.204 E86.13666
G1 X106.996 Y54.182 E87.34478
G1 X107.693 Y54.182 E87.37975
G1 X124.018 Y70.508 E88.53841
G1 X124.018 Y69.811 E88.57338
G1 X108.390 Y54.182 E89.68259
G1 X109.087 Y54.182 E89.71755
G1 X124.018 Y69.114 E90.77731
G1 X124.018 Y68.417 E90.81228
G1 X109.783 Y54.182 E91.82258
G1 X110.480 Y54.182 E91.85755
G1 X124.018 Y67.720 E92.81840
G1 X124.018 Y67.024 E92.85337
G1 X111.177 Y54.182 E93.76477
G1 X111.874 Y54.182 E93.79974
G1 X124.018 Y66.327 E94.66168
G1 X124.018 Y65.630 E94.69665
G1 X112.571 Y54.182 E95.50914
G1 X113.267 Y54.182 E95.54411
G1 X124.018 Y64.933 E96.30714
G1 X124.018 Y64.236 E96.34211
G1 X113.964 Y54.182 E97.05570
G1 X114.661 Y54.182 E97.09067
G1 X124.018 Y63.540 E97.75480
G1 X124.018 Y62.843 E97.78977
G1 X115.358 Y54.182 E98.40444
G1 X116.055 Y54.182 E98.43941
G1 X119.733 Y57.860 E98.70047
G1 X119.733 Y58.468 E98.73095
G1 X120.340 Y58.468 E98.76143
G1 X124.018 Y62.146 E99.02249
G1 X124.018 Y61.449 E99.05746
G1 X121.037 Y58.468 E99.26907
G1 X121.734 Y58.468 E99.30404
G1 X124.174 Y60.908 E99.47721
G1 E95.47721
G92 E0
G1 Z0.450 F6600.000
G1 X119.888 Y57.319
G1 Z0.350
G1 E4.00000 F2400.000
G1 X116.751 Y54.182 E4.22262
G1 X117.448 Y54.182 E4.25759
G1 X119.888 Y56.622 E4.43076
G1 E0.43076
G92 E0
G1 Z0.450 F6600.000
G1 X142.923 Y58.211
G1 Z0.350
G1 E4.00000 F2400.000
G1 X140.483 Y55.771 E4.17317
G1 X139.786 Y55.771 E4.20814
G1 X142.923 Y58.908 E4.43076
G1 E0.43076
G92 E0
G1 Z0.450 F6600.000
G1 X147.208 Y62.497
G1 Z0.350
G1 E4.00000 F2400.000
G1 X144.769 Y60.057 E4.17317
G1 X144.072 Y60.057 E4.20814
G1 X147.053 Y63.038 E4.41974
G1 X147.053 Y63.735 E4.45471
G1 X143.375 Y60.057 E4.71577
G1 X142.768 Y60.057 E4.74625
G1 X142.768 Y59.449 E4.77673
G1 X139.089 Y55.771 E5.03779
G1 X138.393 Y55.771 E5.07276
G1 X147.053 Y64.432 E5.68744
G1 X147.053 Y65.129 E5.72241
G1 X137.696 Y55.771 E6.38654
G1 X136.999 Y55.771 E6.42151
G1 X147.053 Y65.825 E7.13509
G1 X147.053 Y66.522 E7.17006
G1 X136.302 Y55.771 E7.93310
G1 X135.606 Y55.771 E7.96807
G1 X147.053 Y67.219 E8.78056
G1 X147.053 Y67.916 E8.81553
G1 X134.909 Y55.771 E9.67747
G1 X134.212 Y55.771 E9.71244
G1 X147.053 Y68.613 E10.62384
G1 X147.053 Y69.309 E10.65881
G1 X133.515 Y55.771 E11.61965
G1 X132.818 Y55.771 E11.65462
G1 X147.053 Y70.006 E12.66493
G1 X147.053 Y70.703 E12.69990
G1 X132.122 Y55.771 E13.75965
G1 X131.425 Y55.771 E13.79462
G1 X147.053 Y71.400 E14.90383
G1 X147.053 Y72.096 E14.93880
G1 X130.728 Y55.771 E16.09746
G1 X130.031 Y55.771 E16.13243
G1 X147.053 Y72.793 E17.34054
G1 X147.053 Y73.490 E17.37551
G1 X129.334 Y55.771 E18.63308
G1 X128.638 Y55.771 E18.66805
G1 X147.053 Y74.187 E19.97507
G1 X147.053 Y74.884 E20.01004
G1 X127.941 Y55.771 E21.36651
G1 X127.244 Y55.771 E21.40148
G1 X147.053 Y75.580 E22.80741
G1 X147.053 Y76.277 E22.84238
G1 X126.547 Y55.771 E24.29776
G1 X125.851 Y55.771 E24.33273
G1 X147.053 Y76.974 E25.83756
G1 X147.053 Y77.671 E25.87253
G1 X125.154 Y55.771 E27.42682
G1 X124.457 Y55.771 E27.46179
G1 X147.053 Y78.367 E29.06553
G1 X147.053 Y79.064 E29.10050
G1 X123.760 Y55.771 E30.75369
G1 X123.063 Y55.771 E30.78866
G1 X147.053 Y79.761 E32.49131
G1 X147.053 Y80.458 E32.52627
G1 X122.367 Y55.771 E34.27837
G1 X121.670 Y55.771 E34.31334
G1 X147.053 Y81.155 E36.11489
G1 X147.053 Y81.484 E36.13141
G1 X146.869 Y81.668 E36.14446
G1 X121.157 Y55.955 E37.96937
G1 X120.809 Y56.303 E37.99409
G1 X146.521 Y82.016 E39.81900
G1 X146.173 Y82.364 E39.84373
G1 X120.460 Y56.652 E41.66863
G1 X120.112 Y57.000 E41.69336
G1 X145.824 Y82.713 E43.51827
G1 X145.476 Y83.061 E43.54300
G1 X119.763 Y57.349 E45.36790
G1 X119.684 Y57.427 E45.37351
G1 X119.684 Y57.966 E45.40055
G1 X144.858 Y83.140 E47.18721
G1 X144.161 Y83.140 E47.22218
G1 X119.684 Y58.663 E48.95938
G1 X119.684 Y59.360 E48.99435
G1 X143.464 Y83.140 E50.68210
G1 X142.768 Y83.140 E50.71707
G1 X119.684 Y60.057 E52.35537
G1 X118.988 Y60.057 E52.39034
G1 X142.768 Y83.837 E54.07809
G1 X142.768 Y84.534 E54.11306
G1 X118.291 Y60.057 E55.85026
G1 X117.594 Y60.057 E55.88523
G1 X142.768 Y85.230 E57.67189
G1 X142.768 Y85.769 E57.69894
G1 X142.689 Y85.848 E57.70454
G1 X116.976 Y60.136 E59.52945
G1 X116.628 Y60.484 E59.55417
G1 X142.340 Y86.197 E61.37908
G1 X141.992 Y86.545 E61.40381
G1 X116.279 Y60.832 E63.22872
G1 X115.931 Y61.181 E63.25344
G1 X141.644 Y86.893 E65.07835
G1 X141.295 Y87.242 E65.10308
G1 X115.583 Y61.529 E66.92799
G1 X115.399 Y61.713 E66.94104
G1 X115.399 Y62.042 E66.95755
G1 X140.782 Y87.426 E68.75910
G1 X140.085 Y87.426 E68.79407
G1 X115.399 Y62.739 E70.54617
G1 X115.399 Y63.436 E70.58114
G1 X139.389 Y87.426 E72.28378
G1 X138.692 Y87.426 E72.31875
G1 X115.399 Y64.132 E73.97195
G1 X115.399 Y64.829 E74.00691
G1 X137.995 Y87.426 E75.61065
G1 X137.298 Y87.426 E75.64562
G1 X115.399 Y65.526 E77.19991
G1 X115.399 Y66.223 E77.23488
G1 X136.602 Y87.426 E78.73971
G1 X135.905 Y87.426 E78.77468
G1 X115.399 Y66.920 E80.23006
G1 X115.399 Y67.616 E80.26503
G1 X135.208 Y87.426 E81.67096
G1 X134.511 Y87.426 E81.70593
G1 X115.399 Y68.313 E83.06240
G1 X115.399 Y69.010 E83.09737
G1 X133.814 Y87.426 E84.40439
G1 X133.118 Y87.426 E84.43936
G1 X115.399 Y69.707 E85.69693
G1 X115.399 Y70.404 E85.73190
G1 X132.421 Y87.426 E86.94001
G1 X131.724 Y87.426 E86.97498
G1 X115.399 Y71.100 E88.13364
G1 X115.399 Y71.797 E88.16861
G1 X131.027 Y87.426 E89.27782
G1 X130.330 Y87.426 E89.31279
G1 X115.399 Y72.494 E90.37255
G1 X115.399 Y73.191 E90.40752
G1 X129.634 Y87.426 E91.41782
G1 X128.937 Y87.426 E91.45279
G1 X115.399 Y73.887 E92.41364
G1 X115.399 Y74.584 E92.44861
G1 X128.240 Y87.426 E93.36000
G1 X127.543 Y87.426 E93.39497
G1 X115.399 Y75.281 E94.25692
G1 X115.399 Y75.978 E94.29188
G1 X126.847 Y87.426 E95.10437
G1 X126.150 Y87.426 E95.13934
G1 X115.399 Y76.675 E95.90238
G1 X115.399 Y77.371 E95.93735
G1 X125.453 Y87.426 E96.65093
G1 X124.756 Y87.426 E96.68590
G1 X115.399 Y78.068 E97.35003
G1 X115.399 Y78.765 E97.38500
G1 X124.059 Y87.426 E97.99968
G1 X123.363 Y87.426 E98.03465
G1 X119.684 Y83.747 E98.29571
G1 X119.684 Y84.444 E98.33068
G1 X122.666 Y87.426 E98.54228
G1 X121.969 Y87.426 E98.57725
G1 X119.529 Y84.986 E98.75042
G1 X119.232 Y83.295 F6600.000
G1 F2400.000
G1 X115.399 Y79.462 E99.02249
G1 X115.399 Y80.158 E99.05746
G1 X118.380 Y83.140 E99.26907
G1 X117.684 Y83.140 E99.30404
G1 X115.244 Y80.700 E99.47721
G1 E95.47721
G92 E0
G1 Z0.450 F6600.000
G1 X137.546 Y79.999
G1 Z0.350
G1 E4.00000 F2400.000
G1 X139.986 Y82.439 E4.17317
G1 X140.683 Y82.439 E4.20814
G1 X137.702 Y79.458 E4.41974
G1 X137.702 Y78.761 E4.45471
G1 X141.535 Y82.594 E4.72679
G1 X141.832 Y84.285 F6600.000
G1 F2400.000
G1 X144.272 Y86.725 E4.89996
G1 X144.969 Y86.725 E4.93492
G1 X141.987 Y83.743 E5.14653
G1 X141.987 Y83.046 E5.18150
G1 X145.665 Y86.725 E5.44256
G1 X146.362 Y86.725 E5.47753
G1 X137.702 Y78.064 E6.09220
G1 X137.702 Y77.367 E6.12717
G1 X147.059 Y86.725 E6.79130
G1 X147.756 Y86.725 E6.82627
G1 X137.702 Y76.670 E7.53986
G1 X137.702 Y75.974 E7.57483
G1 X148.453 Y86.725 E8.33786
G1 X149.149 Y86.725 E8.37283
G1 X137.702 Y75.277 E9.18532
G1 X137.702 Y74.580 E9.22029
G1 X149.846 Y86.725 E10.08223
G1 X150.543 Y86.725 E10.11720
G1 X137.702 Y73.883 E11.02860
G1 X137.702 Y73.187 E11.06357
G1 X151.240 Y86.725 E12.02442
G1 X151.937 Y86.725 E12.05939
G1 X137.702 Y72.490 E13.06969
G1 X137.702 Y71.793 E13.10466
G1 X152.633 Y86.725 E14.16442
G1 X153.330 Y86.725 E14.19938
G1 X137.702 Y71.096 E15.30859
G1 X137.702 Y70.399 E15.34356
G1 X154.027 Y86.725 E16.50222
G1 X154.724 Y86.725 E16.53719
G1 X137.702 Y69.703 E17.74531
G1 X137.702 Y69.006 E17.78028
G1 X155.420 Y86.725 E19.03785
G1 X156.117 Y86.725 E19.07281
G1 X137.702 Y68.309 E20.37984
G1 X137.702 Y67.612 E20.41480
G1 X156.814 Y86.725 E21.77128
G1 X157.511 Y86.725 E21.80625
G1 X137.702 Y66.916 E23.21218
G1 X137.702 Y66.219 E23.24714
G1 X158.208 Y86.725 E24.70252
G1 X158.904 Y86.725 E24.73749
G1 X137.702 Y65.522 E26.24233
G1 X137.702 Y64.825 E26.27730
G1 X159.601 Y86.725 E27.83158
G1 X160.298 Y86.725 E27.86655
G1 X137.702 Y64.128 E29.47029
G1 X137.702 Y63.432 E29.50526
G1 X160.995 Y86.725 E31.15845
G1 X161.691 Y86.725 E31.19342
G1 X137.702 Y62.735 E32.89607
G1 X137.702 Y62.038 E32.93104
G1 X162.388 Y86.725 E34.68314
G1 X163.085 Y86.725 E34.71811
G1 X137.702 Y61.341 E36.51966
G1 X137.702 Y61.012 E36.53617
G1 X137.886 Y60.828 E36.54922
G1 X163.598 Y86.541 E38.37413
G1 X163.946 Y86.192 E38.39886
G1 X138.234 Y60.480 E40.22376
G1 X138.582 Y60.132 E40.24849
G1 X164.295 Y85.844 E42.07340
G1 X164.643 Y85.496 E42.09813
G1 X138.931 Y59.783 E43.92303
G1 X139.279 Y59.435 E43.94776
G1 X164.992 Y85.147 E45.77267
G1 X165.070 Y85.068 E45.77827
G1 X165.070 Y84.529 E45.80532
G1 X139.897 Y59.356 E47.59197
G1 X140.594 Y59.356 E47.62694
G1 X165.070 Y83.833 E49.36415
G1 X165.070 Y83.136 E49.39912
G1 X141.291 Y59.356 E51.08687
G1 X141.987 Y59.356 E51.12183
G1 X165.070 Y82.439 E52.76014
