; generated by PrusaSlicer 2.3.1+win64 on 2021-07-11 at 20:12:39 UTC

; 

; external perimeters extrusion width = 0.45mm
; perimeters extrusion width = 0.45mm
; infill extrusion width = 0.45mm
; solid infill extrusion width = 0.45mm
; top infill extrusion width = 0.40mm
; support material extrusion width = 0.35mm
; first layer extrusion width = 0.42mm

M107
M190 S80 ; set bed temperature and wait for it to be reached
M104 S230 ; set temperature
;TYPE:Custom
G28 ; home all axes
G1 Z5 F5000 ; lift nozzle
M109 S230 ; set temperature and wait for it to be reached
G21 ; set units to millimeters
G90 ; use absolute coordinates
M82 ; use absolute distances for extrusion
G92 E0
; Filament gcode
;LAYER_CHANGE
;Z:0.35
;HEIGHT:0.35
G1 Z0.350 F6600.000
G1 E-4.00000 F2400.000
G92 E0
G1 Z0.450 F6600.000
G1 X124.272 Y81.190
G1 Z0.350
G1 E4.00000 F2400.000
;TYPE:Skirt
;WIDTH:0.42
G1 X126.122 Y79.355 E4.13075
G1 X126.638 Y79.069 E4.16035
G1 X127.210 Y78.943 E4.18978
G1 X155.665 Y78.938 E5.61781
G1 X156.422 Y79.085 E5.65649
G1 X157.067 Y79.501 E5.69499
G1 X159.108 Y81.561 E5.84053
G1 X159.399 Y82.066 E5.86979
G1 X159.536 Y82.632 E5.89905
G1 X159.389 Y110.587 E7.30198
G1 X159.153 Y111.746 E7.36133
G1 X158.782 Y112.409 E7.39949
G1 X156.924 Y114.251 E7.53076
G1 X156.397 Y114.538 E7.56089
G1 X155.809 Y114.659 E7.59102
G1 X127.361 Y114.661 E9.01870
G1 X126.682 Y114.533 E9.05337
G1 X126.085 Y114.186 E9.08804
G1 X123.941 Y112.030 E9.24065
G1 X123.640 Y111.494 E9.27148
G1 X123.513 Y110.890 E9.30248
G1 X123.666 Y83.009 E10.70172
G1 X123.901 Y81.854 E10.76090
G1 X124.243 Y81.242 E10.79604
G1 X124.540 Y81.409 F6600.000
G1 F2400.000
G1 X126.313 Y79.643 E10.92159
G1 X126.750 Y79.395 E10.94680
G1 X127.240 Y79.287 E10.97201
G1 X155.665 Y79.283 E12.39854
G1 X156.295 Y79.406 E12.43074
G1 X156.833 Y79.755 E12.46293
G1 X158.825 Y81.759 E12.60476
G1 X159.077 Y82.190 E12.62981
G1 X159.193 Y82.675 E12.65486
G1 X159.044 Y110.575 E14.05505
G1 X158.828 Y111.630 E14.10908
G1 X158.512 Y112.195 E14.14160
G1 X156.737 Y113.960 E14.26721
G1 X156.290 Y114.210 E14.29290
G1 X155.789 Y114.314 E14.31859
G1 X127.370 Y114.317 E15.74479
G1 X126.799 Y114.209 E15.77398
G1 X126.300 Y113.916 E15.80301
G1 X124.226 Y111.835 E15.95046
G1 X123.967 Y111.383 E15.97663
G1 X123.858 Y110.870 E16.00296
G1 X124.011 Y83.024 E17.40041
G1 X124.226 Y81.969 E17.45445
G1 X124.511 Y81.461 E17.48368
G1 X124.807 Y81.627 F6600.000
G1 F2400.000
G1 X126.510 Y79.928 E17.60439
G1 X126.867 Y79.720 E17.62516
G1 X127.269 Y79.630 E17.64578
G1 X155.665 Y79.628 E19.07086
G1 X156.168 Y79.726 E19.09658
G1 X156.597 Y80.006 E19.12231
G1 X158.544 Y81.961 E19.26075
G1 X158.755 Y82.313 E19.28137
G1 X158.850 Y82.713 E19.30200
G1 X158.699 Y110.564 E20.69977
G1 X158.503 Y111.514 E20.74845
G1 X158.245 Y111.976 E20.77502
G1 X156.543 Y113.674 E20.89566
G1 X156.179 Y113.883 E20.91671
G1 X155.769 Y113.970 E20.93776
G1 X127.379 Y113.972 E22.36255
G1 X126.919 Y113.886 E22.38601
G1 X126.517 Y113.647 E22.40947
G1 X124.509 Y111.637 E22.55208
G1 X124.292 Y111.268 E22.57355
G1 X124.202 Y110.850 E22.59503
G1 X124.356 Y83.035 E23.99094
G1 X124.551 Y82.085 E24.03962
G1 X124.778 Y81.679 E24.06295
G1 E20.06295
G92 E0
G1 Z0.450 F6600.000
G1 X157.510 Y82.821
G1 Z0.350
G1 E4.00000 F2400.000
;TYPE:Support material
G1 X155.662 Y80.972 E4.13116
G1 X154.965 Y80.972 E4.16613
G1 X157.355 Y83.362 E4.33573
G1 X157.355 Y84.059 E4.37070
G1 X154.268 Y80.972 E4.58975
G1 X153.571 Y80.972 E4.62472
G1 X157.355 Y84.756 E4.89323
G1 X157.355 Y85.452 E4.92820
G1 X152.875 Y80.972 E5.24616
G1 X152.178 Y80.972 E5.28113
G1 X157.355 Y86.149 E5.64854
G1 X157.355 Y86.846 E5.68351
G1 X151.481 Y80.972 E6.10037
G1 X150.784 Y80.972 E6.13534
G1 X157.355 Y87.543 E6.60166
G1 X157.355 Y88.240 E6.63663
G1 X150.087 Y80.972 E7.15240
G1 X149.391 Y80.972 E7.18737
G1 X157.355 Y88.936 E7.75259
G1 X157.355 Y89.633 E7.78756
G1 X148.694 Y80.972 E8.40224
G1 X147.997 Y80.972 E8.43721
G1 X157.355 Y90.330 E9.10134
G1 X157.355 Y91.027 E9.13631
G1 X147.300 Y80.972 E9.84989
G1 X146.604 Y80.972 E9.88486
G1 X157.355 Y91.723 E10.64790
G1 X157.355 Y92.420 E10.68287
G1 X145.907 Y80.972 E11.49536
G1 X145.210 Y80.972 E11.53033
G1 X157.355 Y93.117 E12.39227
G1 X157.355 Y93.814 E12.42724
G1 X144.513 Y80.972 E13.33864
G1 X143.816 Y80.972 E13.37361
G1 X157.355 Y94.511 E14.33446
G1 X157.355 Y95.207 E14.36943
G1 X143.120 Y80.972 E15.37973
G1 X142.423 Y80.972 E15.41470
G1 X157.355 Y95.904 E16.47445
G1 X157.355 Y96.601 E16.50942
G1 X141.726 Y80.972 E17.61863
G1 X141.029 Y80.972 E17.65360
G1 X157.355 Y97.298 E18.81226
G1 X157.355 Y97.995 E18.84723
G1 X140.333 Y80.972 E20.05535
G1 X139.636 Y80.972 E20.09031
G1 X157.355 Y98.691 E21.34788
G1 X157.355 Y99.388 E21.38285
G1 X138.939 Y80.972 E22.68987
G1 X138.242 Y80.972 E22.72484
G1 X157.355 Y100.085 E24.08132
G1 X157.355 Y100.782 E24.11629
G1 X137.545 Y80.972 E25.52221
G1 X136.849 Y80.972 E25.55718
G1 X157.355 Y101.478 E27.01256
G1 X157.355 Y102.175 E27.04753
G1 X136.152 Y80.972 E28.55237
G1 X135.455 Y80.972 E28.58733
G1 X157.355 Y102.872 E30.14162
G1 X157.355 Y103.569 E30.17659
G1 X134.758 Y80.972 E31.78033
G1 X134.062 Y80.972 E31.81530
G1 X157.355 Y104.266 E33.46849
G1 X157.355 Y104.962 E33.50346
G1 X133.365 Y80.972 E35.20611
G1 X132.668 Y80.972 E35.24108
G1 X157.355 Y105.659 E36.99317
G1 X157.355 Y106.356 E37.02814
G1 X131.971 Y80.972 E38.82970
G1 X131.274 Y80.972 E38.86466
G1 X157.355 Y107.053 E40.71567
G1 X157.355 Y107.749 E40.75064
G1 X130.578 Y80.972 E42.65110
G1 X129.881 Y80.972 E42.68607
G1 X157.355 Y108.446 E44.63598
G1 X157.355 Y109.143 E44.67095
G1 X129.184 Y80.972 E46.67031
G1 X128.487 Y80.972 E46.70528
G1 X157.355 Y109.840 E48.75410
G1 X157.355 Y110.537 E48.78907
G1 X127.791 Y80.972 E50.88734
G1 X127.356 Y80.972 E50.90912
G1 X127.225 Y81.104 E50.91845
G1 X157.223 Y111.102 E53.04752
G1 X156.875 Y111.450 E53.07225
G1 X126.877 Y81.452 E55.20132
G1 X126.528 Y81.801 E55.22605
G1 X156.526 Y111.799 E57.35512
G1 X156.178 Y112.147 E57.37985
G1 X126.180 Y82.149 E59.50892
G1 X125.832 Y82.497 E59.53365
G1 X155.830 Y112.496 E61.66272
G1 X155.698 Y112.627 E61.67204
G1 X155.264 Y112.627 E61.69383
G1 X125.700 Y83.063 E63.79210
G1 X125.700 Y83.760 E63.82707
G1 X154.567 Y112.627 E65.87589
G1 X153.871 Y112.627 E65.91085
G1 X125.700 Y84.456 E67.91022
G1 X125.700 Y85.153 E67.94519
G1 X153.174 Y112.627 E69.89510
G1 X152.477 Y112.627 E69.93007
G1 X125.700 Y85.850 E71.83053
G1 X125.700 Y86.547 E71.86550
G1 X151.780 Y112.627 E73.71650
G1 X151.083 Y112.627 E73.75147
G1 X125.700 Y87.243 E75.55302
G1 X125.700 Y87.940 E75.58799
G1 X150.387 Y112.627 E77.34009
G1 X149.690 Y112.627 E77.37506
G1 X125.700 Y88.637 E79.07771
G1 X125.700 Y89.334 E79.11267
G1 X148.993 Y112.627 E80.76587
G1 X148.296 Y112.627 E80.80084
G1 X125.700 Y90.031 E82.40458
G1 X125.700 Y90.727 E82.43955
G1 X147.600 Y112.627 E83.99383
G1 X146.903 Y112.627 E84.02880
G1 X125.700 Y91.424 E85.53364
G1 X125.700 Y92.121 E85.56860
G1 X146.206 Y112.627 E87.02398
G1 X145.509 Y112.627 E87.05895
G1 X125.700 Y92.818 E88.46488
G1 X125.700 Y93.514 E88.49985
G1 X144.812 Y112.627 E89.85632
G1 X144.116 Y112.627 E89.89129
G1 X125.700 Y94.211 E91.19831
G1 X125.700 Y94.908 E91.23328
G1 X143.419 Y112.627 E92.49085
G1 X142.722 Y112.627 E92.52582
G1 X125.700 Y95.605 E93.73394
G1 X125.700 Y96.302 E93.76890
G1 X142.025 Y112.627 E94.92757
G1 X141.329 Y112.627 E94.96254
G1 X125.700 Y96.998 E96.07174
G1 X125.700 Y97.695 E96.10671
G1 X140.632 Y112.627 E97.16647
G1 X139.935 Y112.627 E97.20144
G1 X125.700 Y98.392 E98.21174
G1 X125.700 Y99.089 E98.24671
G1 X139.238 Y112.627 E99.20756
G1 X138.541 Y112.627 E99.24253
G1 X125.700 Y99.786 E100.15393
G1 X125.700 Y100.482 E100.18889
G1 X137.845 Y112.627 E101.05084
G1 X137.148 Y112.627 E101.08581
G1 X125.700 Y101.179 E101.89830
G1 X125.700 Y101.876 E101.93327
G1 X136.451 Y112.627 E102.69630
G1 X135.754 Y112.627 E102.73127
G1 X125.700 Y102.573 E103.44486
G1 X125.700 Y103.269 E103.47983
G1 X135.058 Y112.627 E104.14396
G1 X134.361 Y112.627 E104.17893
G1 X125.700 Y103.966 E104.79360
G1 X125.700 Y104.663 E104.82857
G1 X133.664 Y112.627 E105.39380
G1 X132.967 Y112.627 E105.42877
G1 X125.700 Y105.360 E105.94454
G1 X125.700 Y106.057 E105.97951
G1 X132.270 Y112.627 E106.44583
G1 X131.574 Y112.627 E106.48079
G1 X125.700 Y106.753 E106.89766
G1 X125.700 Y107.450 E106.93263
G1 X130.877 Y112.627 E107.30004
G1 X130.180 Y112.627 E107.33501
G1 X125.700 Y108.147 E107.65297
G1 X125.700 Y108.844 E107.68794
G1 X129.483 Y112.627 E107.95644
G1 X128.787 Y112.627 E107.99141
G1 X125.700 Y109.540 E108.21047
G1 X125.700 Y110.237 E108.24544
G1 X128.090 Y112.627 E108.41504
G1 X127.393 Y112.627 E108.45000
G1 X125.545 Y110.779 E108.58117
;LAYER_CHANGE
;Z:0.65
;HEIGHT:0.3
G1 Z0.650 F6600.000
M104 S200 ; set temperature
M140 S60 ; set bed temperature
G1 E104.58117 F2400.000
G92 E0
G1 Z0.750 F6600.000
G1 X123.577 Y111.192
G1 Z0.650
G1 E4.00000 F2400.000
;TYPE:Skirt
G1 F3600.000
G1 X123.513 Y110.890 E4.01370
G1 X123.666 Y83.009 E5.25036
G1 X123.901 Y81.854 E5.30266
G1 X124.272 Y81.190 E5.33638
G1 X126.122 Y79.355 E5.45193
G1 X126.638 Y79.069 E5.47810
G1 X127.210 Y78.943 E5.50411
G1 X155.665 Y78.938 E6.76622
G1 X156.422 Y79.085 E6.80040
G1 X157.067 Y79.501 E6.83443
G1 X159.108 Y81.561 E6.96306
G1 X159.399 Y82.066 E6.98892
G1 X159.536 Y82.632 E7.01478
G1 X159.389 Y110.587 E8.25471
G1 X159.153 Y111.746 E8.30716
G1 X158.782 Y112.409 E8.34088
G1 X156.924 Y114.251 E8.45690
G1 X156.397 Y114.538 E8.48353
G1 X155.809 Y114.659 E8.51016
G1 X127.361 Y114.661 E9.77196
G1 X126.682 Y114.533 E9.80260
G1 X126.085 Y114.186 E9.83324
G1 X123.941 Y112.030 E9.96812
G1 X123.640 Y111.494 E9.99537
G1 X123.589 Y111.251 E10.00641
G1 X123.924 Y111.180 F6600.000
G1 F3600.000
G1 X123.858 Y110.870 E10.02047
G1 X124.011 Y83.024 E11.25555
G1 X124.226 Y81.969 E11.30331
G1 X124.543 Y81.404 E11.33205
G1 X126.313 Y79.643 E11.44278
G1 X126.750 Y79.395 E11.46506
G1 X127.240 Y79.287 E11.48734
G1 X155.665 Y79.283 E12.74812
G1 X156.295 Y79.406 E12.77658
G1 X156.833 Y79.755 E12.80504
G1 X158.825 Y81.759 E12.93038
G1 X159.077 Y82.190 E12.95252
G1 X159.193 Y82.675 E12.97466
G1 X159.044 Y110.575 E14.21216
G1 X158.828 Y111.630 E14.25992
G1 X158.512 Y112.195 E14.28866
G1 X156.737 Y113.960 E14.39968
G1 X156.290 Y114.210 E14.42238
G1 X155.789 Y114.314 E14.44508
G1 X127.370 Y114.317 E15.70558
G1 X126.799 Y114.209 E15.73137
G1 X126.300 Y113.916 E15.75703
G1 X124.226 Y111.835 E15.88735
G1 X123.967 Y111.383 E15.91048
G1 X123.936 Y111.238 E15.91702
G1 X124.270 Y111.166 F6600.000
G1 F3600.000
G1 X124.202 Y110.850 E15.93139
G1 X124.356 Y83.035 E17.16511
G1 X124.551 Y82.085 E17.20813
G1 X124.810 Y81.623 E17.23161
G1 X126.510 Y79.928 E17.33811
G1 X126.867 Y79.720 E17.35647
G1 X127.269 Y79.630 E17.37469
G1 X155.665 Y79.628 E18.63419
G1 X156.168 Y79.726 E18.65693
G1 X156.597 Y80.006 E18.67966
G1 X158.544 Y81.961 E18.80202
G1 X158.755 Y82.313 E18.82024
G1 X158.850 Y82.713 E18.83847
G1 X158.699 Y110.564 E20.07384
G1 X158.503 Y111.514 E20.11686
G1 X158.245 Y111.976 E20.14034
G1 X156.543 Y113.674 E20.24697
G1 X156.179 Y113.883 E20.26557
G1 X155.769 Y113.970 E20.28418
G1 X127.379 Y113.972 E21.54342
G1 X126.919 Y113.886 E21.56415
G1 X126.517 Y113.647 E21.58489
G1 X124.509 Y111.637 E21.71093
G1 X124.292 Y111.268 E21.72991
G1 X124.283 Y111.225 E21.73185
G1 E17.73185 F2400.000
G92 E0
G1 Z0.750 F6600.000
G1 X154.384 Y109.785
G1 Z0.650
G1 E4.00000 F2400.000
;TYPE:Support material interface
;WIDTH:0.35
G1 F3600.000
G1 X154.384 Y83.943 E4.92061
G1 X153.098 Y83.943 E4.96640
G1 X153.098 Y109.657 E5.88243
G1 X151.812 Y109.657 E5.92823
G1 X151.812 Y83.943 E6.84426
G1 X150.527 Y83.943 E6.89006
G1 X150.527 Y109.657 E7.80608
G1 X149.241 Y109.657 E7.85188
G1 X149.241 Y83.943 E8.76791
G1 X147.955 Y83.943 E8.81371
G1 X147.955 Y109.657 E9.72974
G1 X146.670 Y109.657 E9.77554
G1 X146.670 Y83.943 E10.69156
G1 X145.384 Y83.943 E10.73736
G1 X145.384 Y109.657 E11.65339
G1 X144.099 Y109.657 E11.69919
G1 X144.099 Y83.943 E12.61521
G1 X142.813 Y83.943 E12.66101
G1 X142.813 Y109.657 E13.57704
G1 X141.527 Y109.657 E13.62284
G1 X141.527 Y83.943 E14.53887
G1 X140.242 Y83.943 E14.58467
G1 X140.242 Y109.657 E15.50069
G1 X138.956 Y109.657 E15.54649
G1 X138.956 Y83.943 E16.46252
G1 X137.671 Y83.943 E16.50832
G1 X137.671 Y109.657 E17.42435
G1 X136.385 Y109.657 E17.47014
G1 X136.385 Y83.943 E18.38617
G1 X135.099 Y83.943 E18.43197
G1 X135.099 Y109.657 E19.34800
G1 X133.814 Y109.657 E19.39380
G1 X133.814 Y83.943 E20.30982
G1 X132.528 Y83.943 E20.35562
G1 X132.528 Y109.657 E21.27165
G1 X131.242 Y109.657 E21.31745
G1 X131.242 Y83.943 E22.23348
G1 X129.957 Y83.943 E22.27928
G1 X129.957 Y109.657 E23.19530
G1 X128.671 Y109.657 E23.24110
G1 X128.671 Y83.814 E24.16171
;LAYER_CHANGE
;Z:1.25
;HEIGHT:0.6
G1 Z1.250 F6600.000
G1 E20.16171 F2400.000
G92 E0
G1 Z1.350 F6600.000
G1 X142.069 Y87.334
G1 Z1.250
G1 E4.00000 F2400.000
;TYPE:External perimeter
;WIDTH:0.56814
;HEIGHT:0.4
G1 F1500.000
G1 X141.886 Y87.041 E4.02776
;WIDTH:0.56814
G1 X141.850 Y87.038 E4.03069
;WIDTH:0.562599
G1 X141.527 Y87.026 E4.05632
;WIDTH:0.538369
G1 X141.490 Y87.026 E4.05904
;WIDTH:0.562779
G1 X141.203 Y87.038 E4.08186
;WIDTH:0.568139
G1 X141.169 Y87.041 E4.08461
;WIDTH:0.56814
G1 X140.985 Y87.334 E4.11236
G1 E0.11236 F2400.000
G92 E0
G1 Z1.350 F6600.000
G1 X141.507 Y101.210
G1 Z1.250
G1 E4.00000 F2400.000
;TYPE:Overhang perimeter
;WIDTH:0.4
G1 F900.000
G1 X141.929 Y101.242 E4.02212
G1 X142.324 Y101.345 E4.04345
G1 X142.694 Y101.512 E4.06464
G1 X143.030 Y101.739 E4.08583
G1 X143.322 Y102.020 E4.10702
G1 X143.564 Y102.346 E4.12821
G1 X143.746 Y102.708 E4.14940
G1 X143.865 Y103.096 E4.17059
G1 X143.917 Y103.498 E4.19178
G1 X143.899 Y103.903 E4.21297
G1 X143.814 Y104.300 E4.23416
G1 X143.663 Y104.676 E4.25535
G1 X143.450 Y105.022 E4.27654
G1 X143.182 Y105.326 E4.29773
G1 X142.866 Y105.581 E4.31892
G1 X142.530 Y105.769 E4.33903
G1 X142.133 Y105.913 E4.36114
G1 X141.730 Y105.982 E4.38248
G1 X141.325 Y105.982 E4.40367
G1 X140.925 Y105.914 E4.42486
G1 X140.542 Y105.779 E4.44605
G1 X140.188 Y105.581 E4.46724
G1 X139.873 Y105.326 E4.48843
G1 X139.605 Y105.022 E4.50962
G1 X139.392 Y104.676 E4.53081
G1 X139.241 Y104.300 E4.55200
G1 X139.155 Y103.903 E4.57319
G1 X139.138 Y103.498 E4.59438
G1 X139.190 Y103.096 E4.61557
G1 X139.309 Y102.708 E4.63676
G1 X139.482 Y102.364 E4.65687
G1 X139.730 Y102.022 E4.67898
G1 X140.025 Y101.739 E4.70032
G1 X140.361 Y101.512 E4.72151
G1 X140.731 Y101.345 E4.74270
G1 X141.123 Y101.243 E4.76389
G1 X141.447 Y101.215 E4.78086
G1 X141.478 Y101.578 F6600.000
G1 F900.000
G1 X141.869 Y101.603 E4.80132
G1 X142.202 Y101.690 E4.81933
G1 X142.515 Y101.831 E4.83728
G1 X142.800 Y102.024 E4.85523
G1 X143.048 Y102.261 E4.87318
G1 X143.252 Y102.538 E4.89114
G1 X143.407 Y102.844 E4.90909
G1 X143.508 Y103.173 E4.92704
G1 X143.551 Y103.514 E4.94499
G1 X143.537 Y103.857 E4.96294
G1 X143.464 Y104.193 E4.98089
G1 X143.336 Y104.512 E4.99884
G1 X143.156 Y104.804 E5.01680
G1 X142.929 Y105.062 E5.03475
G1 X142.662 Y105.278 E5.05270
G1 X142.378 Y105.436 E5.06966
G1 X142.039 Y105.560 E5.08853
G1 X141.699 Y105.618 E5.10654
G1 X141.356 Y105.618 E5.12449
G1 X141.017 Y105.560 E5.14244
G1 X140.693 Y105.446 E5.16039
G1 X140.393 Y105.278 E5.17835
G1 X140.126 Y105.062 E5.19630
G1 X139.899 Y104.804 E5.21425
G1 X139.718 Y104.512 E5.23220
G1 X139.590 Y104.193 E5.25015
G1 X139.518 Y103.857 E5.26810
G1 X139.503 Y103.514 E5.28606
G1 X139.547 Y103.173 E5.30401
G1 X139.648 Y102.844 E5.32196
G1 X139.794 Y102.555 E5.33892
G1 X140.006 Y102.262 E5.35779
G1 X140.255 Y102.024 E5.37580
G1 X140.539 Y101.831 E5.39375
G1 X140.852 Y101.690 E5.41170
G1 X141.185 Y101.603 E5.42965
G1 X141.418 Y101.583 E5.44187
G1 X141.234 Y100.838 F6600.000
G1 F3600.000
G1 X140.609 Y101.000 E5.47564
G1 X140.183 Y101.193 E5.50007
G1 X139.796 Y101.455 E5.52449
G1 X139.455 Y101.781 E5.54916
G1 X139.170 Y102.174 E5.57451
G1 X138.969 Y102.572 E5.59777
G1 X138.832 Y103.019 E5.62220
G1 X138.773 Y103.483 E5.64663
G1 X138.793 Y103.950 E5.67105
G1 X138.891 Y104.407 E5.69548
G1 X139.066 Y104.841 E5.71991
G1 X139.311 Y105.239 E5.74434
G1 X139.620 Y105.590 E5.76877
G1 X139.757 Y105.701 E5.77798
