; generated by PrusaSlicer 2.3.1+win64 on 2021-07-11 at 21:08:35 UTC

; 

; external perimeters extrusion width = 0.45mm
; perimeters extrusion width = 0.45mm
; infill extrusion width = 0.45mm
; solid infill extrusion width = 0.45mm
; top infill extrusion width = 0.40mm
; support material extrusion width = 0.35mm
; first layer extrusion width = 0.42mm

M107
M190 S80 ; set bed temperature and wait for it to be reached
M104 S230 ; set temperature
;TYPE:Custom
G28 ; home all axes
G1 Z5 F5000 ; lift nozzle
M109 S230 ; set temperature and wait for it to be reached
G21 ; set units to millimeters
G90 ; use absolute coordinates
M82 ; use absolute distances for extrusion
G92 E0
; Filament gcode
;LAYER_CHANGE
;Z:0.35
;HEIGHT:0.35
G1 Z0.350 F6600.000
G1 E-4.00000 F2400.000
G92 E0
G1 Z0.450 F6600.000
G1 X130.423 Y87.078
G1 Z0.350
G1 E4.00000 F2400.000
;TYPE:Skirt
;WIDTH:0.42
G1 X132.272 Y85.243 E4.13075
G1 X132.788 Y84.957 E4.16035
G1 X133.361 Y84.831 E4.18978
G1 X161.816 Y84.826 E5.61781
G1 X162.572 Y84.973 E5.65649
G1 X163.217 Y85.389 E5.69499
G1 X165.258 Y87.449 E5.84053
G1 X165.549 Y87.954 E5.86979
G1 X165.686 Y88.520 E5.89905
G1 X165.539 Y116.475 E7.30198
G1 X165.304 Y117.634 E7.36133
G1 X164.933 Y118.297 E7.39949
G1 X163.075 Y120.139 E7.53076
G1 X162.547 Y120.426 E7.56089
G1 X161.959 Y120.547 E7.59102
G1 X133.512 Y120.549 E9.01870
G1 X132.833 Y120.422 E9.05337
G1 X132.236 Y120.074 E9.08804
G1 X130.091 Y117.918 E9.24065
G1 X129.790 Y117.382 E9.27148
G1 X129.664 Y116.778 E9.30248
G1 X129.816 Y88.897 E10.70172
G1 X130.052 Y87.742 E10.76090
G1 X130.393 Y87.131 E10.79604
G1 X130.691 Y87.297 F6600.000
G1 F2400.000
G1 X132.463 Y85.531 E10.92159
G1 X132.900 Y85.283 E10.94680
G1 X133.390 Y85.175 E10.97201
G1 X161.815 Y85.171 E12.39854
G1 X162.445 Y85.294 E12.43074
G1 X162.983 Y85.643 E12.46293
G1 X164.975 Y87.647 E12.60476
G1 X165.228 Y88.078 E12.62981
G1 X165.344 Y88.563 E12.65486
G1 X165.194 Y116.463 E14.05505
G1 X164.979 Y117.518 E14.10908
G1 X164.662 Y118.083 E14.14160
G1 X162.887 Y119.848 E14.26721
G1 X162.440 Y120.098 E14.29290
G1 X161.939 Y120.202 E14.31859
G1 X133.521 Y120.205 E15.74479
G1 X132.949 Y120.097 E15.77398
G1 X132.451 Y119.804 E15.80301
G1 X130.376 Y117.723 E15.95046
G1 X130.117 Y117.271 E15.97663
G1 X130.008 Y116.758 E16.00296
G1 X130.161 Y88.912 E17.40041
G1 X130.377 Y87.858 E17.45445
G1 X130.661 Y87.349 E17.48368
G1 X130.958 Y87.515 F6600.000
G1 F2400.000
G1 X132.660 Y85.816 E17.60439
G1 X133.018 Y85.608 E17.62516
G1 X133.419 Y85.519 E17.64578
G1 X161.815 Y85.516 E19.07086
G1 X162.318 Y85.614 E19.09658
G1 X162.747 Y85.894 E19.12231
G1 X164.694 Y87.849 E19.26075
G1 X164.905 Y88.201 E19.28137
G1 X165.001 Y88.601 E19.30200
G1 X164.849 Y116.452 E20.69977
G1 X164.654 Y117.402 E20.74845
G1 X164.395 Y117.864 E20.77502
G1 X162.693 Y119.562 E20.89566
G1 X162.329 Y119.771 E20.91671
G1 X161.919 Y119.858 E20.93776
G1 X133.529 Y119.860 E22.36255
G1 X133.069 Y119.774 E22.38601
G1 X132.667 Y119.535 E22.40947
G1 X130.659 Y117.525 E22.55208
G1 X130.442 Y117.156 E22.57355
G1 X130.352 Y116.738 E22.59503
G1 X130.506 Y88.923 E23.99094
G1 X130.702 Y87.973 E24.03962
G1 X130.928 Y87.567 E24.06295
G1 E20.06295
G92 E0
G1 Z0.450 F6600.000
G1 X163.660 Y88.709
G1 Z0.350
G1 E4.00000 F2400.000
;TYPE:Support material
G1 X161.812 Y86.861 E4.13116
G1 X161.115 Y86.861 E4.16613
G1 X163.505 Y89.250 E4.33573
G1 X163.505 Y89.947 E4.37070
G1 X160.418 Y86.861 E4.58975
G1 X159.722 Y86.861 E4.62472
G1 X163.505 Y90.644 E4.89323
G1 X163.505 Y91.340 E4.92820
G1 X159.025 Y86.861 E5.24616
G1 X158.328 Y86.861 E5.28113
G1 X163.505 Y92.037 E5.64854
G1 X163.505 Y92.734 E5.68351
G1 X157.631 Y86.861 E6.10037
G1 X156.935 Y86.861 E6.13534
G1 X163.505 Y93.431 E6.60166
G1 X163.505 Y94.128 E6.63663
G1 X156.238 Y86.861 E7.15240
G1 X155.541 Y86.861 E7.18737
G1 X163.505 Y94.824 E7.75259
G1 X163.505 Y95.521 E7.78756
G1 X154.844 Y86.861 E8.40224
G1 X154.147 Y86.861 E8.43721
G1 X163.505 Y96.218 E9.10134
G1 X163.505 Y96.915 E9.13631
G1 X153.451 Y86.861 E9.84989
G1 X152.754 Y86.861 E9.88486
G1 X163.505 Y97.612 E10.64790
G1 X163.505 Y98.308 E10.68287
G1 X152.057 Y86.861 E11.49536
G1 X151.360 Y86.861 E11.53033
G1 X163.505 Y99.005 E12.39227
G1 X163.505 Y99.702 E12.42724
G1 X150.664 Y86.861 E13.33864
G1 X149.967 Y86.861 E13.37361
G1 X163.505 Y100.399 E14.33446
G1 X163.505 Y101.095 E14.36943
G1 X149.270 Y86.861 E15.37973
G1 X148.573 Y86.861 E15.41470
G1 X163.505 Y101.792 E16.47445
G1 X163.505 Y102.489 E16.50942
G1 X147.876 Y86.861 E17.61863
G1 X147.180 Y86.861 E17.65360
G1 X163.505 Y103.186 E18.81226
G1 X163.505 Y103.883 E18.84723
G1 X146.483 Y86.861 E20.05535
G1 X145.786 Y86.861 E20.09031
G1 X163.505 Y104.579 E21.34788
G1 X163.505 Y105.276 E21.38285
G1 X145.089 Y86.861 E22.68987
G1 X144.392 Y86.861 E22.72484
G1 X163.505 Y105.973 E24.08132
G1 X163.505 Y106.670 E24.11629
G1 X143.696 Y86.861 E25.52221
G1 X142.999 Y86.861 E25.55718
G1 X163.505 Y107.367 E27.01256
G1 X163.505 Y108.063 E27.04753
G1 X142.302 Y86.861 E28.55237
G1 X141.605 Y86.861 E28.58733
G1 X163.505 Y108.760 E30.14162
G1 X163.505 Y109.457 E30.17659
G1 X140.909 Y86.861 E31.78033
G1 X140.212 Y86.861 E31.81530
G1 X163.505 Y110.154 E33.46849
G1 X163.505 Y110.850 E33.50346
G1 X139.515 Y86.861 E35.20611
G1 X138.818 Y86.861 E35.24108
G1 X163.505 Y111.547 E36.99317
G1 X163.505 Y112.244 E37.02814
G1 X138.121 Y86.861 E38.82970
G1 X137.425 Y86.861 E38.86466
G1 X163.505 Y112.941 E40.71567
G1 X163.505 Y113.638 E40.75064
G1 X136.728 Y86.861 E42.65110
G1 X136.031 Y86.861 E42.68607
G1 X163.505 Y114.334 E44.63598
G1 X163.505 Y115.031 E44.67095
G1 X135.334 Y86.861 E46.67031
G1 X134.638 Y86.861 E46.70528
G1 X163.505 Y115.728 E48.75410
G1 X163.505 Y116.425 E48.78907
G1 X133.941 Y86.861 E50.88734
G1 X133.507 Y86.861 E50.90912
G1 X133.375 Y86.992 E50.91845
G1 X163.373 Y116.990 E53.04752
G1 X163.025 Y117.338 E53.07225
G1 X133.027 Y87.340 E55.20132
G1 X132.679 Y87.689 E55.22605
G1 X162.677 Y117.687 E57.35512
G1 X162.328 Y118.035 E57.37985
G1 X132.330 Y88.037 E59.50892
G1 X131.982 Y88.385 E59.53365
G1 X161.980 Y118.384 E61.66272
G1 X161.848 Y118.515 E61.67204
G1 X161.414 Y118.515 E61.69383
G1 X131.850 Y88.951 E63.79210
G1 X131.850 Y89.648 E63.82707
G1 X160.718 Y118.515 E65.87589
G1 X160.021 Y118.515 E65.91085
G1 X131.850 Y90.344 E67.91022
G1 X131.850 Y91.041 E67.94519
G1 X159.324 Y118.515 E69.89510
G1 X158.627 Y118.515 E69.93007
G1 X131.850 Y91.738 E71.83053
G1 X131.850 Y92.435 E71.86550
G1 X157.931 Y118.515 E73.71650
G1 X157.234 Y118.515 E73.75147
G1 X131.850 Y93.132 E75.55302
G1 X131.850 Y93.828 E75.58799
G1 X156.537 Y118.515 E77.34009
G1 X155.840 Y118.515 E77.37506
G1 X131.850 Y94.525 E79.07771
G1 X131.850 Y95.222 E79.11267
G1 X155.143 Y118.515 E80.76587
G1 X154.447 Y118.515 E80.80084
G1 X131.850 Y95.919 E82.40458
G1 X131.850 Y96.615 E82.43955
G1 X153.750 Y118.515 E83.99383
G1 X153.053 Y118.515 E84.02880
G1 X131.850 Y97.312 E85.53364
G1 X131.850 Y98.009 E85.56860
G1 X152.356 Y118.515 E87.02398
G1 X151.660 Y118.515 E87.05895
G1 X131.850 Y98.706 E88.46488
G1 X131.850 Y99.403 E88.49985
G1 X150.963 Y118.515 E89.85632
G1 X150.266 Y118.515 E89.89129
G1 X131.850 Y100.099 E91.19831
G1 X131.850 Y100.796 E91.23328
G1 X149.569 Y118.515 E92.49085
G1 X148.872 Y118.515 E92.52582
G1 X131.850 Y101.493 E93.73394
G1 X131.850 Y102.190 E93.76890
G1 X148.176 Y118.515 E94.92757
G1 X147.479 Y118.515 E94.96254
G1 X131.850 Y102.886 E96.07174
G1 X131.850 Y103.583 E96.10671
G1 X146.782 Y118.515 E97.16647
G1 X146.085 Y118.515 E97.20144
G1 X131.850 Y104.280 E98.21174
G1 X131.850 Y104.977 E98.24671
G1 X145.388 Y118.515 E99.20756
G1 X144.692 Y118.515 E99.24253
G1 X131.850 Y105.674 E100.15393
G1 X131.850 Y106.370 E100.18889
G1 X143.995 Y118.515 E101.05084
G1 X143.298 Y118.515 E101.08581
G1 X131.850 Y107.067 E101.89830
G1 X131.850 Y107.764 E101.93327
G1 X142.601 Y118.515 E102.69630
G1 X141.905 Y118.515 E102.73127
G1 X131.850 Y108.461 E103.44486
G1 X131.850 Y109.158 E103.47983
G1 X141.208 Y118.515 E104.14396
G1 X140.511 Y118.515 E104.17893
G1 X131.850 Y109.854 E104.79360
G1 X131.850 Y110.551 E104.82857
G1 X139.814 Y118.515 E105.39380
G1 X139.117 Y118.515 E105.42877
G1 X131.850 Y111.248 E105.94454
G1 X131.850 Y111.945 E105.97951
G1 X138.421 Y118.515 E106.44583
G1 X137.724 Y118.515 E106.48079
G1 X131.850 Y112.641 E106.89766
G1 X131.850 Y113.338 E106.93263
G1 X137.027 Y118.515 E107.30004
G1 X136.330 Y118.515 E107.33501
G1 X131.850 Y114.035 E107.65297
G1 X131.850 Y114.732 E107.68794
G1 X135.634 Y118.515 E107.95644
G1 X134.937 Y118.515 E107.99141
G1 X131.850 Y115.429 E108.21047
G1 X131.850 Y116.125 E108.24544
G1 X134.240 Y118.515 E108.41504
G1 X133.543 Y118.515 E108.45000
G1 X131.695 Y116.667 E108.58117
;LAYER_CHANGE
;Z:0.65
;HEIGHT:0.3
G1 Z0.650 F6600.000
M104 S200 ; set temperature
M140 S60 ; set bed temperature
G1 E104.58117 F2400.000
G92 E0
G1 Z0.750 F6600.000
G1 X129.727 Y117.080
G1 Z0.650
G1 E4.00000 F2400.000
;TYPE:Skirt
G1 F3600.000
G1 X129.664 Y116.778 E4.01370
G1 X129.816 Y88.897 E5.25036
G1 X130.052 Y87.742 E5.30266
G1 X130.423 Y87.078 E5.33638
G1 X132.272 Y85.243 E5.45193
G1 X132.788 Y84.957 E5.47810
G1 X133.361 Y84.831 E5.50411
G1 X161.816 Y84.826 E6.76622
G1 X162.572 Y84.973 E6.80040
G1 X163.217 Y85.389 E6.83443
G1 X165.258 Y87.449 E6.96306
G1 X165.549 Y87.954 E6.98892
G1 X165.686 Y88.520 E7.01478
G1 X165.539 Y116.475 E8.25471
G1 X165.304 Y117.634 E8.30716
G1 X164.933 Y118.297 E8.34088
G1 X163.075 Y120.139 E8.45690
G1 X162.547 Y120.426 E8.48353
G1 X161.959 Y120.547 E8.51016
G1 X133.512 Y120.549 E9.77196
G1 X132.833 Y120.422 E9.80260
G1 X132.236 Y120.074 E9.83324
G1 X130.091 Y117.918 E9.96812
G1 X129.790 Y117.382 E9.99537
G1 X129.739 Y117.139 E10.00641
G1 X130.074 Y117.068 F6600.000
G1 F3600.000
G1 X130.008 Y116.758 E10.02047
G1 X130.161 Y88.912 E11.25555
G1 X130.377 Y87.858 E11.30331
G1 X130.693 Y87.292 E11.33205
G1 X132.463 Y85.531 E11.44278
G1 X132.900 Y85.283 E11.46506
G1 X133.390 Y85.175 E11.48734
G1 X161.815 Y85.171 E12.74812
G1 X162.445 Y85.294 E12.77658
G1 X162.983 Y85.643 E12.80504
G1 X164.975 Y87.647 E12.93038
G1 X165.228 Y88.078 E12.95252
G1 X165.344 Y88.563 E12.97466
G1 X165.194 Y116.463 E14.21216
G1 X164.979 Y117.518 E14.25992
G1 X164.662 Y118.083 E14.28866
G1 X162.887 Y119.848 E14.39968
G1 X162.440 Y120.098 E14.42238
G1 X161.939 Y120.202 E14.44508
G1 X133.521 Y120.205 E15.70558
G1 X132.949 Y120.097 E15.73137
G1 X132.451 Y119.804 E15.75703
G1 X130.376 Y117.723 E15.88735
G1 X130.117 Y117.271 E15.91048
G1 X130.086 Y117.126 E15.91702
G1 X130.420 Y117.054 F6600.000
G1 F3600.000
G1 X130.352 Y116.738 E15.93139
G1 X130.506 Y88.923 E17.16511
G1 X130.702 Y87.973 E17.20813
G1 X130.960 Y87.511 E17.23161
G1 X132.660 Y85.816 E17.33811
G1 X133.018 Y85.608 E17.35647
G1 X133.419 Y85.519 E17.37469
G1 X161.815 Y85.516 E18.63419
G1 X162.318 Y85.614 E18.65693
G1 X162.747 Y85.894 E18.67966
G1 X164.694 Y87.849 E18.80202
G1 X164.905 Y88.201 E18.82024
G1 X165.001 Y88.601 E18.83847
G1 X164.849 Y116.452 E20.07384
G1 X164.654 Y117.402 E20.11686
G1 X164.395 Y117.864 E20.14034
G1 X162.693 Y119.562 E20.24697
G1 X162.329 Y119.771 E20.26557
G1 X161.919 Y119.858 E20.28418
G1 X133.529 Y119.860 E21.54342
G1 X133.069 Y119.774 E21.56415
G1 X132.667 Y119.535 E21.58489
G1 X130.659 Y117.525 E21.71093
G1 X130.442 Y117.156 E21.72991
G1 X130.433 Y117.113 E21.73185
G1 E17.73185 F2400.000
G92 E0
G1 Z0.750 F6600.000
G1 X160.534 Y115.673
G1 Z0.650
G1 E4.00000 F2400.000
;TYPE:Support material interface
;WIDTH:0.35
G1 F3600.000
G1 X160.534 Y89.831 E4.92061
G1 X159.248 Y89.831 E4.96640
G1 X159.248 Y115.545 E5.88243
G1 X157.963 Y115.545 E5.92823
G1 X157.963 Y89.831 E6.84426
G1 X156.677 Y89.831 E6.89006
G1 X156.677 Y115.545 E7.80608
G1 X155.391 Y115.545 E7.85188
G1 X155.391 Y89.831 E8.76791
G1 X154.106 Y89.831 E8.81371
G1 X154.106 Y115.545 E9.72974
G1 X152.820 Y115.545 E9.77554
G1 X152.820 Y89.831 E10.69156
G1 X151.534 Y89.831 E10.73736
G1 X151.534 Y115.545 E11.65339
G1 X150.249 Y115.545 E11.69919
G1 X150.249 Y89.831 E12.61521
G1 X148.963 Y89.831 E12.66101
G1 X148.963 Y115.545 E13.57704
G1 X147.678 Y115.545 E13.62284
G1 X147.678 Y89.831 E14.53887
G1 X146.392 Y89.831 E14.58467
G1 X146.392 Y115.545 E15.50069
G1 X145.106 Y115.545 E15.54649
G1 X145.106 Y89.831 E16.46252
G1 X143.821 Y89.831 E16.50832
G1 X143.821 Y115.545 E17.42435
G1 X142.535 Y115.545 E17.47014
G1 X142.535 Y89.831 E18.38617
G1 X141.250 Y89.831 E18.43197
G1 X141.250 Y115.545 E19.34800
G1 X139.964 Y115.545 E19.39380
G1 X139.964 Y89.831 E20.30982
G1 X138.678 Y89.831 E20.35562
G1 X138.678 Y115.545 E21.27165
G1 X137.393 Y115.545 E21.31745
G1 X137.393 Y89.831 E22.23348
G1 X136.107 Y89.831 E22.27928
G1 X136.107 Y115.545 E23.19530
G1 X134.821 Y115.545 E23.24110
G1 X134.821 Y89.702 E24.16171
;LAYER_CHANGE
;Z:1.25
;HEIGHT:0.6
G1 Z1.250 F6600.000
G1 E20.16171 F2400.000
G92 E0
G1 Z1.350 F6600.000
G1 X146.690 Y107.919
G1 Z1.250
G1 E4.00000 F2400.000
;TYPE:Overhang perimeter
;WIDTH:0.4
;HEIGHT:0.4
G1 F900.000
G1 X147.003 Y107.778 E4.01795
G1 X147.335 Y107.691 E4.03590
G1 X147.659 Y107.664 E4.05286
G1 X148.019 Y107.691 E4.07174
G1 X148.353 Y107.778 E4.08974
G1 X148.666 Y107.919 E4.10770
G1 X148.950 Y108.112 E4.12565
G1 X149.198 Y108.349 E4.14360
G1 X149.403 Y108.626 E4.16155
G1 X149.557 Y108.932 E4.17950
G1 X149.658 Y109.261 E4.19745
G1 X149.702 Y109.602 E4.21540
G1 X149.687 Y109.945 E4.23336
G1 X149.615 Y110.281 E4.25131
G1 X149.487 Y110.600 E4.26926
G1 X149.316 Y110.876 E4.28622
G1 X149.080 Y111.150 E4.30509
G1 X148.812 Y111.366 E4.32310
G1 X148.512 Y111.534 E4.34105
G1 X148.188 Y111.648 E4.35900
G1 X147.849 Y111.706 E4.37696
G1 X147.506 Y111.706 E4.39491
G1 X147.167 Y111.648 E4.41286
G1 X146.843 Y111.534 E4.43081
G1 X146.543 Y111.366 E4.44876
G1 X146.276 Y111.150 E4.46671
G1 X146.049 Y110.892 E4.48466
G1 X145.869 Y110.600 E4.50262
G1 X145.741 Y110.281 E4.52057
G1 X145.668 Y109.945 E4.53852
G1 X145.654 Y109.602 E4.55647
G1 X145.697 Y109.261 E4.57442
G1 X145.798 Y108.932 E4.59237
G1 X145.944 Y108.643 E4.60933
G1 X146.156 Y108.350 E4.62821
G1 X146.405 Y108.112 E4.64621
G1 X146.640 Y107.953 E4.66103
G1 E0.66103 F2400.000
G92 E0
G1 Z1.350 F6600.000
G1 X147.678 Y97.776
G1 Z1.250
G1 E4.00000 F2400.000
G1 F900.000
G1 X147.501 Y97.769 E4.00923
G1 X147.167 Y97.712 E4.02693
G1 X146.843 Y97.597 E4.04488
G1 X146.543 Y97.430 E4.06283
G1 X146.276 Y97.214 E4.08079
G1 X146.049 Y96.956 E4.09874
G1 X145.869 Y96.663 E4.11669
G1 X145.741 Y96.344 E4.13464
G1 X145.668 Y96.009 E4.15259
G1 X145.654 Y95.665 E4.17054
G1 X145.697 Y95.324 E4.18849
G1 X145.798 Y94.996 E4.20645
G1 X145.953 Y94.689 E4.22440
G1 X146.157 Y94.413 E4.24235
G1 X146.405 Y94.175 E4.26030
G1 X146.690 Y93.983 E4.27825
G1 X147.003 Y93.841 E4.29620
G1 X147.335 Y93.755 E4.31415
G1 X147.659 Y93.727 E4.33111
G1 X148.019 Y93.754 E4.34999
G1 X148.353 Y93.841 E4.36800
G1 X148.666 Y93.983 E4.38595
G1 X148.950 Y94.175 E4.40390
G1 X149.198 Y94.413 E4.42185
G1 X149.403 Y94.689 E4.43980
G1 X149.557 Y94.996 E4.45775
G1 X149.658 Y95.324 E4.47571
G1 X149.702 Y95.665 E4.49366
G1 X149.687 Y96.009 E4.51161
G1 X149.615 Y96.344 E4.52956
G1 X149.487 Y96.663 E4.54751
G1 X149.306 Y96.956 E4.56546
G1 X149.079 Y97.214 E4.58341
G1 X148.812 Y97.430 E4.60137
G1 X148.512 Y97.597 E4.61932
G1 X148.188 Y97.712 E4.63727
G1 X147.738 Y97.774 E4.66103
G1 E0.66103 F2400.000
G92 E0
G1 Z1.350 F6600.000
G1 X145.004 Y101.558
G1 Z1.250
G1 E4.00000 F2400.000
G1 F900.000
G1 X145.262 Y100.877 E4.03806
G1 X145.627 Y100.225 E4.07712
G1 X146.068 Y99.684 E4.11358
G1 X146.588 Y99.224 E4.14982
G1 X147.174 Y98.853 E4.18607
G1 X147.812 Y98.581 E4.22232
G1 X148.486 Y98.415 E4.25856
G1 X149.119 Y98.364 E4.29176
G1 X149.865 Y98.414 E4.33082
G1 X150.543 Y98.581 E4.36727
G1 X151.181 Y98.853 E4.40352
G1 X151.767 Y99.224 E4.43977
G1 X152.287 Y99.684 E4.47601
G1 X152.726 Y100.221 E4.51226
G1 X153.072 Y100.822 E4.54851
G1 X153.298 Y101.416 E4.58171
G1 X153.457 Y102.147 E4.62076
G1 X153.485 Y102.844 E4.65722
G1 X153.402 Y103.533 E4.69346
G1 X153.209 Y104.199 E4.72971
G1 X152.911 Y104.826 E4.76596
G1 X152.517 Y105.397 E4.80221
G1 X152.036 Y105.897 E4.83845
G1 X151.482 Y106.314 E4.87470
G1 X150.867 Y106.637 E4.91095
G1 X150.265 Y106.838 E4.94414
