; generated by PrusaSlicer 2.3.1+win64 on 2021-07-11 at 19:23:37 UTC

; 

; external perimeters extrusion width = 0.45mm
; perimeters extrusion width = 0.45mm
; infill extrusion width = 0.45mm
; solid infill extrusion width = 0.45mm
; top infill extrusion width = 0.40mm
; support material extrusion width = 0.35mm
; first layer extrusion width = 0.42mm

M107
M190 S80 ; set bed temperature and wait for it to be reached
M104 S230 ; set temperature
;TYPE:Custom
G28 ; home all axes
G1 Z5 F5000 ; lift nozzle
M109 S230 ; set temperature and wait for it to be reached
G21 ; set units to millimeters
G90 ; use absolute coordinates
M82 ; use absolute distances for extrusion
G92 E0
; Filament gcode
;LAYER_CHANGE
;Z:0.35
;HEIGHT:0.35
G1 Z0.350 F6600.000
G1 E-4.00000 F2400.000
G92 E0
G1 Z0.450 F6600.000
G1 X111.178 Y107.680
G1 Z0.350
G1 E4.00000 F2400.000
;TYPE:Skirt
;WIDTH:0.42
G1 X113.095 Y105.725 E4.13739
G1 X113.491 Y105.470 E4.16104
G1 X113.932 Y105.313 E4.18451
G1 X140.960 Y99.289 E5.57424
G1 X158.566 Y99.269 E6.45778
G1 X159.312 Y99.412 E6.49593
G1 X159.951 Y99.817 E6.53391
G1 X160.899 Y100.822 E6.60323
G1 X161.121 Y101.269 E6.62828
G1 X161.226 Y101.753 E6.65316
G1 X161.712 Y118.675 E7.50273
G1 X161.527 Y131.429 E8.14288
G1 X161.168 Y132.403 E8.19494
G1 X160.880 Y132.865 E8.22227
G1 X156.699 Y137.269 E8.52703
G1 X151.087 Y142.211 E8.90230
G1 X150.530 Y142.537 E8.93470
G1 X149.899 Y142.671 E8.96710
G1 X139.206 Y142.828 E9.50381
G1 X114.231 Y140.976 E10.76059
G1 X113.658 Y140.836 E10.79020
G1 X113.153 Y140.539 E10.81963
G1 X111.005 Y138.395 E10.97193
G1 X110.664 Y137.798 E11.00643
G1 X110.541 Y137.122 E11.04092
G1 X110.701 Y109.255 E12.43945
G1 X110.915 Y108.231 E12.49197
G1 X111.152 Y107.734 E12.51962
G1 X111.462 Y107.883 F6600.000
G1 F2400.000
G1 X113.319 Y105.987 E12.65280
G1 X114.011 Y105.649 E12.69146
G1 X141.012 Y99.630 E14.07979
G1 X158.565 Y99.614 E14.96071
G1 X159.186 Y99.733 E14.99243
G1 X159.722 Y100.074 E15.02432
G1 X160.603 Y100.999 E15.08843
G1 X160.795 Y101.383 E15.10997
G1 X160.884 Y101.803 E15.13150
G1 X161.367 Y118.678 E15.97876
G1 X161.185 Y131.383 E16.61644
G1 X160.851 Y132.266 E16.66381
G1 X160.607 Y132.654 E16.68679
G1 X156.446 Y137.034 E16.99003
G1 X150.862 Y141.950 E17.36337
G1 X150.396 Y142.218 E17.39033
G1 X149.870 Y142.327 E17.41729
G1 X139.212 Y142.483 E17.95223
G1 X114.264 Y140.633 E19.20774
G1 X113.779 Y140.513 E19.23279
G1 X113.351 Y140.256 E19.25784
G1 X111.267 Y138.171 E19.40578
G1 X110.987 Y137.676 E19.43433
G1 X110.886 Y137.116 E19.46288
G1 X111.045 Y109.278 E20.86002
G1 X111.245 Y108.333 E20.90847
G1 X111.436 Y107.937 E20.93054
G1 X111.744 Y108.087 F6600.000
G1 F2400.000
G1 X111.763 Y108.046 E20.93278
G1 X113.543 Y106.250 E21.05970
G1 X114.087 Y105.985 E21.09006
G1 X141.062 Y99.971 E22.47703
G1 X158.565 Y99.959 E23.35544
G1 X159.065 Y100.056 E23.38103
G1 X159.491 Y100.331 E23.40647
G1 X160.305 Y101.175 E23.46532
G1 X160.542 Y101.845 E23.50098
G1 X161.022 Y118.682 E24.34629
G1 X160.844 Y131.332 E24.98119
G1 X160.535 Y132.129 E25.02412
G1 X160.337 Y132.440 E25.04261
G1 X156.195 Y136.797 E25.34429
G1 X150.639 Y141.686 E25.71572
G1 X150.268 Y141.898 E25.73720
G1 X149.848 Y141.983 E25.75867
G1 X139.222 Y142.138 E26.29199
G1 X114.296 Y140.290 E27.54638
G1 X113.900 Y140.189 E27.56686
G1 X113.555 Y139.977 E27.58720
G1 X111.529 Y137.947 E27.73113
G1 X111.309 Y137.554 E27.75374
G1 X111.231 Y137.110 E27.77635
G1 X111.389 Y109.302 E29.17197
G1 X111.574 Y108.436 E29.21638
G1 X111.718 Y108.141 E29.23288
G1 E25.23288
G92 E0
G1 Z0.450 F6600.000
G1 X144.541 Y109.144
G1 Z0.350
G1 E4.00000 F2400.000
;TYPE:Support material
G1 X142.693 Y107.296 E4.13116
G1 X141.996 Y107.296 E4.16613
G1 X144.386 Y109.686 E4.33573
G1 X144.386 Y110.383 E4.37070
G1 X141.299 Y107.296 E4.58975
G1 X140.603 Y107.296 E4.62472
G1 X144.386 Y111.079 E4.89323
G1 X144.386 Y111.776 E4.92820
G1 X139.906 Y107.296 E5.24616
G1 X139.209 Y107.296 E5.28113
G1 X144.386 Y112.473 E5.64854
G1 X144.386 Y113.170 E5.68351
G1 X138.512 Y107.296 E6.10037
G1 X137.815 Y107.296 E6.13534
G1 X144.386 Y113.867 E6.60166
G1 X144.386 Y114.563 E6.63663
G1 X137.119 Y107.296 E7.15240
G1 X136.422 Y107.296 E7.18737
G1 X144.386 Y115.260 E7.75259
G1 X144.386 Y115.957 E7.78756
G1 X135.725 Y107.296 E8.40224
G1 X135.028 Y107.296 E8.43721
G1 X144.386 Y116.654 E9.10134
G1 X144.386 Y117.351 E9.13631
G1 X134.331 Y107.296 E9.84989
G1 X133.635 Y107.296 E9.88486
G1 X144.386 Y118.047 E10.64790
G1 X144.386 Y118.744 E10.68287
G1 X132.938 Y107.296 E11.49536
G1 X132.241 Y107.296 E11.53033
G1 X144.386 Y119.441 E12.39227
G1 X144.386 Y120.138 E12.42724
G1 X131.544 Y107.296 E13.33864
G1 X130.848 Y107.296 E13.37361
G1 X144.386 Y120.834 E14.33446
G1 X144.386 Y121.531 E14.36943
G1 X130.151 Y107.296 E15.37973
G1 X129.454 Y107.296 E15.41470
G1 X144.386 Y122.228 E16.47445
G1 X144.386 Y122.925 E16.50942
G1 X128.757 Y107.296 E17.61863
G1 X128.060 Y107.296 E17.65360
G1 X144.386 Y123.622 E18.81226
G1 X144.386 Y124.318 E18.84723
G1 X127.364 Y107.296 E20.05535
G1 X126.667 Y107.296 E20.09031
G1 X144.386 Y125.015 E21.34788
G1 X144.386 Y125.712 E21.38285
G1 X125.970 Y107.296 E22.68987
G1 X125.273 Y107.296 E22.72484
G1 X144.386 Y126.409 E24.08132
G1 X144.386 Y127.105 E24.11629
G1 X124.577 Y107.296 E25.52221
G1 X123.880 Y107.296 E25.55718
G1 X144.386 Y127.802 E27.01256
G1 X144.386 Y128.499 E27.04753
G1 X123.183 Y107.296 E28.55237
G1 X122.486 Y107.296 E28.58733
G1 X144.386 Y129.196 E30.14162
G1 X144.386 Y129.893 E30.17659
G1 X121.789 Y107.296 E31.78033
G1 X121.093 Y107.296 E31.81530
G1 X144.386 Y130.589 E33.46849
G1 X144.386 Y131.286 E33.50346
G1 X120.396 Y107.296 E35.20611
G1 X119.699 Y107.296 E35.24108
G1 X144.386 Y131.983 E36.99317
G1 X144.386 Y132.680 E37.02814
G1 X119.002 Y107.296 E38.82970
G1 X118.306 Y107.296 E38.86466
G1 X144.386 Y133.377 E40.71567
G1 X144.386 Y134.073 E40.75064
G1 X117.609 Y107.296 E42.65110
G1 X116.912 Y107.296 E42.68607
G1 X144.386 Y134.770 E44.63598
G1 X144.386 Y135.467 E44.67095
G1 X116.215 Y107.296 E46.67031
G1 X115.518 Y107.296 E46.70528
G1 X144.386 Y136.164 E48.75410
G1 X144.386 Y136.860 E48.78907
G1 X114.822 Y107.296 E50.88734
G1 X114.388 Y107.296 E50.90912
G1 X114.256 Y107.428 E50.91845
G1 X144.254 Y137.426 E53.04752
G1 X143.906 Y137.774 E53.07225
G1 X113.908 Y107.776 E55.20132
G1 X113.559 Y108.124 E55.22605
G1 X143.558 Y138.123 E57.35512
G1 X143.209 Y138.471 E57.37985
G1 X113.211 Y108.473 E59.50892
G1 X112.863 Y108.821 E59.53365
G1 X142.861 Y138.819 E61.66272
G1 X142.729 Y138.951 E61.67204
G1 X142.295 Y138.951 E61.69383
G1 X112.731 Y109.387 E63.79210
G1 X112.731 Y110.083 E63.82707
G1 X141.599 Y138.951 E65.87589
G1 X140.902 Y138.951 E65.91085
G1 X112.731 Y110.780 E67.91022
G1 X112.731 Y111.477 E67.94519
G1 X140.205 Y138.951 E69.89510
G1 X139.508 Y138.951 E69.93007
G1 X112.731 Y112.174 E71.83053
G1 X112.731 Y112.870 E71.86550
G1 X138.811 Y138.951 E73.71650
G1 X138.115 Y138.951 E73.75147
G1 X112.731 Y113.567 E75.55302
G1 X112.731 Y114.264 E75.58799
G1 X137.418 Y138.951 E77.34009
G1 X136.721 Y138.951 E77.37506
G1 X112.731 Y114.961 E79.07771
G1 X112.731 Y115.658 E79.11267
G1 X136.024 Y138.951 E80.76587
G1 X135.327 Y138.951 E80.80084
G1 X112.731 Y116.354 E82.40458
G1 X112.731 Y117.051 E82.43955
G1 X134.631 Y138.951 E83.99383
G1 X133.934 Y138.951 E84.02880
G1 X112.731 Y117.748 E85.53364
G1 X112.731 Y118.445 E85.56860
G1 X133.237 Y138.951 E87.02398
G1 X132.540 Y138.951 E87.05895
G1 X112.731 Y119.142 E88.46488
G1 X112.731 Y119.838 E88.49985
G1 X131.844 Y138.951 E89.85632
G1 X131.147 Y138.951 E89.89129
G1 X112.731 Y120.535 E91.19831
G1 X112.731 Y121.232 E91.23328
G1 X130.450 Y138.951 E92.49085
G1 X129.753 Y138.951 E92.52582
G1 X112.731 Y121.929 E93.73394
G1 X112.731 Y122.625 E93.76890
G1 X129.056 Y138.951 E94.92757
G1 X128.360 Y138.951 E94.96254
G1 X112.731 Y123.322 E96.07174
G1 X112.731 Y124.019 E96.10671
G1 X127.663 Y138.951 E97.16647
G1 X126.966 Y138.951 E97.20144
G1 X112.731 Y124.716 E98.21174
G1 X112.731 Y125.413 E98.24671
G1 X126.269 Y138.951 E99.20756
G1 X125.573 Y138.951 E99.24253
G1 X112.731 Y126.109 E100.15393
G1 X112.731 Y126.806 E100.18889
G1 X124.876 Y138.951 E101.05084
G1 X124.179 Y138.951 E101.08581
G1 X112.731 Y127.503 E101.89830
G1 X112.731 Y128.200 E101.93327
G1 X123.482 Y138.951 E102.69630
G1 X122.785 Y138.951 E102.73127
G1 X112.731 Y128.897 E103.44486
G1 X112.731 Y129.593 E103.47983
G1 X122.089 Y138.951 E104.14396
G1 X121.392 Y138.951 E104.17893
G1 X112.731 Y130.290 E104.79360
G1 X112.731 Y130.987 E104.82857
G1 X120.695 Y138.951 E105.39380
G1 X119.998 Y138.951 E105.42877
G1 X112.731 Y131.684 E105.94454
G1 X112.731 Y132.380 E105.97951
G1 X119.302 Y138.951 E106.44583
G1 X118.605 Y138.951 E106.48079
G1 X112.731 Y133.077 E106.89766
G1 X112.731 Y133.774 E106.93263
G1 X117.908 Y138.951 E107.30004
G1 X117.211 Y138.951 E107.33501
G1 X112.731 Y134.471 E107.65297
G1 X112.731 Y135.168 E107.68794
G1 X116.514 Y138.951 E107.95644
G1 X115.818 Y138.951 E107.99141
G1 X112.731 Y135.864 E108.21047
G1 X112.731 Y136.561 E108.24544
G1 X115.121 Y138.951 E108.41504
G1 X114.424 Y138.951 E108.45000
G1 X112.576 Y137.103 E108.58117
G1 E104.58117
G92 E0
G1 Z0.450 F6600.000
G1 X159.678 Y118.694
G1 Z0.350
G1 E4.00000 F2400.000
G1 X159.039 Y118.056 E4.04530
G1 X158.343 Y118.056 E4.08027
G1 X159.522 Y119.236 E4.16400
G1 X159.522 Y119.933 E4.19897
G1 X157.646 Y118.056 E4.33216
G1 X156.949 Y118.056 E4.36713
G1 X159.522 Y120.629 E4.54977
G1 X159.522 Y121.326 E4.58474
G1 X156.252 Y118.056 E4.81683
G1 X155.556 Y118.056 E4.85180
G1 X159.522 Y122.023 E5.13335
G1 X159.522 Y122.720 E5.16832
G1 X154.859 Y118.056 E5.49932
G1 X154.162 Y118.056 E5.53429
G1 X159.522 Y123.417 E5.91474
G1 X159.522 Y124.113 E5.94971
G1 X153.465 Y118.056 E6.37961
G1 X152.768 Y118.056 E6.41458
G1 X159.522 Y124.810 E6.89394
G1 X159.522 Y125.507 E6.92891
G1 X152.072 Y118.056 E7.45772
G1 X151.375 Y118.056 E7.49269
G1 X159.522 Y126.204 E8.07096
G1 X159.522 Y126.901 E8.10593
G1 X150.678 Y118.056 E8.73365
G1 X149.981 Y118.056 E8.76862
G1 X159.522 Y127.597 E9.44579
G1 X159.522 Y128.294 E9.48076
G1 X149.284 Y118.056 E10.20738
G1 X148.588 Y118.056 E10.24235
G1 X159.522 Y128.991 E11.01843
G1 X159.522 Y129.688 E11.05340
G1 X147.891 Y118.056 E11.87893
G1 X147.194 Y118.056 E11.91390
G1 X159.522 Y130.384 E12.78888
G1 X159.522 Y131.081 E12.82385
G1 X146.497 Y118.056 E13.74829
G1 X145.801 Y118.056 E13.78326
G1 X159.313 Y131.568 E14.74225
G1 X158.616 Y131.568 E14.77722
G1 X145.104 Y118.056 E15.73622
G1 X144.407 Y118.056 E15.77119
G1 X157.919 Y131.568 E16.73018
G1 X157.222 Y131.568 E16.76515
G1 X143.710 Y118.056 E17.72414
G1 X143.013 Y118.056 E17.75911
G1 X156.525 Y131.568 E18.71811
G1 X155.829 Y131.568 E18.75307
G1 X142.317 Y118.056 E19.71207
G1 X141.725 Y118.056 E19.74177
G1 X141.725 Y118.161 E19.74704
G1 X155.237 Y131.673 E20.70604
G1 X155.237 Y132.370 E20.74101
G1 X141.725 Y118.858 E21.70000
G1 X141.725 Y119.555 E21.73497
G1 X155.237 Y133.067 E22.69397
G1 X155.237 Y133.763 E22.72894
G1 X141.725 Y120.251 E23.68794
G1 X141.725 Y120.948 E23.72291
G1 X155.237 Y134.460 E24.68190
G1 X155.237 Y135.157 E24.71687
G1 X141.725 Y121.645 E25.67587
G1 X141.725 Y122.342 E25.71084
G1 X155.237 Y135.854 E26.66984
G1 X154.540 Y135.854 E26.70481
G1 X141.725 Y123.038 E27.61435
G1 X141.725 Y123.735 E27.64932
G1 X153.843 Y135.854 E28.50941
G1 X153.146 Y135.854 E28.54438
G1 X141.725 Y124.432 E29.35501
G1 X141.725 Y125.129 E29.38998
G1 X152.450 Y135.854 E30.15117
G1 X151.753 Y135.854 E30.18614
G1 X141.725 Y125.826 E30.89787
G1 X141.725 Y126.127 E30.91301
G1 X141.330 Y126.127 E30.93283
G1 X151.451 Y136.249 E31.65119
G1 X151.451 Y136.946 E31.68616
G1 X140.633 Y126.127 E32.45397
G1 X139.936 Y126.127 E32.48893
G1 X151.451 Y137.642 E33.30619
G1 X151.451 Y138.339 E33.34116
G1 X139.239 Y126.127 E34.20788
G1 X138.596 Y126.127 E34.24019
G1 X138.569 Y126.154 E34.24207
G1 X151.425 Y139.009 E35.15448
G1 X151.076 Y139.358 E35.17920
G1 X138.221 Y126.502 E36.09162
G1 X137.872 Y126.851 E36.11634
G1 X150.728 Y139.706 E37.02875
G1 X150.380 Y140.055 E37.05348
G1 X137.524 Y127.199 E37.96589
G1 X137.176 Y127.547 E37.99062
G1 X150.031 Y140.403 E38.90303
G1 X149.795 Y140.639 E38.91980
G1 X149.571 Y140.639 E38.93105
G1 X136.939 Y128.008 E39.82755
G1 X136.939 Y128.705 E39.86252
G1 X148.874 Y140.639 E40.70957
G1 X148.177 Y140.639 E40.74454
G1 X136.939 Y129.401 E41.54213
G1 X136.939 Y130.098 E41.57710
G1 X147.480 Y140.639 E42.32525
G1 X146.784 Y140.639 E42.36021
G1 X136.939 Y130.795 E43.05890
G1 X136.939 Y131.492 E43.09387
G1 X146.087 Y140.639 E43.74311
G1 X145.390 Y140.639 E43.77808
G1 X136.939 Y132.189 E44.37786
G1 X136.939 Y132.885 E44.41283
G1 X144.693 Y140.639 E44.96316
G1 X143.996 Y140.639 E44.99813
G1 X136.939 Y133.582 E45.49901
G1 X136.939 Y134.279 E45.53398
G1 X143.300 Y140.639 E45.98540
G1 X142.603 Y140.639 E46.02037
G1 X136.939 Y134.976 E46.42234
G1 X136.939 Y135.672 E46.45731
G1 X141.906 Y140.639 E46.80983
G1 X141.209 Y140.639 E46.84480
G1 X136.939 Y136.369 E47.14786
G1 X136.939 Y137.066 E47.18283
G1 X140.513 Y140.639 E47.43644
G1 X139.816 Y140.639 E47.47141
G1 X136.939 Y137.763 E47.67557
G1 X136.939 Y138.460 E47.71054
G1 X139.274 Y140.795 E47.87626
G1 E43.87626
G92 E0
G1 Z0.450 F6600.000
G1 X159.200 Y101.942
G1 Z0.350
G1 E4.00000 F2400.000
G1 X158.562 Y101.303 E4.04530
G1 X157.865 Y101.303 E4.08027
G1 X159.045 Y102.483 E4.16400
G1 X159.045 Y103.180 E4.19897
G1 X157.168 Y101.303 E4.33216
G1 X156.472 Y101.303 E4.36713
G1 X159.045 Y103.877 E4.54977
G1 X159.045 Y104.574 E4.58474
G1 X155.775 Y101.303 E4.81683
G1 X155.078 Y101.303 E4.85180
G1 X159.045 Y105.270 E5.13335
G1 X159.045 Y105.967 E5.16832
G1 X154.381 Y101.303 E5.49932
G1 X153.685 Y101.303 E5.53429
G1 X159.045 Y106.664 E5.91474
G1 X159.045 Y107.361 E5.94971
G1 X152.988 Y101.303 E6.37961
G1 X152.291 Y101.303 E6.41458
G1 X159.045 Y108.057 E6.89394
G1 X159.045 Y108.754 E6.92891
G1 X151.594 Y101.303 E7.45772
G1 X150.897 Y101.303 E7.49269
G1 X159.045 Y109.451 E8.07096
G1 X159.045 Y110.148 E8.10593
G1 X150.201 Y101.303 E8.73365
G1 X149.504 Y101.303 E8.76862
G1 X159.045 Y110.845 E9.44579
G1 X159.045 Y111.541 E9.48076
G1 X148.807 Y101.303 E10.20738
G1 X148.110 Y101.303 E10.24235
G1 X159.045 Y112.238 E11.01843
G1 X159.045 Y112.935 E11.05340
G1 X147.414 Y101.303 E11.87893
G1 X146.717 Y101.303 E11.91390
G1 X159.045 Y113.632 E12.78888
G1 X159.045 Y114.329 E12.82385
G1 X146.020 Y101.303 E13.74829
G1 X145.323 Y101.303 E13.78326
G1 X158.835 Y114.815 E14.74225
G1 X158.138 Y114.815 E14.77722
G1 X144.626 Y101.303 E15.73622
G1 X143.930 Y101.303 E15.77119
G1 X157.442 Y114.815 E16.73018
G1 X156.745 Y114.815 E16.76515
G1 X143.233 Y101.303 E17.72414
G1 X142.536 Y101.303 E17.75911
G1 X156.048 Y114.815 E18.71811
G1 X155.351 Y114.815 E18.75307
G1 X141.839 Y101.303 E19.71207
G1 X141.247 Y101.303 E19.74177
G1 X141.247 Y101.408 E19.74704
G1 X154.654 Y114.815 E20.69859
G1 X153.958 Y114.815 E20.73356
G1 X141.247 Y102.105 E21.63565
G1 X141.247 Y102.802 E21.67062
G1 X153.261 Y114.815 E22.52327
G1 X152.564 Y114.815 E22.55823
G1 X141.247 Y103.499 E23.36142
G1 X141.247 Y104.195 E23.39639
G1 X151.867 Y114.815 E24.15013
G1 X151.171 Y114.815 E24.18510
G1 X141.247 Y104.892 E24.88938
G1 X141.247 Y105.589 E24.92435
G1 X150.974 Y115.315 E25.61467
G1 X150.974 Y116.012 E25.64964
G1 X141.247 Y106.286 E26.33996
G1 X141.247 Y106.983 E26.37493
G1 X150.974 Y116.709 E27.06524
G1 X150.974 Y117.406 E27.10021
G1 X141.247 Y107.679 E27.79053
G1 X141.247 Y108.376 E27.82550
G1 X150.974 Y118.103 E28.51581
G1 X150.974 Y118.799 E28.55078
G1 X141.247 Y109.073 E29.24110
G1 X141.247 Y109.375 E29.25624
G1 X140.852 Y109.375 E29.27607
G1 X150.974 Y119.496 E29.99442
G1 X150.974 Y120.193 E30.02939
G1 X140.156 Y109.375 E30.79720
G1 X139.459 Y109.375 E30.83217
G1 X150.974 Y120.890 E31.64943
G1 X150.974 Y121.586 E31.68440
G1 X138.762 Y109.375 E32.55111
G1 X138.065 Y109.375 E32.58608
G1 X150.947 Y122.257 E33.50037
G1 X150.599 Y122.605 E33.52509
G1 X137.368 Y109.375 E34.46411
G1 X136.672 Y109.375 E34.49908
G1 X150.251 Y122.954 E35.46282
G1 X149.902 Y123.302 E35.48754
G1 X135.975 Y109.375 E36.47601
G1 X135.278 Y109.375 E36.51098
G1 X149.554 Y123.650 E37.52417
