; generated by PrusaSlicer 2.3.1+win64 on 2021-07-03 at 21:45:10 UTC

; 

; external perimeters extrusion width = 0.45mm
; perimeters extrusion width = 0.45mm
; infill extrusion width = 0.45mm
; solid infill extrusion width = 0.45mm
; top infill extrusion width = 0.40mm
; support material extrusion width = 0.35mm
; first layer extrusion width = 0.42mm

M107
M190 S80 ; set bed temperature and wait for it to be reached
M104 S230 ; set temperature
;TYPE:Custom
G28 ; home all axes
G1 Z5 F5000 ; lift nozzle
M109 S230 ; set temperature and wait for it to be reached
G21 ; set units to millimeters
G90 ; use absolute coordinates
M82 ; use absolute distances for extrusion
G92 E0
; Filament gcode
;LAYER_CHANGE
;Z:0.35
;HEIGHT:0.35
G1 Z0.350 F6600.000
G1 E-4.00000 F2400.000
G92 E0
G1 Z0.450 F6600.000
G1 X124.645 Y88.128
G1 Z0.350
G1 E4.00000 F2400.000
;TYPE:Skirt
;WIDTH:0.42
G1 X126.562 Y86.235 E4.13521
G1 X127.098 Y85.980 E4.16499
G1 X127.681 Y85.890 E4.19460
G1 X172.938 Y85.890 E6.46587
G1 X173.704 Y86.041 E6.50506
G1 X174.359 Y86.472 E6.54443
G1 X176.599 Y88.734 E6.70416
G1 X176.904 Y89.287 E6.73586
G1 X177.025 Y89.903 E6.76739
G1 X176.864 Y117.875 E8.17122
G1 X176.711 Y118.492 E8.20310
G1 X176.228 Y119.380 E8.25386
G1 X174.315 Y121.268 E8.38872
G1 X173.779 Y121.523 E8.41851
G1 X173.196 Y121.613 E8.44811
G1 X127.837 Y121.611 E10.72451
G1 X127.212 Y121.478 E10.75656
G1 X126.660 Y121.158 E10.78862
G1 X124.196 Y118.655 E10.96486
G1 X123.940 Y118.120 E10.99465
G1 X123.850 Y117.533 E11.02443
G1 X124.011 Y89.656 E12.42349
G1 X124.161 Y89.024 E12.45606
G1 X124.617 Y88.181 E12.50417
G1 X124.918 Y88.345 F6600.000
G1 F2400.000
G1 X126.759 Y86.518 E12.63433
G1 X127.202 Y86.309 E12.65890
G1 X127.686 Y86.235 E12.68347
G1 X172.938 Y86.235 E14.95446
G1 X173.576 Y86.361 E14.98714
G1 X174.119 Y86.720 E15.01981
G1 X176.311 Y88.926 E15.17588
G1 X176.577 Y89.397 E15.20300
G1 X176.681 Y89.924 E15.22996
G1 X176.521 Y117.836 E16.63080
G1 X176.390 Y118.364 E16.65808
G1 X175.945 Y119.183 E16.70487
G1 X174.118 Y120.985 E16.83367
G1 X173.675 Y121.195 E16.85825
G1 X173.191 Y121.269 E16.88282
G1 X127.856 Y121.266 E19.15799
G1 X127.328 Y121.153 E19.18512
G1 X126.862 Y120.878 E19.21224
G1 X124.477 Y118.455 E19.38288
G1 X124.268 Y118.012 E19.40745
G1 X124.195 Y117.528 E19.43202
G1 X124.355 Y89.683 E20.82948
G1 X124.484 Y89.145 E20.85723
G1 X124.890 Y88.398 E20.89992
G1 X125.191 Y88.561 F6600.000
G1 F2400.000
G1 X125.214 Y88.520 E20.90228
G1 X126.958 Y86.800 E21.02524
G1 X127.308 Y86.637 E21.04458
G1 X127.692 Y86.579 E21.06407
G1 X172.937 Y86.579 E23.33476
G1 X173.445 Y86.680 E23.36076
G1 X173.880 Y86.968 E23.38691
G1 X176.030 Y89.127 E23.53981
G1 X176.251 Y89.509 E23.56200
G1 X176.337 Y89.943 E23.58418
G1 X176.178 Y117.803 E24.98239
G1 X176.069 Y118.238 E25.00486
G1 X175.662 Y118.985 E25.04759
G1 X173.919 Y120.703 E25.17041
G1 X173.569 Y120.866 E25.18976
G1 X173.185 Y120.924 E25.20924
G1 X127.877 Y120.922 E27.48309
G1 X127.448 Y120.829 E27.50513
G1 X127.069 Y120.601 E27.52732
G1 X124.761 Y118.259 E27.69236
G1 X124.597 Y117.907 E27.71184
G1 X124.540 Y117.523 E27.73133
G1 X124.698 Y89.711 E29.12710
G1 X124.806 Y89.271 E29.14985
G1 X125.163 Y88.614 E29.18736
G1 E25.18736
G92 E0
G1 Z0.450 F6600.000
G1 X174.992 Y89.982
G1 Z0.350
G1 E4.00000 F2400.000
;TYPE:Support material
G1 X172.934 Y87.924 E4.14606
G1 X172.238 Y87.924 E4.18103
G1 X174.837 Y90.524 E4.36552
G1 X174.837 Y91.221 E4.40049
G1 X171.541 Y87.924 E4.63444
G1 X170.844 Y87.924 E4.66941
G1 X174.837 Y91.917 E4.95281
G1 X174.837 Y92.614 E4.98778
G1 X170.147 Y87.924 E5.32063
G1 X169.450 Y87.924 E5.35560
G1 X174.837 Y93.311 E5.73791
G1 X174.837 Y94.008 E5.77288
G1 X168.754 Y87.924 E6.20464
G1 X168.057 Y87.924 E6.23961
G1 X174.837 Y94.705 E6.72083
G1 X174.837 Y95.401 E6.75579
G1 X167.360 Y87.924 E7.28646
G1 X166.663 Y87.924 E7.32143
G1 X174.837 Y96.098 E7.90155
G1 X174.837 Y96.795 E7.93652
G1 X165.966 Y87.924 E8.56609
G1 X165.270 Y87.924 E8.60106
G1 X174.837 Y97.492 E9.28009
G1 X174.837 Y98.188 E9.31506
G1 X164.573 Y87.924 E10.04354
G1 X163.876 Y87.924 E10.07851
G1 X174.837 Y98.885 E10.85644
G1 X174.837 Y99.582 E10.89141
G1 X163.179 Y87.924 E11.71879
G1 X162.483 Y87.924 E11.75376
G1 X174.837 Y100.279 E12.63060
G1 X174.837 Y100.976 E12.66557
G1 X161.786 Y87.924 E13.59186
G1 X161.089 Y87.924 E13.62683
G1 X174.837 Y101.672 E14.60258
G1 X174.837 Y102.369 E14.63755
G1 X160.392 Y87.924 E15.66274
G1 X159.695 Y87.924 E15.69771
G1 X174.837 Y103.066 E16.77236
G1 X174.837 Y103.763 E16.80733
G1 X158.999 Y87.924 E17.93144
G1 X158.302 Y87.924 E17.96641
G1 X174.837 Y104.459 E19.13996
G1 X174.837 Y105.156 E19.17493
G1 X157.605 Y87.924 E20.39794
G1 X156.908 Y87.924 E20.43291
G1 X174.837 Y105.853 E21.70538
G1 X174.837 Y106.550 E21.74035
G1 X156.212 Y87.924 E23.06226
G1 X155.515 Y87.924 E23.09723
G1 X174.837 Y107.247 E24.46860
G1 X174.837 Y107.943 E24.50357
G1 X154.818 Y87.924 E25.92439
G1 X154.121 Y87.924 E25.95936
G1 X174.837 Y108.640 E27.42964
G1 X174.837 Y109.337 E27.46461
G1 X153.424 Y87.924 E28.98434
G1 X152.728 Y87.924 E29.01931
G1 X174.837 Y110.034 E30.58849
G1 X174.837 Y110.731 E30.62346
G1 X152.031 Y87.924 E32.24209
G1 X151.334 Y87.924 E32.27706
G1 X174.837 Y111.427 E33.94515
G1 X174.837 Y112.124 E33.98012
G1 X150.637 Y87.924 E35.69766
G1 X149.941 Y87.924 E35.73263
G1 X174.837 Y112.821 E37.49962
G1 X174.837 Y113.518 E37.53459
G1 X149.244 Y87.924 E39.35104
G1 X148.547 Y87.924 E39.38601
G1 X174.837 Y114.214 E41.25191
G1 X174.837 Y114.911 E41.28688
G1 X147.850 Y87.924 E43.20223
G1 X147.153 Y87.924 E43.23720
G1 X174.837 Y115.608 E45.20201
G1 X174.837 Y116.305 E45.23698
G1 X146.457 Y87.924 E47.25124
G1 X145.760 Y87.924 E47.28621
G1 X174.837 Y117.002 E49.34992
G1 X174.837 Y117.698 E49.38489
G1 X145.063 Y87.924 E51.49806
G1 X144.366 Y87.924 E51.53303
G1 X174.601 Y118.159 E53.67887
G1 X174.252 Y118.507 E53.70360
G1 X143.670 Y87.924 E55.87417
G1 X142.973 Y87.924 E55.90914
G1 X173.904 Y118.856 E58.10443
G1 X173.555 Y119.204 E58.12916
G1 X142.276 Y87.924 E60.34919
G1 X141.579 Y87.924 E60.38415
G1 X173.207 Y119.552 E62.62890
G1 X173.181 Y119.579 E62.63078
G1 X172.537 Y119.579 E62.66310
G1 X140.882 Y87.924 E64.90972
G1 X140.186 Y87.924 E64.94469
G1 X171.840 Y119.579 E67.19132
G1 X171.143 Y119.579 E67.22629
G1 X139.489 Y87.924 E69.47291
G1 X138.792 Y87.924 E69.50788
G1 X170.446 Y119.579 E71.75451
G1 X169.750 Y119.579 E71.78948
G1 X138.095 Y87.924 E74.03610
G1 X137.399 Y87.924 E74.07107
G1 X169.053 Y119.579 E76.31770
G1 X168.356 Y119.579 E76.35266
G1 X136.702 Y87.924 E78.59929
G1 X136.005 Y87.924 E78.63426
G1 X167.659 Y119.579 E80.88089
G1 X166.962 Y119.579 E80.91585
G1 X135.308 Y87.924 E83.16248
G1 X134.611 Y87.924 E83.19745
G1 X166.266 Y119.579 E85.44407
G1 X165.569 Y119.579 E85.47904
G1 X133.915 Y87.924 E87.72567
G1 X133.218 Y87.924 E87.76064
G1 X164.872 Y119.579 E90.00726
G1 X164.175 Y119.579 E90.04223
G1 X132.521 Y87.924 E92.28886
G1 X131.824 Y87.924 E92.32383
G1 X163.479 Y119.579 E94.57045
G1 X162.782 Y119.579 E94.60542
G1 X131.127 Y87.924 E96.85205
G1 X130.431 Y87.924 E96.88702
G1 X162.085 Y119.579 E99.13364
G1 X161.388 Y119.579 E99.16861
G1 X129.734 Y87.924 E101.41524
G1 X129.037 Y87.924 E101.45021
G1 X160.691 Y119.579 E103.69683
G1 X159.995 Y119.579 E103.73180
G1 X128.340 Y87.924 E105.97843
G1 X127.696 Y87.924 E106.01074
G1 X127.670 Y87.951 E106.01262
G1 X159.298 Y119.579 E108.25737
G1 X158.601 Y119.579 E108.29234
G1 X127.322 Y88.299 E110.51236
G1 X126.973 Y88.648 E110.53709
G1 X157.904 Y119.579 E112.73239
G1 X157.208 Y119.579 E112.76736
G1 X126.625 Y88.996 E114.93793
G1 X126.276 Y89.344 E114.96265
G1 X156.511 Y119.579 E117.10850
G1 X155.814 Y119.579 E117.14347
G1 X126.040 Y89.805 E119.25663
G1 X126.040 Y90.502 E119.29160
G1 X155.117 Y119.579 E121.35532
G1 X154.420 Y119.579 E121.39028
G1 X126.040 Y91.198 E123.40454
G1 X126.040 Y91.895 E123.43951
G1 X153.724 Y119.579 E125.40432
G1 X153.027 Y119.579 E125.43929
G1 X126.040 Y92.592 E127.35464
G1 X126.040 Y93.289 E127.38961
G1 X152.330 Y119.579 E129.25551
G1 X151.633 Y119.579 E129.29048
G1 X126.040 Y93.985 E131.10693
G1 X126.040 Y94.682 E131.14190
G1 X150.937 Y119.579 E132.90889
G1 X150.240 Y119.579 E132.94386
G1 X126.040 Y95.379 E134.66140
G1 X126.040 Y96.076 E134.69637
G1 X149.543 Y119.579 E136.36446
G1 X148.846 Y119.579 E136.39943
G1 X126.040 Y96.773 E138.01807
G1 X126.040 Y97.469 E138.05303
G1 X148.149 Y119.579 E139.62222
G1 X147.453 Y119.579 E139.65719
G1 X126.040 Y98.166 E141.17692
G1 X126.040 Y98.863 E141.21188
G1 X146.756 Y119.579 E142.68216
G1 X146.059 Y119.579 E142.71713
G1 X126.040 Y99.560 E144.13795
G1 X126.040 Y100.256 E144.17292
G1 X145.362 Y119.579 E145.54429
G1 X144.666 Y119.579 E145.57926
G1 X126.040 Y100.953 E146.90118
G1 X126.040 Y101.650 E146.93615
G1 X143.969 Y119.579 E148.20861
G1 X143.272 Y119.579 E148.24358
G1 X126.040 Y102.347 E149.46659
G1 X126.040 Y103.044 E149.50156
G1 X142.575 Y119.579 E150.67512
G1 X141.878 Y119.579 E150.71008
G1 X126.040 Y103.740 E151.83419
G1 X126.040 Y104.437 E151.86916
G1 X141.182 Y119.579 E152.94381
G1 X140.485 Y119.579 E152.97878
G1 X126.040 Y105.134 E154.00398
G1 X126.040 Y105.831 E154.03895
G1 X139.788 Y119.579 E155.01469
G1 X139.091 Y119.579 E155.04966
G1 X126.040 Y106.528 E155.97595
G1 X126.040 Y107.224 E156.01092
G1 X138.395 Y119.579 E156.88776
G1 X137.698 Y119.579 E156.92273
G1 X126.040 Y107.921 E157.75012
G1 X126.040 Y108.618 E157.78508
G1 X137.001 Y119.579 E158.56302
G1 X136.304 Y119.579 E158.59799
G1 X126.040 Y109.315 E159.32647
G1 X126.040 Y110.011 E159.36143
G1 X135.607 Y119.579 E160.04046
G1 X134.911 Y119.579 E160.07543
G1 X126.040 Y110.708 E160.70500
G1 X126.040 Y111.405 E160.73997
G1 X134.214 Y119.579 E161.32009
G1 X133.517 Y119.579 E161.35506
G1 X126.040 Y112.102 E161.88573
G1 X126.040 Y112.799 E161.92070
G1 X132.820 Y119.579 E162.40191
G1 X132.123 Y119.579 E162.43688
G1 X126.040 Y113.495 E162.86864
G1 X126.040 Y114.192 E162.90361
G1 X131.427 Y119.579 E163.28592
G1 X130.730 Y119.579 E163.32089
G1 X126.040 Y114.889 E163.65374
G1 X126.040 Y115.586 E163.68871
G1 X130.033 Y119.579 E163.97211
G1 X129.336 Y119.579 E164.00708
G1 X126.040 Y116.282 E164.24103
G1 X126.040 Y116.979 E164.27600
G1 X128.640 Y119.579 E164.46050
G1 X127.943 Y119.579 E164.49546
G1 X125.885 Y117.521 E164.64152
;LAYER_CHANGE
;Z:0.65
;HEIGHT:0.3
G1 Z0.650 F6600.000
M104 S200 ; set temperature
M140 S60 ; set bed temperature
G1 X124.460 Y118.924
;TYPE:Skirt
G1 F3600.000
G1 X124.196 Y118.655 E164.65823
G1 X123.940 Y118.120 E164.68455
G1 X123.850 Y117.533 E164.71087
G1 X124.011 Y89.656 E165.94737
G1 X124.161 Y89.024 E165.97617
G1 X124.645 Y88.128 E166.02134
G1 X126.562 Y86.235 E166.14084
G1 X127.098 Y85.980 E166.16716
G1 X127.681 Y85.890 E166.19333
G1 X172.938 Y85.890 E168.20070
G1 X173.704 Y86.041 E168.23534
G1 X174.359 Y86.472 E168.27014
G1 X176.599 Y88.734 E168.41131
G1 X176.904 Y89.287 E168.43933
G1 X177.025 Y89.903 E168.46719
G1 X176.864 Y117.875 E169.70791
G1 X176.711 Y118.492 E169.73609
G1 X176.228 Y119.380 E169.78095
G1 X174.315 Y121.268 E169.90014
G1 X173.779 Y121.523 E169.92646
G1 X173.196 Y121.613 E169.95263
G1 X127.837 Y121.611 E171.96453
G1 X127.212 Y121.478 E171.99286
G1 X126.660 Y121.158 E172.02119
G1 X124.502 Y118.966 E172.15759
G1 X124.745 Y118.727 F6600.000
G1 F3600.000
G1 X124.477 Y118.455 E172.17454
G1 X124.268 Y118.012 E172.19626
G1 X124.195 Y117.528 E172.21797
G1 X124.355 Y89.683 E173.45306
G1 X124.484 Y89.145 E173.47759
G1 X124.930 Y88.323 E173.51909
G1 X126.759 Y86.518 E173.63306
G1 X127.202 Y86.309 E173.65478
G1 X127.686 Y86.235 E173.67650
G1 X172.938 Y86.235 E175.68362
G1 X173.576 Y86.361 E175.71250
G1 X174.119 Y86.720 E175.74137
G1 X176.311 Y88.926 E175.87931
G1 X176.577 Y89.397 E175.90328
G1 X176.681 Y89.924 E175.92711
G1 X176.521 Y117.836 E177.16519
G1 X176.390 Y118.364 E177.18930
G1 X175.945 Y119.183 E177.23065
G1 X174.118 Y120.985 E177.34449
G1 X173.675 Y121.195 E177.36620
G1 X173.191 Y121.269 E177.38792
G1 X127.856 Y121.266 E179.39874
G1 X127.328 Y121.153 E179.42271
G1 X126.862 Y120.878 E179.44668
G1 X124.787 Y118.770 E179.57789
G1 X125.029 Y118.531 F6600.000
G1 F3600.000
G1 X124.761 Y118.259 E179.59486
G1 X124.597 Y117.907 E179.61209
G1 X124.540 Y117.523 E179.62931
G1 X124.698 Y89.711 E180.86290
G1 X124.806 Y89.271 E180.88301
G1 X125.214 Y88.520 E180.92090
G1 X126.958 Y86.800 E181.02958
G1 X127.308 Y86.637 E181.04667
G1 X127.692 Y86.579 E181.06390
G1 X172.937 Y86.579 E183.07075
G1 X173.445 Y86.680 E183.09374
G1 X173.880 Y86.968 E183.11685
G1 X176.030 Y89.127 E183.25198
G1 X176.251 Y89.509 E183.27159
G1 X176.337 Y89.943 E183.29120
G1 X176.178 Y117.803 E184.52695
G1 X176.069 Y118.238 E184.54681
G1 X175.662 Y118.985 E184.58458
G1 X173.919 Y120.703 E184.69313
G1 X173.569 Y120.866 E184.71022
G1 X173.185 Y120.924 E184.72744
G1 X127.877 Y120.922 E186.73709
G1 X127.448 Y120.829 E186.75658
G1 X127.069 Y120.601 E186.77619
G1 X125.071 Y118.574 E186.90241
G1 E182.90241 F2400.000
G92 E0
G1 Z0.750 F6600.000
G1 X171.008 Y116.737
G1 Z0.650
G1 E4.00000 F2400.000
;TYPE:Support material interface
;WIDTH:0.35
G1 F3600.000
G1 X171.008 Y90.895 E4.92061
G1 X169.723 Y90.895 E4.96640
G1 X169.723 Y116.608 E5.88243
G1 X168.437 Y116.608 E5.92823
G1 X168.437 Y90.895 E6.84426
G1 X167.152 Y90.895 E6.89006
G1 X167.152 Y116.608 E7.80608
G1 X165.866 Y116.608 E7.85188
G1 X165.866 Y90.895 E8.76791
G1 X164.580 Y90.895 E8.81371
G1 X164.580 Y116.608 E9.72974
G1 X163.295 Y116.608 E9.77554
G1 X163.295 Y90.895 E10.69156
G1 X162.009 Y90.895 E10.73736
G1 X162.009 Y116.608 E11.65339
G1 X160.724 Y116.608 E11.69919
G1 X160.724 Y90.895 E12.61521
G1 X159.438 Y90.895 E12.66101
G1 X159.438 Y116.608 E13.57704
G1 X158.152 Y116.608 E13.62284
G1 X158.152 Y90.895 E14.53887
G1 X156.867 Y90.895 E14.58467
G1 X156.867 Y116.608 E15.50069
G1 X155.581 Y116.608 E15.54649
G1 X155.581 Y90.895 E16.46252
G1 X154.295 Y90.895 E16.50832
G1 X154.295 Y116.608 E17.42435
G1 X153.010 Y116.608 E17.47014
G1 X153.010 Y90.895 E18.38617
G1 X151.724 Y90.895 E18.43197
G1 X151.724 Y116.608 E19.34800
G1 X150.439 Y116.608 E19.39380
G1 X150.439 Y90.895 E20.30982
G1 X149.153 Y90.895 E20.35562
G1 X149.153 Y116.608 E21.27165
G1 X147.867 Y116.608 E21.31745
G1 X147.867 Y90.895 E22.23348
G1 X146.582 Y90.895 E22.27928
G1 X146.582 Y116.608 E23.19530
G1 X145.296 Y116.608 E23.24110
G1 X145.296 Y90.895 E24.15713
G1 X144.010 Y90.895 E24.20293
G1 X144.010 Y116.608 E25.11895
G1 X142.725 Y116.608 E25.16475
G1 X142.725 Y90.895 E26.08078
G1 X141.439 Y90.895 E26.12658
G1 X141.439 Y116.608 E27.04261
G1 X140.154 Y116.608 E27.08841
G1 X140.154 Y90.895 E28.00443
G1 X138.868 Y90.895 E28.05023
G1 X138.868 Y116.608 E28.96626
G1 X137.582 Y116.608 E29.01206
G1 X137.582 Y90.895 E29.92809
G1 X136.297 Y90.895 E29.97388
G1 X136.297 Y116.608 E30.88991
G1 X135.011 Y116.608 E30.93571
G1 X135.011 Y90.895 E31.85174
G1 X133.726 Y90.895 E31.89754
G1 X133.726 Y116.608 E32.81356
G1 X132.440 Y116.608 E32.85936
G1 X132.440 Y90.895 E33.77539
G1 X131.154 Y90.895 E33.82119
G1 X131.154 Y116.608 E34.73722
G1 X129.869 Y116.608 E34.78301
G1 X129.869 Y90.766 E35.70362
;LAYER_CHANGE
;Z:0.932353
;HEIGHT:0.282353
G1 Z0.932 F6600.000
G1 E31.70362 F2400.000
G92 E0
G1 Z1.032 F6600.000
G1 X130.909 Y99.466
G1 Z0.932
G1 E4.00000 F2400.000
;TYPE:Support material
G1 F2840
G1 X129.301 Y99.466 E4.05461
G1 X129.301 Y103.752 E4.20020
G1 X130.909 Y103.752 E4.25481
G1 X131.039 Y108.005 F6600.000
G1 F2840
G1 X131.039 Y95.212 E4.68941
G1 X129.043 Y95.212 E4.75722
G1 X129.043 Y108.005 E5.19182
G1 X131.039 Y108.005 E5.25963
G1 E1.25963 F2400.000
G92 E0
G1 Z1.032 F6600.000
G1 X158.978 Y116.576
G1 Z0.932
G1 E4.00000 F2400.000
G1 F2840
G1 X158.978 Y114.152 E4.08237
G1 X141.899 Y114.152 E4.66257
G1 X141.899 Y116.576 E4.74494
G1 X158.978 Y116.576 E5.32514
G1 E1.32514 F2400.000
G92 E0
G1 Z1.032 F6600.000
G1 X171.834 Y112.291
G1 Z0.932
G1 E4.00000 F2400.000
G1 F2840
G1 X171.834 Y95.212 E4.58020
G1 X169.839 Y95.212 E4.64800
G1 X169.839 Y112.291 E5.22820
G1 X171.834 Y112.291 E5.29601
G1 X169.969 Y108.037 F6600.000
G1 F2840
G1 X171.576 Y108.037 E5.35061
G1 X171.576 Y103.752 E5.49621
G1 X170.097 Y103.752 E5.54645
G1 X170.097 Y99.466 E5.69204
