; generated by PrusaSlicer 2.3.1+win64 on 2021-06-01 at 00:28:24 UTC

; 

; external perimeters extrusion width = 0.45mm
; perimeters extrusion width = 0.45mm
; infill extrusion width = 0.45mm
; solid infill extrusion width = 0.45mm
; top infill extrusion width = 0.40mm
; support material extrusion width = 0.35mm
; first layer extrusion width = 0.42mm

M107
M190 S80 ; set bed temperature and wait for it to be reached
M104 S230 ; set temperature
;TYPE:Custom
G28 ; home all axes
G1 Z5 F5000 ; lift nozzle
M109 S230 ; set temperature and wait for it to be reached
G21 ; set units to millimeters
G90 ; use absolute coordinates
M82 ; use absolute distances for extrusion
G92 E0
; Filament gcode
;LAYER_CHANGE
;Z:0.35
;HEIGHT:0.35
G1 Z0.350 F6600.000
G1 E-4.00000 F2400.000
G92 E0
G1 Z0.450 F6600.000
G1 X95.853 Y69.404
G1 Z0.350
G1 E4.00000 F2400.000
;TYPE:Skirt
;WIDTH:0.42
G1 F3000.000
G1 X97.045 Y68.010 E4.09206
G1 X98.428 Y66.829 E4.18331
G1 X99.891 Y65.926 E4.26957
G1 X101.806 Y65.132 E4.37364
G1 X103.482 Y64.735 E4.46006
G1 X105.295 Y64.592 E4.55132
G1 X195.308 Y64.592 E9.06875
G1 X197.146 Y64.738 E9.16123
G1 X199.034 Y65.207 E9.25889
G1 X200.728 Y65.931 E9.35134
G1 X202.175 Y66.824 E9.43670
G1 X203.479 Y67.930 E9.52248
G1 X204.756 Y69.402 E9.62030
G1 X205.719 Y70.971 E9.71268
G1 X206.425 Y72.675 E9.80522
G1 X206.862 Y74.538 E9.90128
G1 X206.995 Y76.262 E9.98803
G1 X206.994 Y86.330 E10.49333
G1 X206.850 Y88.116 E10.58324
G1 X206.410 Y89.933 E10.67706
G1 X205.723 Y91.585 E10.76687
G1 X204.834 Y93.045 E10.85265
G1 X203.563 Y94.556 E10.95175
G1 X202.182 Y95.735 E11.04285
G1 X200.720 Y96.638 E11.12911
G1 X198.804 Y97.432 E11.23318
G1 X197.129 Y97.829 E11.31960
G1 X195.316 Y97.972 E11.41085
G1 X105.183 Y97.967 E15.93424
G1 X103.468 Y97.826 E16.02061
G1 X101.685 Y97.397 E16.11267
G1 X99.996 Y96.697 E16.20440
G1 X98.419 Y95.728 E16.29727
G1 X97.038 Y94.546 E16.38852
G1 X95.841 Y93.143 E16.48106
G1 X94.884 Y91.578 E16.57312
G1 X94.155 Y89.781 E16.67046
G1 X93.759 Y88.108 E16.75672
G1 X93.617 Y86.350 E16.84524
G1 X93.615 Y76.279 E17.35070
G1 X93.759 Y74.454 E17.44254
G1 X94.180 Y72.692 E17.53347
G1 X94.953 Y70.861 E17.63322
G1 X95.822 Y69.455 E17.71615
G1 X96.114 Y69.634 F6600.000
G1 F3000.000
G1 X97.279 Y68.264 E17.80643
G1 X98.554 Y67.169 E17.89075
G1 X100.241 Y66.133 E17.99008
G1 X101.800 Y65.492 E18.07469
G1 X103.441 Y65.094 E18.15943
G1 X105.303 Y64.937 E18.25321
G1 X195.308 Y64.937 E22.77021
G1 X197.089 Y65.078 E22.85985
G1 X198.910 Y65.529 E22.95401
G1 X200.456 Y66.174 E23.03808
G1 X201.891 Y67.048 E23.12239
G1 X203.323 Y68.256 E23.21645
G1 X204.487 Y69.618 E23.30636
G1 X205.456 Y71.223 E23.40042
G1 X206.095 Y72.776 E23.48473
G1 X206.490 Y74.404 E23.56876
G1 X206.648 Y76.205 E23.65951
G1 X206.650 Y86.296 E24.16595
G1 X206.523 Y87.952 E24.24928
G1 X206.098 Y89.777 E24.34333
G1 X205.443 Y91.371 E24.42980
G1 X204.421 Y93.029 E24.52757
G1 X203.325 Y94.306 E24.61203
G1 X201.980 Y95.455 E24.70080
G1 X200.364 Y96.433 E24.79557
G1 X198.811 Y97.072 E24.87989
G1 X197.170 Y97.470 E24.96463
G1 X195.305 Y97.627 E25.05853
G1 X105.302 Y97.627 E29.57540
G1 X103.618 Y97.498 E29.66017
G1 X101.805 Y97.073 E29.75366
G1 X100.160 Y96.393 E29.84300
G1 X98.637 Y95.460 E29.93263
G1 X97.291 Y94.312 E30.02139
G1 X96.127 Y92.950 E30.11131
G1 X95.199 Y91.437 E30.20036
G1 X94.517 Y89.793 E30.28971
G1 X94.117 Y88.146 E30.37474
G1 X93.960 Y86.299 E30.46780
G1 X93.961 Y76.245 E30.97237
G1 X94.101 Y74.498 E31.06029
G1 X94.548 Y72.687 E31.15392
G1 X95.198 Y71.128 E31.23866
G1 X96.083 Y69.685 E31.32361
G1 X95.019 Y69.042 F6600.000
G1 F3000.000
G1 X95.074 Y68.951 E31.32892
G1 X96.427 Y67.360 E31.43372
G1 X97.976 Y66.050 E31.53557
G1 X99.616 Y65.055 E31.63179
G1 X101.412 Y64.313 E31.72934
G1 X103.303 Y63.856 E31.82696
G1 X105.256 Y63.695 E31.92533
G1 X195.368 Y63.696 E36.44768
G1 X197.364 Y63.865 E36.54820
G1 X199.303 Y64.347 E36.64850
G1 X201.019 Y65.067 E36.74188
G1 X202.611 Y66.033 E36.83533
G1 X204.154 Y67.335 E36.93664
G1 X205.470 Y68.860 E37.03772
G1 X206.520 Y70.569 E37.13838
G1 X207.266 Y72.364 E37.23596
G1 X207.731 Y74.279 E37.33482
G1 X207.890 Y76.176 E37.43040
G1 X207.890 Y86.387 E37.94284
G1 X207.722 Y88.338 E38.04112
G1 X207.258 Y90.225 E38.13865
G1 X206.519 Y91.998 E38.23501
G1 X205.469 Y93.705 E38.33560
G1 X204.165 Y95.222 E38.43598
G1 X202.702 Y96.465 E38.53234
G1 X200.992 Y97.510 E38.63293
G1 X199.141 Y98.269 E38.73329
G1 X197.277 Y98.713 E38.82949
G1 X195.354 Y98.869 E38.92632
G1 X105.217 Y98.867 E43.44992
G1 X103.338 Y98.713 E43.54452
G1 X101.419 Y98.253 E43.64356
G1 X99.594 Y97.498 E43.74267
G1 X97.910 Y96.466 E43.84179
G1 X96.408 Y95.184 E43.94091
G1 X95.125 Y93.682 E44.04003
G1 X94.092 Y91.999 E44.13914
G1 X93.336 Y90.174 E44.23827
G1 X92.879 Y88.281 E44.33602
G1 X92.719 Y86.330 E44.43425
G1 X92.720 Y76.191 E44.94308
G1 X92.883 Y74.256 E45.04053
G1 X93.336 Y72.390 E45.13690
G1 X94.066 Y70.616 E45.23319
G1 X94.988 Y69.093 E45.32253
G1 X95.283 Y69.272 F6600.000
G1 F3000.000
G1 X95.362 Y69.142 E45.33014
G1 X96.680 Y67.595 E45.43217
G1 X98.167 Y66.337 E45.52990
G1 X99.760 Y65.369 E45.62345
G1 X101.506 Y64.645 E45.71833
G1 X103.345 Y64.199 E45.81327
G1 X105.263 Y64.040 E45.90988
G1 X195.361 Y64.041 E50.43151
G1 X197.321 Y64.208 E50.53023
G1 X199.183 Y64.671 E50.62651
G1 X200.851 Y65.369 E50.71730
G1 X202.421 Y66.321 E50.80941
G1 X203.921 Y67.590 E50.90801
G1 X205.200 Y69.074 E51.00634
G1 X206.219 Y70.737 E51.10424
G1 X206.942 Y72.484 E51.19911
G1 X207.388 Y74.321 E51.29397
G1 X207.545 Y76.184 E51.38779
G1 X207.545 Y86.380 E51.89951
G1 X207.384 Y88.270 E51.99468
G1 X206.934 Y90.105 E52.08955
G1 X206.218 Y91.829 E52.18320
G1 X205.182 Y93.513 E52.28242
G1 X203.931 Y94.968 E52.37872
G1 X202.510 Y96.178 E52.47238
G1 X200.823 Y97.209 E52.57160
G1 X199.048 Y97.937 E52.66789
G1 X197.235 Y98.370 E52.76143
G1 X195.347 Y98.524 E52.85654
G1 X105.237 Y98.523 E57.37875
G1 X103.405 Y98.375 E57.47102
G1 X101.538 Y97.929 E57.56735
G1 X99.762 Y97.196 E57.66375
G1 X98.123 Y96.195 E57.76015
G1 X96.661 Y94.949 E57.85655
G1 X95.411 Y93.490 E57.95295
G1 X94.405 Y91.854 E58.04935
G1 X93.668 Y90.080 E58.14576
G1 X93.217 Y88.213 E58.24215
G1 X93.063 Y86.323 E58.33730
G1 X93.065 Y76.212 E58.84471
G1 X93.221 Y74.324 E58.93980
G1 X93.668 Y72.484 E59.03482
G1 X94.380 Y70.760 E59.12845
G1 X95.252 Y69.323 E59.21279
G1 X95.546 Y69.502 F6600.000
G1 F3000.000
G1 X95.649 Y69.333 E59.22271
G1 X96.934 Y67.830 E59.32196
G1 X98.358 Y66.625 E59.41560
G1 X99.905 Y65.682 E59.50650
G1 X101.601 Y64.977 E59.59871
G1 X103.387 Y64.541 E59.69094
G1 X105.271 Y64.385 E59.78581
G1 X195.354 Y64.386 E64.30671
G1 X197.251 Y64.546 E64.40229
G1 X199.062 Y64.994 E64.49589
G1 X200.706 Y65.682 E64.58536
G1 X202.230 Y66.608 E64.67484
G1 X203.687 Y67.844 E64.77072
G1 X204.929 Y69.288 E64.86631
G1 X205.917 Y70.905 E64.96144
G1 X206.619 Y72.603 E65.05362
G1 X207.046 Y74.363 E65.14450
G1 X207.200 Y76.191 E65.23656
G1 X207.200 Y86.373 E65.74755
G1 X207.046 Y88.201 E65.83962
G1 X206.610 Y89.986 E65.93183
G1 X205.917 Y91.660 E66.02276
G1 X204.896 Y93.321 E66.12060
G1 X203.697 Y94.714 E66.21285
G1 X202.319 Y95.891 E66.30380
G1 X200.655 Y96.907 E66.40163
G1 X198.955 Y97.605 E66.49387
G1 X197.194 Y98.027 E66.58475
G1 X195.339 Y98.179 E66.67813
G1 X105.258 Y98.178 E71.19896
G1 X103.471 Y98.036 E71.28890
G1 X101.656 Y97.605 E71.38253
G1 X99.930 Y96.895 E71.47621
G1 X98.336 Y95.923 E71.56990
G1 X96.913 Y94.714 E71.66358
G1 X95.698 Y93.298 E71.75727
G1 X94.718 Y91.708 E71.85095
G1 X94.000 Y89.985 E71.94464
G1 X93.560 Y88.171 E72.03832
G1 X93.408 Y86.316 E72.13173
G1 X93.409 Y76.234 E72.63773
G1 X93.560 Y74.393 E72.73044
G1 X94.000 Y72.579 E72.82410
G1 X94.694 Y70.904 E72.91505
G1 X95.515 Y69.553 E72.99441
G1 X96.510 Y69.908 F6600.000
G1 F3000.000
G1 X97.654 Y68.573 E73.08266
G1 X98.932 Y67.487 E73.16684
G1 X100.386 Y66.598 E73.25238
G1 X101.936 Y65.956 E73.33655
G1 X103.565 Y65.560 E73.42071
G1 X105.292 Y65.420 E73.50762
G1 X195.332 Y65.420 E78.02640
G1 X197.045 Y65.560 E78.11265
G1 X198.700 Y65.964 E78.19815
G1 X200.248 Y66.610 E78.28230
G1 X201.656 Y67.470 E78.36512
G1 X202.966 Y68.586 E78.45149
G1 X204.100 Y69.908 E78.53886
G1 X204.989 Y71.362 E78.62442
G1 X205.631 Y72.912 E78.70859
G1 X206.027 Y74.542 E78.79278
G1 X206.166 Y76.241 E78.87833
G1 X206.166 Y86.323 E79.38432
G1 X206.027 Y88.022 E79.46986
G1 X205.631 Y89.652 E79.55406
G1 X204.989 Y91.202 E79.63823
G1 X204.068 Y92.700 E79.72648
G1 X202.975 Y93.973 E79.81067
G1 X201.700 Y95.062 E79.89484
G1 X200.200 Y95.978 E79.98307
G1 X198.648 Y96.616 E80.06725
G1 X197.017 Y97.008 E80.15143
G1 X195.319 Y97.144 E80.23695
G1 X105.292 Y97.144 E84.75504
G1 X103.619 Y97.012 E84.83925
G1 X101.961 Y96.616 E84.92479
G1 X100.386 Y95.966 E85.01033
G1 X98.931 Y95.077 E85.09587
G1 X97.634 Y93.971 E85.18140
G1 X96.525 Y92.677 E85.26694
G1 X95.633 Y91.224 E85.35248
G1 X94.979 Y89.651 E85.43801
G1 X94.579 Y87.994 E85.52355
G1 X94.443 Y86.295 E85.60906
G1 X94.443 Y76.268 E86.11227
G1 X94.579 Y74.570 E86.19779
G1 X94.979 Y72.913 E86.28332
G1 X95.633 Y71.339 E86.36888
G1 X96.479 Y69.960 E86.45006
G1 X96.773 Y70.140 F6600.000
G1 F3000.000
G1 X97.888 Y68.826 E86.53653
G1 X99.123 Y67.774 E86.61799
G1 X100.555 Y66.899 E86.70217
G1 X102.055 Y66.280 E86.78363
G1 X103.633 Y65.899 E86.86510
G1 X105.299 Y65.765 E86.94895
G1 X195.326 Y65.765 E91.46704
G1 X196.977 Y65.899 E91.55020
G1 X198.581 Y66.288 E91.63301
G1 X200.079 Y66.911 E91.71447
G1 X201.465 Y67.758 E91.79594
G1 X202.714 Y68.821 E91.87827
G1 X203.813 Y70.100 E91.96290
G1 X204.676 Y71.507 E92.04574
G1 X205.299 Y73.006 E92.12721
G1 X205.688 Y74.610 E92.21003
G1 X205.822 Y76.261 E92.29319
G1 X205.822 Y86.302 E92.79709
G1 X205.688 Y87.954 E92.88025
G1 X205.299 Y89.558 E92.96308
G1 X204.676 Y91.057 E93.04455
G1 X203.797 Y92.485 E93.12872
G1 X202.722 Y93.738 E93.21154
G1 X201.487 Y94.790 E93.29301
G1 X200.055 Y95.665 E93.37719
G1 X198.555 Y96.284 E93.45866
G1 X196.950 Y96.669 E93.54148
G1 X195.312 Y96.799 E93.62395
G1 X105.298 Y96.799 E98.14136
G1 X103.660 Y96.669 E98.22386
G1 X102.055 Y96.284 E98.30669
G1 X100.530 Y95.652 E98.38951
G1 X99.123 Y94.790 E98.47233
G1 X97.868 Y93.718 E98.55515
G1 X96.797 Y92.463 E98.63797
G1 X95.934 Y91.056 E98.72079
G1 X95.303 Y89.531 E98.80361
G1 X94.918 Y87.927 E98.88643
G1 X94.788 Y86.289 E98.96890
G1 X94.788 Y76.275 E99.47143
G1 X94.918 Y74.637 E99.55389
G1 X95.303 Y73.032 E99.63671
G1 X95.935 Y71.507 E99.71955
G1 X96.741 Y70.191 E99.79704
G1 X97.035 Y70.371 F6600.000
G1 F3000.000
G1 X97.084 Y70.292 E99.80169
G1 X98.122 Y69.080 E99.88180
G1 X99.315 Y68.061 E99.96055
G1 X100.699 Y67.212 E100.04201
G1 X102.149 Y66.612 E100.12077
G1 X103.701 Y66.237 E100.20088
G1 X105.305 Y66.109 E100.28165
G1 X195.305 Y66.109 E104.79838
G1 X196.910 Y66.237 E104.87916
G1 X198.461 Y66.612 E104.95927
G1 X199.911 Y67.213 E105.03803
G1 X201.273 Y68.045 E105.11814
G1 X202.461 Y69.056 E105.19642
G1 X203.543 Y70.314 E105.27968
G1 X204.362 Y71.652 E105.35842
G1 X204.975 Y73.126 E105.43853
G1 X205.350 Y74.677 E105.51864
G1 X205.478 Y76.282 E105.59942
G1 X205.478 Y86.282 E106.10127
G1 X205.350 Y87.886 E106.18205
G1 X204.975 Y89.438 E106.26215
G1 X204.362 Y90.912 E106.34225
G1 X203.527 Y92.272 E106.42236
G1 X202.488 Y93.484 E106.50246
G1 X201.273 Y94.519 E106.58257
G1 X199.911 Y95.351 E106.66267
G1 X198.436 Y95.960 E106.74278
G1 X196.883 Y96.331 E106.82289
G1 X195.305 Y96.454 E106.90232
G1 X105.305 Y96.454 E111.41905
G1 X103.701 Y96.326 E111.49983
G1 X102.149 Y95.952 E111.57993
G1 X100.675 Y95.339 E111.66004
G1 X99.316 Y94.503 E111.74014
G1 X98.103 Y93.465 E111.82025
G1 X97.068 Y92.250 E111.90035
G1 X96.236 Y90.888 E111.98046
G1 X95.627 Y89.412 E112.06056
G1 X95.256 Y87.860 E112.14067
G1 X95.133 Y86.282 E112.22010
G1 X95.133 Y76.282 E112.72197
G1 X95.256 Y74.704 E112.80140
G1 X95.627 Y73.151 E112.88151
G1 X96.236 Y71.676 E112.96161
G1 X97.004 Y70.422 E113.03540
G1 X97.499 Y70.725 F6600.000
;TYPE:External perimeter
G1 F3000.000
G1 X97.548 Y70.646 E113.04009
G1 X98.525 Y69.502 E113.11560
G1 X99.669 Y68.524 E113.19111
G1 X100.952 Y67.738 E113.26663
G1 X102.342 Y67.162 E113.34214
G1 X103.805 Y66.811 E113.41765
G1 X105.321 Y66.692 E113.49397
G1 X195.289 Y66.692 E118.00909
G1 X196.805 Y66.811 E118.08541
G1 X198.268 Y67.162 E118.16092
G1 X199.658 Y67.738 E118.23643
G1 X200.941 Y68.524 E118.31195
G1 X202.085 Y69.502 E118.38746
G1 X203.063 Y70.646 E118.46297
G1 X203.849 Y71.929 E118.53848
G1 X204.425 Y73.319 E118.61399
G1 X204.776 Y74.782 E118.68951
G1 X204.895 Y76.298 E118.76583
G1 X204.895 Y86.266 E119.26607
G1 X204.776 Y87.782 E119.34240
G1 X204.425 Y89.245 E119.41791
G1 X203.849 Y90.635 E119.49342
G1 X203.063 Y91.918 E119.56893
G1 X202.085 Y93.062 E119.64444
G1 X200.941 Y94.039 E119.71996
G1 X199.658 Y94.825 E119.79547
G1 X198.268 Y95.401 E119.87098
G1 X196.805 Y95.753 E119.94649
G1 X195.289 Y95.872 E120.02281
G1 X105.321 Y95.872 E124.53793
G1 X103.805 Y95.753 E124.61425
G1 X102.342 Y95.401 E124.68977
G1 X100.952 Y94.825 E124.76528
G1 X99.669 Y94.039 E124.84079
G1 X98.525 Y93.062 E124.91630
G1 X97.548 Y91.918 E124.99181
G1 X96.762 Y90.635 E125.06733
G1 X96.186 Y89.245 E125.14284
G1 X95.835 Y87.782 E125.21835
G1 X95.715 Y86.266 E125.29467
G1 X95.715 Y76.298 E125.79491
G1 X95.835 Y74.782 E125.87124
G1 X96.186 Y73.319 E125.94675
G1 X96.762 Y71.929 E126.02226
G1 X97.468 Y70.777 E126.09007
G1 E122.09007 F2400.000
G92 E0
G1 Z0.450 F6600.000
G1 X107.697 Y80.349
G1 Z0.350
G1 E4.00000 F2400.000
G1 F3000.000
G1 X107.870 Y80.184 E4.01201
G1 X108.068 Y80.050 E4.02403
G1 X108.286 Y79.951 E4.03604
G1 X108.518 Y79.891 E4.04806
G1 X108.722 Y79.873 E4.05835
G1 X108.992 Y79.890 E4.07195
G1 X109.226 Y79.951 E4.08408
G1 X109.445 Y80.050 E4.09610
G1 X109.643 Y80.184 E4.10811
G1 X109.816 Y80.349 E4.12013
G1 X109.958 Y80.542 E4.13214
G1 X110.066 Y80.756 E4.14416
G1 X110.136 Y80.984 E4.15617
G1 X110.166 Y81.222 E4.16819
G1 X110.156 Y81.461 E4.18020
G1 X110.106 Y81.695 E4.19222
G1 X110.029 Y81.886 E4.20251
G1 X109.893 Y82.119 E4.21610
G1 X109.733 Y82.301 E4.22824
G1 X109.547 Y82.451 E4.24026
G1 X109.338 Y82.568 E4.25227
G1 X109.107 Y82.649 E4.26452
G1 X108.756 Y82.694 E4.28229
G1 X108.405 Y82.649 E4.30005
G1 X108.175 Y82.568 E4.31230
G1 X107.966 Y82.451 E4.32432
G1 X107.780 Y82.301 E4.33633
G1 X107.621 Y82.121 E4.34835
G1 X107.496 Y81.917 E4.36036
G1 X107.407 Y81.695 E4.37238
G1 X107.356 Y81.461 E4.38439
G1 X107.346 Y81.222 E4.39641
G1 X107.376 Y80.984 E4.40842
G1 X107.447 Y80.756 E4.42044
G1 X107.554 Y80.542 E4.43245
G1 X107.661 Y80.398 E4.44146
G1 E0.44146 F2400.000
G92 E0
G1 Z0.450 F6600.000
G1 X111.024 Y80.690
G1 Z0.350
G1 E4.00000 F2400.000
G1 F3000.000
G1 X111.163 Y80.234 E4.02393
G1 X111.378 Y79.808 E4.04786
G1 X111.662 Y79.424 E4.07180
G1 X112.006 Y79.094 E4.09573
G1 X112.401 Y78.827 E4.11966
G1 X112.835 Y78.631 E4.14359
G1 X113.297 Y78.511 E4.16752
G1 X113.718 Y78.475 E4.18872
G1 X114.245 Y78.510 E4.21526
G1 X114.709 Y78.631 E4.23928
G1 X115.143 Y78.827 E4.26321
G1 X115.538 Y79.094 E4.28715
G1 X115.883 Y79.424 E4.31108
G1 X116.166 Y79.808 E4.33501
G1 X116.381 Y80.234 E4.35894
G1 X116.520 Y80.690 E4.38287
G1 X116.581 Y81.163 E4.40680
G1 X116.561 Y81.639 E4.43074
G1 X116.460 Y82.105 E4.45467
G1 X116.283 Y82.548 E4.47860
G1 X116.033 Y82.954 E4.50253
G1 X115.717 Y83.312 E4.52646
G1 X115.346 Y83.611 E4.55040
G1 X114.930 Y83.844 E4.57433
G1 X114.481 Y84.003 E4.59826
G1 X114.011 Y84.083 E4.62219
G1 X113.534 Y84.083 E4.64612
G1 X113.064 Y84.003 E4.67005
G1 X112.614 Y83.844 E4.69399
G1 X112.198 Y83.611 E4.71792
G1 X111.827 Y83.312 E4.74185
G1 X111.512 Y82.954 E4.76578
G1 X111.262 Y82.548 E4.78971
G1 X111.084 Y82.105 E4.81364
G1 X110.983 Y81.639 E4.83758
G1 X110.963 Y81.163 E4.86151
G1 X111.016 Y80.749 E4.88243
G1 E0.88243 F2400.000
G92 E0
G1 Z0.450 F6600.000
G1 X117.378 Y81.222
G1 Z0.350
G1 E4.00000 F2400.000
G1 F3000.000
G1 X117.408 Y80.984 E4.01201
G1 X117.468 Y80.788 E4.02231
G1 X117.585 Y80.544 E4.03590
G1 X117.728 Y80.349 E4.04804
G1 X117.901 Y80.184 E4.06005
G1 X118.100 Y80.050 E4.07207
G1 X118.318 Y79.951 E4.08408
G1 X118.549 Y79.891 E4.09610
G1 X118.754 Y79.873 E4.10639
G1 X119.024 Y79.890 E4.11999
G1 X119.258 Y79.951 E4.13212
