; generated by PrusaSlicer 2.3.1+win64 on 2021-06-09 at 20:19:49 UTC

; 

; external perimeters extrusion width = 0.45mm
; perimeters extrusion width = 0.45mm
; infill extrusion width = 0.45mm
; solid infill extrusion width = 0.45mm
; top infill extrusion width = 0.40mm
; support material extrusion width = 0.35mm
; first layer extrusion width = 0.42mm

M107
M190 S80 ; set bed temperature and wait for it to be reached
M104 S230 ; set temperature
;TYPE:Custom
G28 ; home all axes
G1 Z5 F5000 ; lift nozzle
M109 S230 ; set temperature and wait for it to be reached
G21 ; set units to millimeters
G90 ; use absolute coordinates
M82 ; use absolute distances for extrusion
G92 E0
; Filament gcode
;LAYER_CHANGE
;Z:0.35
;HEIGHT:0.35
G1 Z0.350 F6600.000
G1 E-4.00000 F2400.000
G92 E0
G1 Z0.450 F6600.000
G1 X141.521 Y40.502
G1 Z0.350
G1 E4.00000 F2400.000
;TYPE:Skirt
;WIDTH:0.42
G1 F1800.000
G1 X141.694 Y40.049 E4.02435
G1 X142.020 Y39.595 E4.05238
G1 X143.858 Y37.770 E4.18239
G1 X144.409 Y37.446 E4.21444
G1 X145.030 Y37.310 E4.24632
G1 X187.095 Y37.306 E6.35742
G1 X187.855 Y37.455 E6.39627
G1 X188.507 Y37.879 E6.43529
G1 X190.620 Y40.013 E6.58603
G1 X190.918 Y40.539 E6.61634
G1 X191.048 Y41.125 E6.64647
G1 X190.897 Y85.724 E8.88473
G1 X190.837 Y86.708 E8.93419
G1 X190.630 Y87.319 E8.96659
G1 X190.278 Y87.801 E8.99655
G1 X178.778 Y99.300 E9.81271
G1 X178.419 Y99.583 E9.83565
G1 X178.009 Y99.777 E9.85842
G1 X177.376 Y99.886 E9.89065
G1 X155.877 Y100.042 E10.96963
G1 X154.888 Y100.021 E11.01927
G1 X154.227 Y99.807 E11.05411
G1 X153.746 Y99.454 E11.08407
G1 X141.883 Y87.592 E11.92600
G1 X141.543 Y87.127 E11.95491
G1 X141.348 Y86.588 E11.98364
G1 X141.460 Y40.983 E14.27238
G1 X141.514 Y40.562 E14.29371
G1 X141.888 Y40.656 F6600.000
G1 F1800.000
G1 X142.001 Y40.208 E14.31690
G1 X142.272 Y39.831 E14.34019
G1 X144.067 Y38.044 E14.46732
G1 X144.529 Y37.770 E14.49428
G1 X145.057 Y37.654 E14.52140
G1 X187.095 Y37.651 E16.63111
G1 X187.728 Y37.775 E16.66347
G1 X188.270 Y38.130 E16.69598
G1 X190.335 Y40.209 E16.84304
G1 X190.593 Y40.655 E16.86889
G1 X190.704 Y41.157 E16.89473
G1 X190.552 Y85.719 E19.13109
G1 X190.499 Y86.635 E19.17714
G1 X190.325 Y87.160 E19.20490
G1 X190.031 Y87.559 E19.22979
G1 X178.538 Y99.053 E20.04555
G1 X177.899 Y99.450 E20.08327
G1 X177.370 Y99.541 E20.11023
G1 X155.875 Y99.697 E21.18898
G1 X154.955 Y99.682 E21.23517
G1 X154.386 Y99.501 E21.26515
G1 X153.986 Y99.207 E21.29005
G1 X142.131 Y87.352 E22.13145
G1 X141.849 Y86.967 E22.15539
G1 X141.685 Y86.516 E22.17948
G1 X141.805 Y40.985 E24.46447
G1 X141.873 Y40.714 E24.47851
G1 X142.199 Y40.796 F6600.000
G1 F1800.000
G1 X142.307 Y40.365 E24.50080
G1 X142.525 Y40.065 E24.51944
G1 X144.278 Y38.318 E24.64361
G1 X144.654 Y38.091 E24.66565
G1 X145.080 Y37.998 E24.68756
G1 X187.094 Y37.996 E26.79608
G1 X187.600 Y38.096 E26.82194
G1 X188.031 Y38.379 E26.84781
G1 X190.054 Y40.410 E26.99166
G1 X190.270 Y40.776 E27.01299
G1 X190.360 Y41.188 E27.03419
G1 X190.208 Y85.717 E29.26891
G1 X190.161 Y86.567 E29.31165
G1 X190.017 Y87.003 E29.33469
G1 X189.785 Y87.318 E29.35432
G1 X178.296 Y98.807 E30.16972
G1 X177.787 Y99.123 E30.19980
G1 X177.363 Y99.197 E30.22142
G1 X155.877 Y99.352 E31.29976
G1 X155.019 Y99.343 E31.34282
G1 X154.545 Y99.195 E31.36770
G1 X154.228 Y98.961 E31.38747
G1 X142.380 Y87.113 E32.22836
G1 X142.154 Y86.805 E32.24756
G1 X142.023 Y86.445 E32.26676
G1 X142.150 Y40.990 E34.54800
G1 X142.184 Y40.854 E34.55501
G1 E30.55501 F2400.000
G92 E0
G1 Z0.450 F6600.000
G1 X138.710 Y40.554
G1 Z0.350
G1 E4.00000 F2400.000
G1 F1800.000
G1 X138.749 Y40.101 E4.02285
G1 X139.103 Y38.991 E4.08129
G1 X139.813 Y37.856 E4.14847
G1 X142.011 Y35.660 E4.30440
G1 X143.374 Y34.851 E4.38395
G1 X144.839 Y34.517 E4.45936
G1 X145.357 Y34.530 E4.48537
G1 X145.540 Y34.513 E4.49459
G1 X187.443 Y34.517 E6.59753
G1 X188.941 Y34.880 E6.67488
G1 X190.273 Y35.693 E6.75319
G1 X192.899 Y38.357 E6.94092
G1 X193.468 Y39.348 E6.99831
G1 X193.765 Y40.444 E7.05529
G1 X193.801 Y41.542 E7.11043
G1 X193.686 Y42.155 E7.14170
G1 X193.680 Y42.957 E7.18195
G1 X193.691 Y86.172 E9.35075
G1 X193.639 Y86.563 E9.37053
G1 X193.574 Y87.372 E9.41127
G1 X193.284 Y88.275 E9.45886
G1 X192.700 Y89.283 E9.51732
G1 X190.291 Y91.712 E9.68901
G1 X189.598 Y92.167 E9.73065
G1 X189.489 Y92.373 E9.74233
G1 X189.001 Y93.028 E9.78332
G1 X187.441 Y94.591 E9.89416
G1 X186.846 Y95.127 E9.93431
G1 X186.384 Y95.413 E9.96163
G1 X185.940 Y96.086 E10.00207
G1 X183.908 Y98.111 E10.14606
G1 X183.172 Y98.606 E10.19054
G1 X182.757 Y99.240 E10.22859
G1 X182.011 Y100.021 E10.28277
G1 X180.380 Y101.621 E10.39743
G1 X179.009 Y102.391 E10.47634
G1 X177.144 Y102.686 E10.57114
G1 X176.973 Y102.668 E10.57976
G1 X157.562 Y102.669 E11.55390
G1 X156.776 Y102.675 E11.59334
G1 X156.234 Y102.785 E11.62110
G1 X155.295 Y102.786 E11.66825
G1 X153.997 Y102.694 E11.73355
G1 X152.793 Y102.230 E11.79831
G1 X152.284 Y101.892 E11.82896
G1 X149.723 Y99.380 E12.00897
G1 X149.320 Y98.796 E12.04458
G1 X148.826 Y98.486 E12.07387
G1 X146.453 Y96.113 E12.24225
G1 X146.037 Y95.512 E12.27894
G1 X145.540 Y95.200 E12.30839
G1 X143.124 Y92.784 E12.47985
G1 X142.708 Y92.132 E12.51867
G1 X141.964 Y91.620 E12.56402
G1 X139.543 Y89.191 E12.73609
G1 X138.925 Y88.164 E12.79629
G1 X138.655 Y87.377 E12.83803
G1 X138.554 Y85.944 E12.91010
G1 X138.671 Y85.288 E12.94354
G1 X138.677 Y84.481 E12.98407
G1 X138.677 Y41.357 E15.14826
G1 X138.661 Y41.112 E15.16058
G1 X138.704 Y40.614 E15.18569
G1 X139.045 Y40.643 F6600.000
G1 F1800.000
G1 X139.084 Y40.185 E15.20872
G1 X139.408 Y39.154 E15.26296
G1 X140.072 Y38.086 E15.32610
G1 X142.207 Y35.944 E15.47786
G1 X143.479 Y35.181 E15.55231
G1 X144.852 Y34.862 E15.62307
G1 X145.370 Y34.875 E15.64908
G1 X145.549 Y34.857 E15.65808
G1 X187.422 Y34.861 E17.75951
G1 X188.832 Y35.208 E17.83240
G1 X190.042 Y35.950 E17.90362
G1 X192.612 Y38.549 E18.08705
G1 X193.142 Y39.462 E18.14003
G1 X193.421 Y40.476 E18.19282
G1 X193.456 Y41.534 E18.24592
G1 X193.341 Y42.119 E18.27587
G1 X193.335 Y42.955 E18.31783
G1 X193.346 Y86.160 E20.48608
G1 X193.296 Y86.526 E20.50466
G1 X193.239 Y87.288 E20.54296
G1 X192.975 Y88.120 E20.58678
G1 X192.439 Y89.056 E20.64092
G1 X190.060 Y91.455 E20.81051
G1 X189.332 Y91.928 E20.85405
G1 X189.203 Y92.180 E20.86825
G1 X188.748 Y92.794 E20.90658
G1 X187.206 Y94.338 E21.01610
G1 X186.628 Y94.860 E21.05520
G1 X186.137 Y95.159 E21.08404
G1 X185.683 Y95.854 E21.12571
G1 X183.676 Y97.855 E21.26791
G1 X182.921 Y98.358 E21.31345
G1 X182.496 Y99.014 E21.35267
G1 X181.767 Y99.776 E21.40561
G1 X180.155 Y101.359 E21.51900
G1 X178.924 Y102.056 E21.58998
G1 X177.156 Y102.341 E21.67982
G1 X176.991 Y102.323 E21.68819
G1 X157.561 Y102.324 E22.66329
G1 X156.739 Y102.330 E22.70455
G1 X156.216 Y102.440 E22.73137
G1 X155.301 Y102.441 E22.77729
G1 X154.048 Y102.352 E22.84032
G1 X152.936 Y101.916 E22.90024
G1 X152.514 Y101.634 E22.92571
G1 X149.977 Y99.146 E23.10404
G1 X149.563 Y98.541 E23.14083
G1 X149.055 Y98.227 E23.17081
G1 X146.709 Y95.881 E23.33734
G1 X146.280 Y95.257 E23.37534
G1 X145.769 Y94.941 E23.40545
G1 X143.382 Y92.554 E23.57488
G1 X142.962 Y91.888 E23.61443
G1 X142.196 Y91.365 E23.66095
G1 X139.803 Y88.963 E23.83111
G1 X139.231 Y88.004 E23.88719
G1 X138.989 Y87.288 E23.92507
G1 X138.900 Y85.944 E23.99267
G1 X139.016 Y85.322 E24.02443
G1 X139.022 Y84.482 E24.06659
G1 X139.022 Y41.347 E26.23139
G1 X139.006 Y41.103 E26.24362
G1 X139.040 Y40.702 E26.26382
G1 X139.383 Y40.732 F6600.000
G1 F1800.000
G1 X139.426 Y40.234 E26.28891
G1 X139.713 Y39.318 E26.33708
G1 X140.354 Y38.285 E26.39812
G1 X142.436 Y36.203 E26.54587
G1 X143.583 Y35.510 E26.61313
G1 X144.907 Y35.204 E26.68131
G1 X145.382 Y35.221 E26.70516
G1 X145.558 Y35.202 E26.71408
G1 X187.401 Y35.206 E28.81399
G1 X188.676 Y35.517 E28.87984
G1 X189.812 Y36.208 E28.94656
G1 X192.351 Y38.775 E29.12777
G1 X192.831 Y39.613 E29.17625
G1 X193.082 Y40.546 E29.22471
G1 X193.111 Y41.523 E29.27377
G1 X192.997 Y42.083 E29.30244
G1 X192.990 Y42.954 E29.34618
G1 X193.002 Y86.147 E31.51387
G1 X192.953 Y86.491 E31.53127
G1 X192.904 Y87.205 E31.56720
G1 X192.666 Y87.967 E31.60726
G1 X192.178 Y88.830 E31.65702
G1 X189.828 Y91.199 E31.82447
G1 X189.066 Y91.689 E31.86997
G1 X188.916 Y91.988 E31.88674
G1 X188.495 Y92.559 E31.92235
G1 X186.972 Y94.085 E32.03053
G1 X186.409 Y94.592 E32.06855
G1 X185.891 Y94.905 E32.09894
G1 X185.426 Y95.623 E32.14188
G1 X183.445 Y97.598 E32.28225
G1 X182.671 Y98.111 E32.32887
G1 X182.235 Y98.788 E32.36927
G1 X181.523 Y99.532 E32.42095
G1 X179.930 Y101.097 E32.53304
G1 X178.782 Y101.740 E32.59904
G1 X177.170 Y101.995 E32.68098
G1 X177.009 Y101.979 E32.68912
G1 X157.560 Y101.979 E33.66518
G1 X156.700 Y101.986 E33.70834
G1 X156.196 Y102.095 E33.73420
G1 X155.305 Y102.096 E33.77890
G1 X154.149 Y102.021 E33.83708
G1 X153.080 Y101.602 E33.89469
G1 X152.744 Y101.377 E33.91496
G1 X150.231 Y98.912 E34.09161
G1 X149.807 Y98.285 E34.12963
G1 X149.284 Y97.968 E34.16031
G1 X146.964 Y95.649 E34.32493
G1 X146.523 Y95.000 E34.36430
G1 X145.998 Y94.682 E34.39508
G1 X143.640 Y92.325 E34.56242
G1 X143.216 Y91.643 E34.60270
G1 X142.429 Y91.109 E34.65044
G1 X140.062 Y88.735 E34.81865
G1 X139.537 Y87.844 E34.87061
G1 X139.331 Y87.243 E34.90248
G1 X139.246 Y85.945 E34.96776
G1 X139.361 Y85.358 E34.99778
G1 X139.367 Y84.483 E35.04166
G1 X139.366 Y41.336 E37.20706
G1 X139.351 Y41.095 E37.21919
G1 X139.377 Y40.792 E37.23445
G1 X139.719 Y40.820 F6600.000
G1 F1800.000
G1 X139.761 Y40.317 E37.25981
G1 X140.018 Y39.479 E37.30378
G1 X140.613 Y38.514 E37.36067
G1 X142.665 Y36.462 E37.50631
G1 X143.737 Y35.820 E37.56902
G1 X144.917 Y35.549 E37.62978
G1 X145.395 Y35.567 E37.65382
G1 X145.569 Y35.547 E37.66257
G1 X187.380 Y35.551 E39.76091
G1 X188.567 Y35.845 E39.82227
G1 X189.582 Y36.465 E39.88195
G1 X192.063 Y38.967 E40.05877
G1 X192.521 Y39.766 E40.10499
G1 X192.738 Y40.576 E40.14708
G1 X192.765 Y41.512 E40.19407
G1 X192.652 Y42.044 E40.22140
G1 X192.645 Y42.953 E40.26701
G1 X192.657 Y86.134 E42.43410
G1 X192.609 Y86.455 E42.45036
G1 X192.568 Y87.124 E42.48401
G1 X192.355 Y87.816 E42.52033
G1 X191.916 Y88.604 E42.56563
G1 X189.597 Y90.942 E42.73088
G1 X188.798 Y91.451 E42.77841
G1 X188.628 Y91.797 E42.79779
G1 X188.241 Y92.325 E42.83063
G1 X186.738 Y93.832 E42.93745
G1 X186.191 Y94.324 E42.97437
G1 X185.644 Y94.650 E43.00633
G1 X185.169 Y95.393 E43.05057
G1 X183.213 Y97.342 E43.18916
G1 X182.590 Y97.760 E43.22680
G1 X182.442 Y97.827 E43.23496
G1 X181.974 Y98.562 E43.27869
G1 X181.280 Y99.288 E43.32910
G1 X179.705 Y100.834 E43.43985
G1 X178.642 Y101.423 E43.50083
G1 X177.184 Y101.650 E43.57491
G1 X177.026 Y101.634 E43.58285
G1 X157.558 Y101.634 E44.55987
G1 X156.659 Y101.641 E44.60500
G1 X156.176 Y101.750 E44.62986
G1 X155.311 Y101.751 E44.67328
G1 X154.199 Y101.678 E44.72920
G1 X153.226 Y101.289 E44.78181
G1 X152.975 Y101.120 E44.79700
G1 X150.486 Y98.679 E44.97196
G1 X150.050 Y98.027 E45.01128
G1 X149.512 Y97.708 E45.04267
G1 X147.220 Y95.417 E45.20532
G1 X146.765 Y94.742 E45.24613
G1 X146.226 Y94.423 E45.27759
G1 X143.899 Y92.095 E45.44276
G1 X143.471 Y91.399 E45.48378
G1 X142.661 Y90.854 E45.53278
G1 X140.323 Y88.508 E45.69900
G1 X139.844 Y87.686 E45.74674
G1 X139.666 Y87.155 E45.77484
G1 X139.591 Y85.948 E45.83556
G1 X139.705 Y85.395 E45.86387
G1 X139.712 Y84.485 E45.90956
G1 X139.711 Y41.325 E48.07557
G1 X139.696 Y41.086 E48.08762
G1 X139.714 Y40.880 E48.09797
G1 X140.056 Y40.907 F6600.000
G1 F1800.000
G1 X140.097 Y40.397 E48.12363
G1 X140.324 Y39.639 E48.16336
G1 X140.871 Y38.743 E48.21604
G1 X142.894 Y36.721 E48.35959
G1 X143.842 Y36.150 E48.41515
G1 X144.927 Y35.895 E48.47109
G1 X145.410 Y35.912 E48.49534
G1 X145.580 Y35.892 E48.50390
G1 X187.359 Y35.896 E50.60065
G1 X188.411 Y36.154 E50.65500
G1 X189.352 Y36.724 E50.71022
G1 X191.775 Y39.158 E50.88257
G1 X192.211 Y39.918 E50.92651
G1 X192.394 Y40.606 E50.96225
G1 X192.420 Y41.499 E51.00712
G1 X192.307 Y42.004 E51.03308
G1 X192.300 Y42.952 E51.08063
G1 X192.312 Y86.121 E53.24711
G1 X192.266 Y86.417 E53.26217
G1 X192.225 Y87.082 E53.29559
G1 X192.044 Y87.666 E53.32625
G1 X191.654 Y88.379 E53.36707
G1 X189.366 Y90.685 E53.53009
G1 X188.708 Y91.103 E53.56923
G1 X188.551 Y91.167 E53.57771
G1 X188.340 Y91.608 E53.60224
G1 X187.988 Y92.091 E53.63224
G1 X186.497 Y93.585 E53.73816
G1 X185.974 Y94.056 E53.77349
G1 X185.397 Y94.395 E53.80706
G1 X184.912 Y95.162 E53.85262
G1 X182.982 Y97.086 E53.98935
G1 X182.414 Y97.462 E54.02354
G1 X182.167 Y97.568 E54.03703
G1 X182.109 Y97.708 E54.04466
G1 X181.712 Y98.336 E54.08193
G1 X181.036 Y99.044 E54.13104
G1 X179.481 Y100.571 E54.24044
G1 X178.504 Y101.106 E54.29632
G1 X177.198 Y101.305 E54.36263
G1 X177.044 Y101.289 E54.37038
G1 X157.557 Y101.289 E55.34836
G1 X156.617 Y101.296 E55.39553
G1 X156.155 Y101.405 E55.41936
G1 X155.315 Y101.406 E55.46152
G1 X154.301 Y101.348 E55.51251
G1 X153.371 Y100.975 E55.56274
G1 X153.205 Y100.863 E55.57282
G1 X150.741 Y98.445 E55.74608
G1 X150.292 Y97.769 E55.78678
G1 X149.739 Y97.448 E55.81889
G1 X147.476 Y95.185 E55.97950
G1 X147.007 Y94.484 E56.02183
G1 X146.454 Y94.162 E56.05396
G1 X144.158 Y91.867 E56.21690
G1 X143.702 Y91.115 E56.26103
G1 X143.559 Y91.051 E56.26887
G1 X142.894 Y90.599 E56.30925
G1 X140.583 Y88.281 E56.47350
G1 X140.152 Y87.530 E56.51694
G1 X140.000 Y87.070 E56.54128
G1 X139.937 Y85.953 E56.59742
G1 X140.050 Y85.435 E56.62405
G1 X140.057 Y84.486 E56.67165
G1 X140.052 Y40.967 E58.85570
G1 X140.395 Y40.992 F6600.000
G1 F1800.000
G1 X140.433 Y40.476 E58.88168
G1 X140.632 Y39.798 E58.91715
G1 X141.130 Y38.972 E58.96555
G1 X143.122 Y36.980 E59.10694
G1 X143.996 Y36.460 E59.15795
G1 X144.937 Y36.240 E59.20649
G1 X145.427 Y36.258 E59.23107
G1 X145.591 Y36.237 E59.23939
G1 X187.338 Y36.241 E61.33447
G1 X188.302 Y36.482 E61.38434
G1 X189.122 Y36.982 E61.43256
G1 X191.514 Y39.384 E61.60268
G1 X191.899 Y40.067 E61.64204
G1 X192.050 Y40.635 E61.67153
G1 X192.075 Y41.486 E61.71424
G1 X191.963 Y41.962 E61.73878
G1 X191.956 Y42.950 E61.78839
G1 X191.967 Y86.106 E63.95420
G1 X191.923 Y86.379 E63.96804
G1 X191.882 Y87.040 E64.00128
G1 X191.733 Y87.517 E64.02640
G1 X191.391 Y88.154 E64.06269
G1 X189.136 Y90.428 E64.22340
G1 X188.542 Y90.800 E64.25857
G1 X188.331 Y90.880 E64.26988
G1 X188.204 Y91.084 E64.28193
G1 X188.049 Y91.421 E64.30054
G1 X187.734 Y91.857 E64.32758
G1 X186.256 Y93.338 E64.43256
G1 X185.757 Y93.787 E64.46628
G1 X185.150 Y94.140 E64.50148
G1 X184.654 Y94.932 E64.54840
G1 X182.751 Y96.829 E64.68323
G1 X182.240 Y97.164 E64.71390
G1 X181.894 Y97.306 E64.73267
G1 X181.806 Y97.543 E64.74536
G1 X181.450 Y98.111 E64.77899
G1 X180.793 Y98.800 E64.82677
G1 X179.257 Y100.308 E64.93479
G1 X178.367 Y100.788 E64.98552
G1 X177.212 Y100.960 E65.04413
G1 X177.062 Y100.944 E65.05170
G1 X157.556 Y100.944 E66.03065
G1 X156.573 Y100.952 E66.07997
G1 X156.133 Y101.060 E66.10272
G1 X155.318 Y101.061 E66.14361
G1 X154.400 Y101.016 E66.18972
G1 X153.545 Y100.677 E66.23590
G1 X153.434 Y100.604 E66.24257
G1 X150.996 Y98.212 E66.41398
G1 X150.535 Y97.510 E66.45613
G1 X149.966 Y97.187 E66.48897
G1 X147.733 Y94.954 E66.64748
G1 X147.249 Y94.224 E66.69141
G1 X146.680 Y93.901 E66.72422
G1 X144.417 Y91.638 E66.88485
G1 X143.938 Y90.837 E66.93170
G1 X143.735 Y90.754 E66.94272
G1 X143.126 Y90.343 E66.97957
G1 X140.844 Y88.054 E67.14177
G1 X140.461 Y87.377 E67.18082
G1 X140.336 Y86.986 E67.20141
G1 X140.283 Y85.961 E67.25296
G1 X140.394 Y85.476 E67.27791
G1 X140.402 Y84.487 E67.32754
G1 X140.390 Y41.052 E69.50738
G1 X140.734 Y41.075 F6600.000
G1 F1800.000
G1 X140.770 Y40.552 E69.53372
G1 X140.940 Y39.954 E69.56491
G1 X141.389 Y39.200 E69.60895
G1 X143.351 Y37.239 E69.74819
G1 X144.102 Y36.789 E69.79212
G1 X144.949 Y36.586 E69.83581
G1 X145.445 Y36.604 E69.86075
G1 X145.604 Y36.582 E69.86880
G1 X187.317 Y36.586 E71.96220
G1 X188.147 Y36.791 E72.00508
G1 X188.893 Y37.240 E72.04881
G1 X191.252 Y39.610 E72.21661
G1 X191.587 Y40.215 E72.25131
G1 X191.706 Y40.665 E72.27467
G1 X191.729 Y41.471 E72.31515
G1 X191.618 Y41.917 E72.33822
G1 X191.611 Y42.949 E72.39000
G1 X191.622 Y86.091 E74.55512
G1 X191.580 Y86.338 E74.56769
G1 X191.539 Y86.997 E74.60081
G1 X191.420 Y87.371 E74.62052
