; generated by PrusaSlicer 2.3.1+win64 on 2021-06-01 at 00:27:42 UTC

; 

; external perimeters extrusion width = 0.45mm
; perimeters extrusion width = 0.45mm
; infill extrusion width = 0.45mm
; solid infill extrusion width = 0.45mm
; top infill extrusion width = 0.40mm
; support material extrusion width = 0.35mm
; first layer extrusion width = 0.42mm

M107
M190 S80 ; set bed temperature and wait for it to be reached
M104 S230 ; set temperature
;TYPE:Custom
G28 ; home all axes
G1 Z5 F5000 ; lift nozzle
M109 S230 ; set temperature and wait for it to be reached
G21 ; set units to millimeters
G90 ; use absolute coordinates
M82 ; use absolute distances for extrusion
G92 E0
; Filament gcode
;LAYER_CHANGE
;Z:0.35
;HEIGHT:0.35
G1 Z0.350 F6600.000
G1 E-4.00000 F2400.000
G92 E0
G1 Z0.450 F6600.000
G1 X115.742 Y77.717
G1 Z0.350
G1 E4.00000 F2400.000
;TYPE:Skirt
;WIDTH:0.42
G1 F3000.000
G1 X118.606 Y73.534 E4.25443
G1 X121.983 Y69.637 E4.51321
G1 X125.784 Y66.148 E4.77216
G1 X129.958 Y63.116 E5.03110
G1 X134.451 Y60.578 E5.29004
G1 X139.114 Y58.605 E5.54415
G1 X144.246 Y57.098 E5.81257
G1 X149.239 Y56.236 E6.06684
G1 X154.393 Y55.942 E6.32594
G1 X159.541 Y56.236 E6.58472
G1 X164.625 Y57.116 E6.84366
G1 X169.576 Y58.570 E7.10261
G1 X174.241 Y60.538 E7.35672
G1 X178.898 Y63.168 E7.62513
G1 X182.996 Y66.148 E7.87940
G1 X186.797 Y69.637 E8.13835
G1 X190.176 Y73.536 E8.39729
G1 X193.038 Y77.717 E8.65156
G1 X195.534 Y82.448 E8.91999
G1 X197.369 Y87.170 E9.17425
G1 X198.680 Y92.157 E9.43303
G1 X199.414 Y97.264 E9.69197
G1 X199.562 Y102.374 E9.94850
G1 X199.120 Y107.559 E10.20969
G1 X198.117 Y112.526 E10.46396
G1 X196.465 Y117.612 E10.73237
G1 X194.357 Y122.220 E10.98665
G1 X191.693 Y126.638 E11.24559
G1 X188.542 Y130.724 E11.50453
G1 X184.981 Y134.392 E11.76106
G1 X180.872 Y137.745 E12.02725
G1 X176.609 Y140.482 E12.28150
G1 X171.937 Y142.775 E12.54269
G1 X167.122 Y144.491 E12.79922
G1 X162.143 Y145.651 E13.05575
G1 X157.018 Y146.244 E13.31468
G1 X154.390 Y146.321 E13.44663
G1 X151.762 Y146.244 E13.57857
G1 X146.637 Y145.651 E13.83750
G1 X141.659 Y144.491 E14.09403
G1 X136.844 Y142.775 E14.35056
G1 X132.086 Y140.431 E14.61674
G1 X127.826 Y137.689 E14.87100
G1 X123.799 Y134.392 E15.13219
G1 X120.238 Y130.725 E15.38872
G1 X117.087 Y126.639 E15.64766
G1 X114.423 Y122.220 E15.90660
G1 X112.317 Y117.616 E16.16071
G1 X110.663 Y112.526 E16.42930
G1 X109.660 Y107.560 E16.68356
G1 X109.218 Y102.374 E16.94475
G1 X109.366 Y97.265 E17.20128
G1 X110.100 Y92.157 E17.46022
G1 X111.412 Y87.167 E17.71916
G1 X113.246 Y82.448 E17.97327
G1 X115.714 Y77.770 E18.23868
G1 X116.017 Y77.930 F6600.000
G1 F3000.000
G1 X118.878 Y73.747 E18.49303
G1 X122.231 Y69.877 E18.74999
G1 X126.003 Y66.415 E19.00696
G1 X130.143 Y63.407 E19.26378
G1 X134.601 Y60.889 E19.52075
G1 X139.248 Y58.922 E19.77398
G1 X144.306 Y57.437 E20.03853
G1 X149.279 Y56.579 E20.29176
G1 X154.393 Y56.287 E20.54887
G1 X159.502 Y56.579 E20.80570
G1 X164.545 Y57.452 E21.06252
G1 X169.458 Y58.894 E21.31948
G1 X174.107 Y60.856 E21.57271
G1 X178.697 Y63.448 E21.83727
G1 X182.778 Y66.416 E22.09050
G1 X186.550 Y69.878 E22.34747
G1 X189.901 Y73.745 E22.60429
G1 X192.753 Y77.912 E22.85766
G1 X195.212 Y82.573 E23.12217
G1 X197.040 Y87.274 E23.37531
G1 X198.342 Y92.226 E23.63227
G1 X199.070 Y97.294 E23.88924
G1 X199.217 Y102.373 E24.14419
G1 X198.779 Y107.511 E24.40302
G1 X197.779 Y112.457 E24.65625
G1 X196.149 Y117.472 E24.92090
G1 X194.052 Y122.060 E25.17404
G1 X191.408 Y126.444 E25.43101
G1 X188.281 Y130.499 E25.68797
G1 X184.742 Y134.143 E25.94293
G1 X180.686 Y137.455 E26.20572
G1 X176.441 Y140.180 E26.45886
G1 X171.812 Y142.453 E26.71769
G1 X167.024 Y144.160 E26.97278
G1 X162.073 Y145.313 E27.22788
G1 X156.990 Y145.900 E27.48470
G1 X154.391 Y145.976 E27.61516
G1 X151.791 Y145.901 E27.74571
G1 X146.706 Y145.313 E28.00262
G1 X141.755 Y144.160 E28.25771
G1 X136.967 Y142.453 E28.51281
G1 X132.340 Y140.181 E28.77150
G1 X128.094 Y137.455 E29.02473
G1 X124.040 Y134.145 E29.28743
G1 X120.498 Y130.498 E29.54253
G1 X117.372 Y126.443 E29.79949
G1 X114.729 Y122.061 E30.05632
G1 X112.631 Y117.472 E30.30954
G1 X111.001 Y112.459 E30.57410
G1 X110.002 Y107.513 E30.82733
G1 X109.563 Y102.374 E31.08616
G1 X109.710 Y97.293 E31.34126
G1 X110.438 Y92.225 E31.59823
G1 X111.739 Y87.276 E31.85505
G1 X113.568 Y82.573 E32.10828
G1 X115.989 Y77.984 E32.36870
G1 X114.890 Y77.402 F6600.000
G1 F3000.000
G1 X114.945 Y77.299 E32.37457
G1 X117.894 Y72.989 E32.63666
G1 X121.326 Y69.027 E32.89973
G1 X125.186 Y65.480 E33.16280
G1 X129.440 Y62.383 E33.42688
G1 X134.002 Y59.800 E33.68999
G1 X138.978 Y57.698 E33.96107
G1 X143.991 Y56.234 E34.22316
G1 X149.137 Y55.346 E34.48522
G1 X154.350 Y55.045 E34.74728
G1 X159.564 Y55.336 E35.00936
G1 X164.887 Y56.256 E35.28047
G1 X169.953 Y57.752 E35.54557
G1 X174.796 Y59.809 E35.80964
G1 X179.340 Y62.383 E36.07171
G1 X183.564 Y65.454 E36.33379
G1 X187.426 Y68.998 E36.59686
G1 X190.850 Y72.942 E36.85896
G1 X193.898 Y77.402 E37.13004
G1 X196.345 Y82.060 E37.39414
G1 X198.246 Y86.966 E37.65819
G1 X199.566 Y92.019 E37.92026
G1 X200.307 Y97.188 E38.18234
G1 X200.459 Y102.407 E38.44440
G1 X200.019 Y107.611 E38.70647
G1 X198.983 Y112.770 E38.97054
G1 X197.365 Y117.777 E39.23463
G1 X195.132 Y122.673 E39.50471
G1 X192.444 Y127.128 E39.76583
G1 X189.259 Y131.267 E40.02792
G1 X185.493 Y135.139 E40.29899
G1 X181.446 Y138.440 E40.56109
G1 X177.052 Y141.261 E40.82317
G1 X172.348 Y143.575 E41.08623
G1 X167.431 Y145.334 E41.34832
G1 X162.170 Y146.557 E41.61937
G1 X156.998 Y147.145 E41.88061
G1 X154.359 Y147.218 E42.01309
G1 X151.677 Y147.137 E42.14778
G1 X146.492 Y146.536 E42.40974
G1 X141.406 Y145.351 E42.67183
G1 X136.468 Y143.591 E42.93490
G1 X131.780 Y141.290 E43.19699
G1 X127.236 Y138.369 E43.46806
G1 X123.183 Y135.045 E43.73114
G1 X119.534 Y131.282 E43.99420
G1 X116.347 Y127.145 E44.25628
G1 X113.639 Y122.656 E44.51935
G1 X111.466 Y117.908 E44.78143
G1 X109.838 Y112.925 E45.04451
G1 X108.764 Y107.631 E45.31559
G1 X108.321 Y102.408 E45.57868
G1 X108.473 Y97.188 E45.84077
G1 X109.214 Y92.018 E46.10285
G1 X110.541 Y86.947 E46.36593
G1 X112.493 Y81.932 E46.63600
G1 X114.862 Y77.455 E46.89020
G1 X115.166 Y77.616 F6600.000
G1 F3000.000
G1 X115.235 Y77.485 E46.89761
G1 X118.173 Y73.192 E47.15871
G1 X121.580 Y69.260 E47.41981
G1 X125.412 Y65.740 E47.68091
G1 X129.635 Y62.668 E47.94302
G1 X134.163 Y60.105 E48.20415
G1 X139.085 Y58.027 E48.47224
G1 X144.059 Y56.572 E48.73236
G1 X149.186 Y55.687 E48.99344
G1 X154.360 Y55.390 E49.25353
G1 X159.535 Y55.680 E49.51365
G1 X164.799 Y56.590 E49.78176
G1 X169.828 Y58.074 E50.04488
G1 X174.635 Y60.114 E50.30697
G1 X179.162 Y62.678 E50.56806
G1 X183.353 Y65.727 E50.82817
G1 X187.186 Y69.245 E51.08927
G1 X190.583 Y73.160 E51.34940
G1 X193.597 Y77.571 E51.61750
G1 X196.027 Y82.194 E51.87961
G1 X197.914 Y87.063 E52.14169
G1 X199.226 Y92.077 E52.40180
G1 X199.965 Y97.227 E52.66289
G1 X200.114 Y102.408 E52.92299
G1 X199.676 Y107.572 E53.18309
G1 X198.647 Y112.692 E53.44519
G1 X197.040 Y117.662 E53.70730
G1 X194.832 Y122.504 E53.97439
G1 X192.154 Y126.942 E54.23453
G1 X188.991 Y131.049 E54.49465
G1 X185.268 Y134.878 E54.76273
G1 X181.252 Y138.155 E55.02286
G1 X176.874 Y140.966 E55.28395
G1 X172.205 Y143.261 E55.54505
G1 X167.324 Y145.006 E55.80516
G1 X162.121 Y146.215 E56.07324
G1 X156.981 Y146.800 E56.33287
G1 X154.365 Y146.873 E56.46423
G1 X151.709 Y146.794 E56.59756
G1 X146.541 Y146.195 E56.85866
G1 X141.493 Y145.017 E57.11878
G1 X136.593 Y143.269 E57.37988
G1 X131.940 Y140.985 E57.64000
G1 X127.447 Y138.096 E57.90809
G1 X123.424 Y134.797 E58.16919
G1 X119.801 Y131.063 E58.43028
G1 X116.637 Y126.958 E58.69040
G1 X113.949 Y122.504 E58.95150
G1 X111.783 Y117.774 E59.21259
G1 X110.169 Y112.828 E59.47370
G1 X109.107 Y107.592 E59.74179
G1 X108.666 Y102.408 E60.00290
G1 X108.817 Y97.208 E60.26401
G1 X109.554 Y92.077 E60.52412
G1 X110.872 Y87.044 E60.78523
G1 X112.803 Y82.085 E61.05231
G1 X115.138 Y77.669 E61.30301
G1 X115.442 Y77.829 F6600.000
G1 F3000.000
G1 X115.525 Y77.672 E61.31195
G1 X118.440 Y73.410 E61.57109
G1 X121.821 Y69.507 E61.83021
G1 X125.623 Y66.013 E62.08935
G1 X129.813 Y62.963 E62.34948
G1 X134.325 Y60.410 E62.60961
G1 X139.191 Y58.355 E62.87472
G1 X144.128 Y56.910 E63.13287
G1 X149.215 Y56.031 E63.39198
G1 X154.350 Y55.735 E63.65011
G1 X159.505 Y56.024 E63.90923
G1 X164.711 Y56.924 E64.17435
G1 X169.702 Y58.395 E64.43549
G1 X174.474 Y60.419 E64.69561
G1 X178.967 Y62.963 E64.95473
G1 X183.127 Y65.988 E65.21288
G1 X186.932 Y69.479 E65.47201
G1 X190.316 Y73.379 E65.73114
G1 X193.296 Y77.740 E65.99625
G1 X195.709 Y82.328 E66.25639
G1 X197.583 Y87.160 E66.51650
G1 X198.886 Y92.136 E66.77464
G1 X199.620 Y97.247 E67.03376
G1 X199.769 Y102.388 E67.29190
G1 X199.333 Y107.533 E67.55101
G1 X198.310 Y112.614 E67.81113
G1 X196.715 Y117.546 E68.07127
G1 X194.531 Y122.334 E68.33538
G1 X191.864 Y126.755 E68.59453
G1 X188.724 Y130.830 E68.85268
G1 X185.042 Y134.618 E69.11778
G1 X181.041 Y137.882 E69.37691
G1 X176.696 Y140.670 E69.63604
G1 X172.062 Y142.947 E69.89516
G1 X167.218 Y144.678 E70.15331
G1 X162.072 Y145.873 E70.41840
G1 X156.964 Y146.456 E70.67643
G1 X154.370 Y146.528 E70.80667
G1 X151.741 Y146.450 E70.93864
G1 X146.610 Y145.856 E71.19790
G1 X141.581 Y144.684 E71.45703
G1 X136.719 Y142.947 E71.71616
G1 X132.101 Y140.680 E71.97431
G1 X127.658 Y137.823 E72.23942
G1 X123.665 Y134.550 E72.49854
G1 X120.069 Y130.845 E72.75767
G1 X116.916 Y126.755 E73.01680
G1 X114.249 Y122.334 E73.27593
G1 X112.101 Y117.639 E73.53505
G1 X110.500 Y112.730 E73.79418
G1 X109.450 Y107.553 E74.05929
G1 X109.011 Y102.408 E74.31843
G1 X109.160 Y97.247 E74.57756
G1 X109.894 Y92.136 E74.83670
G1 X111.203 Y87.141 E75.09583
G1 X113.112 Y82.237 E75.35993
G1 X115.414 Y77.882 E75.60712
G1 X116.327 Y78.364 F6600.000
G1 F3000.000
G1 X116.406 Y78.215 E75.61562
G1 X119.266 Y74.034 E75.86982
G1 X122.570 Y70.221 E76.12303
G1 X126.301 Y66.795 E76.37723
G1 X130.398 Y63.817 E76.63143
G1 X134.808 Y61.326 E76.88563
G1 X139.510 Y59.340 E77.14180
G1 X144.371 Y57.916 E77.39600
G1 X149.343 Y57.058 E77.64920
G1 X154.380 Y56.770 E77.90241
G1 X159.417 Y57.055 E78.15562
G1 X164.447 Y57.925 E78.41180
G1 X169.326 Y59.359 E78.66699
G1 X173.990 Y61.334 E78.92119
G1 X178.382 Y63.817 E79.17440
G1 X182.479 Y66.795 E79.42859
G1 X186.197 Y70.207 E79.68181
G1 X189.514 Y74.034 E79.93601
G1 X192.395 Y78.249 E80.19219
G1 X194.755 Y82.730 E80.44639
G1 X196.590 Y87.451 E80.70058
G1 X197.870 Y92.331 E80.95379
G1 X198.590 Y97.345 E81.20799
G1 X198.734 Y102.388 E81.46120
G1 X198.305 Y107.416 E81.71441
G1 X197.302 Y112.380 E81.96861
G1 X195.740 Y117.199 E82.22280
G1 X193.621 Y121.842 E82.47898
G1 X191.015 Y126.163 E82.73220
G1 X187.923 Y130.175 E82.98640
G1 X184.365 Y133.835 E83.24257
G1 X180.457 Y137.027 E83.49579
G1 X176.196 Y139.764 E83.74998
G1 X171.668 Y141.991 E84.00319
G1 X166.898 Y143.694 E84.25739
G1 X161.926 Y144.849 E84.51357
G1 X156.913 Y145.422 E84.76677
G1 X154.385 Y145.494 E84.89368
G1 X151.838 Y145.420 E85.02157
G1 X146.816 Y144.842 E85.27527
G1 X141.882 Y143.694 E85.52947
G1 X137.130 Y141.998 E85.78269
G1 X132.584 Y139.764 E86.03689
G1 X128.291 Y137.004 E86.29307
G1 X124.386 Y133.808 E86.54628
G1 X120.870 Y130.190 E86.79949
G1 X117.776 Y126.179 E87.05369
G1 X115.159 Y121.842 E87.30788
G1 X113.061 Y117.254 E87.56109
G1 X111.493 Y112.438 E87.81528
G1 X110.478 Y107.435 E88.07146
G1 X110.046 Y102.388 E88.32566
G1 X110.190 Y97.345 E88.57888
G1 X110.910 Y92.331 E88.83308
G1 X112.196 Y87.432 E89.08727
G1 X114.041 Y82.694 E89.34245
G1 X116.299 Y78.418 E89.58514
G1 X116.603 Y78.578 F6600.000
G1 F3000.000
G1 X116.696 Y78.401 E89.59517
G1 X119.533 Y74.253 E89.84740
G1 X122.810 Y70.469 E90.09863
G1 X126.527 Y67.056 E90.35184
G1 X130.593 Y64.102 E90.60407
G1 X134.969 Y61.631 E90.85629
G1 X139.617 Y59.668 E91.10950
G1 X144.439 Y58.254 E91.36172
G1 X149.372 Y57.401 E91.61295
G1 X154.370 Y57.114 E91.86419
G1 X159.388 Y57.399 E92.11641
G1 X164.360 Y58.258 E92.36962
G1 X169.200 Y59.681 E92.62283
G1 X173.829 Y61.639 E92.87505
G1 X178.187 Y64.102 E93.12628
G1 X182.253 Y67.056 E93.37851
G1 X185.956 Y70.454 E93.63073
G1 X189.247 Y74.253 E93.88295
G1 X192.094 Y78.418 E94.13617
G1 X194.438 Y82.864 E94.38839
G1 X196.259 Y87.548 E94.64061
G1 X197.530 Y92.390 E94.89184
G1 X198.246 Y97.365 E95.14407
G1 X198.390 Y102.369 E95.39530
G1 X197.962 Y107.376 E95.64753
G1 X196.966 Y112.302 E95.89975
G1 X195.415 Y117.083 E96.15197
G1 X193.320 Y121.673 E96.40518
G1 X190.725 Y125.977 E96.65740
G1 X187.656 Y129.957 E96.90962
G1 X184.139 Y133.574 E97.16284
G1 X180.247 Y136.754 E97.41506
G1 X176.018 Y139.469 E97.66728
G1 X171.525 Y141.677 E97.91851
G1 X166.791 Y143.366 E98.17074
G1 X161.876 Y144.507 E98.42395
G1 X156.896 Y145.078 E98.67555
G1 X154.390 Y145.149 E98.80134
G1 X151.870 Y145.076 E98.92788
G1 X146.884 Y144.504 E99.17973
G1 X141.989 Y143.366 E99.43195
G1 X137.256 Y141.677 E99.68418
G1 X132.745 Y139.459 E99.93640
G1 X128.501 Y136.730 E100.18961
G1 X124.612 Y133.547 E100.44183
G1 X121.124 Y129.957 E100.69307
G1 X118.055 Y125.977 E100.94529
G1 X115.460 Y121.673 E101.19752
G1 X113.379 Y117.120 E101.44875
G1 X111.824 Y112.341 E101.70097
G1 X110.821 Y107.396 E101.95418
G1 X110.391 Y102.388 E102.20640
G1 X110.534 Y97.365 E102.45863
G1 X111.250 Y92.390 E102.71085
G1 X112.527 Y87.530 E102.96307
G1 X114.351 Y82.846 E103.21529
G1 X116.575 Y78.631 E103.45447
G1 X116.996 Y78.571 F6600.000
G1 F3000.000
G1 X119.812 Y74.455 E103.70472
G1 X123.064 Y70.702 E103.95398
G1 X126.753 Y67.317 E104.20521
G1 X130.787 Y64.387 E104.45546
G1 X135.130 Y61.936 E104.70570
G1 X139.723 Y59.996 E104.95595
G1 X144.508 Y58.592 E105.20620
G1 X149.402 Y57.745 E105.45546
G1 X154.380 Y57.459 E105.70571
G1 X159.359 Y57.743 E105.95595
G1 X164.272 Y58.592 E106.20620
G1 X169.075 Y60.002 E106.45743
G1 X173.668 Y61.945 E106.70768
G1 X177.993 Y64.387 E106.95694
G1 X182.027 Y67.317 E107.20718
G1 X185.702 Y70.688 E107.45743
G1 X188.980 Y74.471 E107.70866
G1 X191.794 Y78.588 E107.95891
G1 X194.120 Y82.998 E108.20915
G1 X195.928 Y87.645 E108.45940
G1 X197.190 Y92.449 E108.70866
G1 X197.903 Y97.404 E108.95989
G1 X198.045 Y102.369 E109.20915
G1 X197.619 Y107.337 E109.45940
G1 X196.630 Y112.224 E109.70965
G1 X195.090 Y116.967 E109.95989
G1 X193.020 Y121.503 E110.21014
G1 X190.446 Y125.774 E110.46038
G1 X187.389 Y129.738 E110.71161
G1 X183.913 Y133.313 E110.96186
G1 X180.052 Y136.469 E111.21211
G1 X175.857 Y139.164 E111.46235
G1 X171.399 Y141.355 E111.71161
G1 X166.684 Y143.037 E111.96285
G1 X161.827 Y144.166 E112.21309
G1 X156.878 Y144.733 E112.46309
G1 X154.395 Y144.804 E112.58777
G1 X151.902 Y144.733 E112.71295
G1 X146.953 Y144.166 E112.96295
G1 X142.096 Y143.037 E113.21320
G1 X137.399 Y141.363 E113.46344
G1 X132.906 Y139.154 E113.71467
G1 X128.712 Y136.457 E113.96492
G1 X124.853 Y133.300 E114.21517
G1 X121.378 Y129.723 E114.46541
G1 X118.334 Y125.774 E114.71566
G1 X115.760 Y121.503 E114.96590
G1 X113.697 Y116.985 E115.21517
G1 X112.155 Y112.243 E115.46541
G1 X111.164 Y107.356 E115.71566
G1 X110.735 Y102.369 E115.96689
G1 X110.879 Y97.385 E116.21713
G1 X111.590 Y92.449 E116.46738
G1 X112.852 Y87.645 E116.71664
G1 X114.660 Y82.998 E116.96689
G1 X116.968 Y78.624 E117.21511
G1 X117.483 Y78.895 F6600.000
;TYPE:External perimeter
G1 F3000.000
G1 X120.267 Y74.819 E117.46286
G1 X123.489 Y71.101 E117.70977
G1 X127.114 Y67.774 E117.95667
G1 X131.094 Y64.882 E118.20358
G1 X135.378 Y62.463 E118.45049
G1 X139.910 Y60.548 E118.69739
G1 X144.630 Y59.162 E118.94430
G1 X149.478 Y58.323 E119.19120
G1 X154.390 Y58.042 E119.43811
G1 X159.302 Y58.323 E119.68502
G1 X164.150 Y59.162 E119.93192
G1 X168.870 Y60.548 E120.17883
G1 X173.402 Y62.463 E120.42574
G1 X177.686 Y64.882 E120.67264
G1 X181.666 Y67.774 E120.91955
G1 X185.291 Y71.101 E121.16646
G1 X188.513 Y74.819 E121.41336
G1 X191.290 Y78.880 E121.66027
G1 X193.585 Y83.232 E121.90718
G1 X195.370 Y87.816 E122.15408
G1 X196.621 Y92.574 E122.40099
G1 X197.321 Y97.444 E122.64790
G1 X197.462 Y102.362 E122.89480
G1 X197.041 Y107.264 E123.14171
G1 X196.064 Y112.086 E123.38862
G1 X194.543 Y116.765 E123.63552
G1 X192.500 Y121.240 E123.88243
