; generated by PrusaSlicer 2.3.1+win64 on 2021-05-23 at 00:19:12 UTC

; 

; external perimeters extrusion width = 0.45mm
; perimeters extrusion width = 0.45mm
; infill extrusion width = 0.45mm
; solid infill extrusion width = 0.45mm
; top infill extrusion width = 0.40mm
; support material extrusion width = 0.35mm
; first layer extrusion width = 0.42mm

M107
M190 S80 ; set bed temperature and wait for it to be reached
M104 S230 ; set temperature
;TYPE:Custom
G28 ; home all axes
G1 Z5 F5000 ; lift nozzle
M109 S230 ; set temperature and wait for it to be reached
G21 ; set units to millimeters
G90 ; use absolute coordinates
M82 ; use absolute distances for extrusion
G92 E0
; Filament gcode
;LAYER_CHANGE
;Z:0.35
;HEIGHT:0.35
G1 Z0.350 F6600.000
G1 E-4.00000 F2400.000
G92 E0
G1 Z0.450 F6600.000
G1 X93.352 Y156.054
G1 Z0.350
G1 E4.00000 F2400.000
;TYPE:Skirt
;WIDTH:0.42
G1 F1800.000
G1 X92.766 Y155.563 E4.03833
G1 X72.775 Y118.813 E6.13792
G1 X71.218 Y115.339 E6.32894
G1 X70.266 Y111.700 E6.51772
G1 X69.919 Y107.510 E6.72874
G1 X70.241 Y103.809 E6.91516
G1 X71.217 Y100.049 E7.11014
G1 X72.811 Y96.506 E7.30510
G1 X74.882 Y93.410 E7.49202
G1 X77.752 Y90.383 E7.70138
G1 X80.845 Y88.095 E7.89444
G1 X115.851 Y68.398 E9.91028
G1 X116.444 Y68.179 E9.94198
G1 X200.108 Y64.785 E14.14422
G1 X204.190 Y64.783 E14.34907
G1 X204.780 Y64.872 E14.37903
G1 X205.323 Y65.130 E14.40916
G1 X234.467 Y85.142 E16.18339
G1 X238.729 Y90.154 E16.51359
G1 X239.041 Y90.790 E16.54914
G1 X239.116 Y91.497 E16.58485
G1 X235.626 Y111.699 E17.61369
G1 X234.671 Y115.351 E17.80313
G1 X232.982 Y119.044 E18.00697
G1 X230.906 Y122.116 E18.19302
G1 X228.330 Y124.832 E18.38088
G1 X197.793 Y154.510 E20.51792
G1 X197.207 Y154.842 E20.55172
G1 X196.545 Y154.966 E20.58552
G1 X98.364 Y156.312 E25.51329
G1 X94.073 Y156.294 E25.72866
G1 X93.408 Y156.073 E25.76381
G1 X93.528 Y155.758 F6600.000
G1 F1800.000
G1 X93.031 Y155.342 E25.79632
G1 X73.082 Y118.656 E27.89202
G1 X71.542 Y115.223 E28.08087
G1 X70.603 Y111.628 E28.26733
G1 X70.262 Y107.538 E28.47330
G1 X70.581 Y103.869 E28.65815
G1 X71.542 Y100.163 E28.85025
G1 X73.112 Y96.673 E29.04234
G1 X75.168 Y93.603 E29.22774
G1 X77.971 Y90.650 E29.43209
G1 X81.016 Y88.394 E29.62228
G1 X116.020 Y68.699 E31.63795
G1 X116.512 Y68.517 E31.66427
G1 X200.122 Y65.129 E35.86375
G1 X204.190 Y65.128 E36.06791
G1 X204.683 Y65.203 E36.09296
G1 X205.131 Y65.417 E36.11785
G1 X234.253 Y85.413 E37.89075
G1 X238.440 Y90.343 E38.21534
G1 X238.708 Y90.880 E38.24548
G1 X238.771 Y91.477 E38.27562
G1 X235.290 Y111.624 E39.30169
G1 X234.346 Y115.235 E39.48897
G1 X232.692 Y118.857 E39.68880
G1 X230.637 Y121.901 E39.87312
G1 X228.085 Y124.589 E40.05915
G1 X197.574 Y154.243 E42.19443
G1 X197.087 Y154.519 E42.22251
G1 X196.537 Y154.621 E42.25058
G1 X98.360 Y155.967 E47.17816
G1 X94.148 Y155.956 E47.38955
G1 X93.585 Y155.776 E47.41922
G1 X93.705 Y155.462 F6600.000
G1 F1800.000
G1 X93.298 Y155.124 E47.44579
G1 X73.388 Y118.497 E49.53795
G1 X71.868 Y115.109 E49.72432
G1 X70.940 Y111.551 E49.90883
G1 X70.606 Y107.565 E50.10957
G1 X70.921 Y103.927 E50.29283
G1 X71.868 Y100.278 E50.48204
G1 X73.416 Y96.837 E50.67141
G1 X75.454 Y93.796 E50.85513
G1 X78.192 Y90.914 E51.05461
G1 X81.192 Y88.690 E51.24205
G1 X116.189 Y69.000 E53.25729
G1 X116.580 Y68.855 E53.27820
G1 X200.135 Y65.474 E57.47495
G1 X204.189 Y65.473 E57.67841
G1 X204.582 Y65.532 E57.69833
G1 X204.940 Y65.704 E57.71824
G1 X234.042 Y85.685 E59.48987
G1 X238.157 Y90.540 E59.80930
G1 X238.376 Y90.973 E59.83361
G1 X238.427 Y91.457 E59.85806
G1 X234.953 Y111.547 E60.88123
G1 X234.022 Y115.116 E61.06637
G1 X232.405 Y118.667 E61.26216
G1 X230.370 Y121.683 E61.44476
G1 X227.840 Y124.346 E61.62912
G1 X197.354 Y153.977 E63.76268
G1 X196.969 Y154.195 E63.78487
G1 X196.532 Y154.276 E63.80719
G1 X98.359 Y155.622 E68.73456
G1 X94.212 Y155.616 E68.94269
G1 X93.763 Y155.479 E68.96625
G1 E64.96625 F2400.000
G92 E0
G1 Z0.450 F6600.000
G1 X91.056 Y82.152
G1 Z0.350
G1 E4.00000 F2400.000
G1 F1800.000
G1 X87.413 Y82.643 E4.18446
G1 X83.333 Y83.908 E4.39883
G1 X79.530 Y85.825 E4.61260
G1 X76.079 Y88.361 E4.82752
G1 X72.821 Y91.781 E5.06454
G1 X70.514 Y95.243 E5.27331
G1 X68.788 Y99.055 E5.48332
G1 X67.623 Y103.577 E5.71767
G1 X67.292 Y107.893 E5.93495
G1 X67.688 Y112.189 E6.15144
G1 X68.792 Y116.340 E6.36703
G1 X70.565 Y120.234 E6.58175
G1 X72.976 Y123.799 E6.79774
G1 X75.942 Y126.904 E7.01320
G1 X77.687 Y128.204 E7.12244
G1 E3.12244 F2400.000
G92 E0
G1 Z0.450 F6600.000
G1 X79.614 Y129.590
G1 Z0.350
G1 E4.00000 F2400.000
G1 F1800.000
G1 X83.285 Y131.459 E4.20671
G1 X87.419 Y132.745 E4.42400
G1 X89.687 Y133.062 E4.53895
G1 X89.687 Y148.121 E5.29469
G1 E1.29469 F2400.000
G92 E0
G1 Z0.450 F6600.000
G1 X89.687 Y150.264
G1 Z0.350
G1 E4.00000 F2400.000
G1 F1800.000
G1 X89.687 Y154.766 E4.22594
G1 X90.027 Y156.101 E4.29506
G1 X90.730 Y157.243 E4.36238
G1 X91.828 Y158.234 E4.43661
G1 X92.607 Y158.629 E4.48046
G1 X93.448 Y158.877 E4.52446
G1 X98.865 Y158.929 E4.79631
G1 X100.122 Y158.614 E4.86132
G1 X101.257 Y157.933 E4.92774
G1 X102.165 Y156.982 E4.99374
G1 X102.454 Y156.429 E5.02510
G1 X102.855 Y155.388 F6600.000
G1 F1800.000
G1 X102.999 Y154.676 E5.06158
G1 X102.999 Y131.571 E6.22111
G1 X106.165 Y130.748 E6.38529
G1 X112.292 Y129.555 E6.69854
G1 X119.145 Y128.609 E7.04572
G1 X126.810 Y127.926 E7.43189
G1 X135.561 Y127.504 E7.87158
G1 X147.969 Y127.334 E8.49436
G1 X163.382 Y127.484 E9.26790
G1 X174.352 Y127.865 E9.81877
G1 X183.609 Y128.499 E10.28443
G1 X187.853 Y128.975 E10.49877
G1 X187.853 Y153.322 E11.72063
G1 X188.024 Y154.220 E11.76652
G1 X188.474 Y155.249 F6600.000
G1 F1800.000
G1 X188.611 Y155.526 E11.78201
G1 X189.464 Y156.476 E11.84610
G1 X190.417 Y157.126 E11.90397
G1 X191.501 Y157.509 E11.96169
G1 X197.073 Y157.577 E12.24134
G1 X198.330 Y157.249 E12.30655
G1 X199.474 Y156.545 E12.37396
G1 X200.469 Y155.442 E12.44848
G1 X200.877 Y154.618 E12.49468
G1 X201.165 Y153.419 E12.55656
G1 X201.165 Y151.473 E12.65419
G1 X201.165 Y150.033 F6600.000
G1 F1800.000
G1 X201.165 Y131.157 E13.60151
G1 X203.328 Y131.643 E13.71278
G1 X205.926 Y132.361 E13.84807
G1 X209.739 Y133.148 E14.04343
G1 X214.330 Y133.311 E14.27401
G1 X218.605 Y132.716 E14.49061
G1 X219.163 Y132.539 E14.51998
G1 E10.51998 F2400.000
G92 E0
G1 Z0.450 F6600.000
G1 X221.365 Y131.841
G1 Z0.350
G1 E4.00000 F2400.000
G1 F1800.000
G1 X222.721 Y131.411 E4.07137
G1 X226.552 Y129.443 E4.28751
G1 X230.031 Y126.831 E4.50585
G1 X232.954 Y123.751 E4.71895
G1 X235.318 Y120.251 E4.93093
G1 X237.156 Y116.179 E5.15513
G1 X238.237 Y112.004 E5.37154
G1 X238.602 Y107.685 E5.58908
G1 X238.234 Y103.363 E5.80677
G1 X237.641 Y101.048 E5.92669
G1 E1.92669 F2400.000
G92 E0
G1 Z0.450 F6600.000
G1 X236.978 Y98.825
G1 Z0.350
G1 E4.00000 F2400.000
G1 F1800.000
G1 X236.562 Y97.869 E4.05231
G1 X237.244 Y97.289 E4.09722
G1 X238.471 Y96.245 F6600.000
G1 F1800.000
G1 X240.633 Y94.405 E4.23973
G1 X241.534 Y92.860 E4.32949
G1 X241.692 Y92.133 E4.36680
G1 X241.762 Y91.323 E4.40761
G1 X241.567 Y89.980 E4.47573
G1 X240.966 Y88.734 E4.54515
G1 X236.483 Y83.391 E4.89520
G1 X235.458 Y82.634 E4.95912
G1 X234.331 Y82.213 E5.01952
G1 X233.280 Y82.087 E5.07260
G1 X232.519 Y82.115 E5.11084
G1 X231.116 Y82.632 E5.18588
G1 X230.204 Y83.260 F6600.000
G1 F1800.000
G1 X226.759 Y86.111 E5.41032
G1 X226.318 Y85.797 E5.43747
G1 X222.854 Y84.030 E5.63264
G1 X218.275 Y82.597 E5.87342
G1 X214.086 Y82.063 E6.08537
G1 X210.097 Y82.197 E6.28564
G1 X208.841 Y82.440 E6.34984
G1 X208.815 Y68.573 E7.04577
G1 X208.812 Y67.317 F6600.000
G1 F1800.000
G1 X208.810 Y66.089 E7.10741
G1 X208.423 Y64.814 E7.17429
G1 X207.687 Y63.726 E7.24018
G1 X206.518 Y62.745 E7.31677
G1 X205.803 Y62.417 E7.35625
G1 X205.067 Y62.215 E7.39456
G1 X199.081 Y62.259 E7.69499
G1 X198.024 Y62.660 E7.75173
G1 X197.139 Y63.277 E7.80586
G1 X196.289 Y64.224 E7.86974
G1 X196.015 Y64.778 E7.90077
G1 X195.645 Y65.828 F6600.000
G1 F1800.000
G1 X195.531 Y66.427 E7.93138
G1 X195.531 Y85.348 E8.88093
G1 X191.378 Y86.024 E9.09210
G1 X183.611 Y86.887 E9.48425
G1 X174.350 Y87.521 E9.95011
G1 X163.419 Y87.901 E10.49903
G1 X148.032 Y88.052 E11.27130
G1 X135.621 Y87.883 E11.89419
G1 X126.809 Y87.460 E12.33697
G1 X125.502 Y87.343 E12.40280
G1 X125.502 Y69.775 E13.28448
G1 X125.279 Y68.676 E13.34077
G1 X124.779 Y67.668 F6600.000
G1 F1800.000
G1 X124.703 Y67.520 E13.34914
G1 X123.891 Y66.631 E13.40957
G1 X123.054 Y66.039 E13.46100
G1 X122.083 Y65.644 E13.51365
G1 X116.349 Y65.515 E13.80147
G1 X114.680 Y66.018 E13.88897
G1 X113.815 Y66.619 E13.94182
G1 X113.120 Y67.349 E13.99239
G1 X112.596 Y68.196 E14.04238
G1 X112.222 Y69.446 E14.10786
G1 X112.221 Y70.243 E14.14788
G1 X112.219 Y71.432 F6600.000
G1 F1800.000
G1 X112.191 Y85.805 E14.86924
G1 X106.157 Y84.637 E15.17769
G1 X100.047 Y83.044 E15.49457
G1 X96.201 Y82.245 E15.69169
G1 X93.206 Y82.129 E15.84213
G1 X92.636 Y82.449 F6600.000
G1 F1800.000
G1 X96.145 Y82.585 E16.01838
G1 X99.964 Y83.378 E16.21412
G1 X106.081 Y84.973 E16.53134
G1 X112.535 Y86.223 E16.86130
G1 X112.558 Y71.241 E17.61321
G1 X112.559 Y70.053 F6600.000
G1 F1800.000
G1 X112.560 Y69.519 E17.64000
G1 X112.901 Y68.357 E17.70077
G1 X113.403 Y67.546 E17.74865
G1 X114.052 Y66.870 E17.79567
G1 X114.808 Y66.340 E17.84200
G1 X116.370 Y65.860 E17.92402
G1 X121.984 Y65.975 E18.20579
G1 X122.873 Y66.333 E18.25391
G1 X123.650 Y66.877 E18.30149
G1 X124.386 Y67.684 E18.35632
G1 X124.918 Y68.690 F6600.000
G1 F1800.000
G1 X124.949 Y68.751 E18.35974
G1 X125.157 Y69.792 E18.41300
G1 X125.157 Y87.659 E19.30967
G1 X126.785 Y87.804 E19.39169
G1 X135.611 Y88.228 E19.83512
G1 X148.031 Y88.397 E20.45852
G1 X163.427 Y88.246 E21.23120
G1 X174.368 Y87.865 E21.78062
G1 X183.642 Y87.230 E22.24715
G1 X191.424 Y86.366 E22.64010
G1 X195.875 Y85.641 E22.86643
G1 X195.875 Y66.443 E23.82991
G1 X195.993 Y65.814 E23.86202
G1 X196.407 Y64.762 F6600.000
G1 F1800.000
G1 X196.587 Y64.398 E23.88239
G1 X197.380 Y63.524 E23.94166
G1 X198.202 Y62.956 E23.99176
G1 X199.173 Y62.593 E24.04379
G1 X204.999 Y62.554 E24.33618
G1 X205.698 Y62.746 E24.37257
G1 X206.352 Y63.048 E24.40872
G1 X207.446 Y63.973 E24.48062
G1 X208.122 Y64.983 E24.54160
G1 X208.472 Y66.163 E24.60336
G1 X208.474 Y67.084 E24.64962
G1 X208.475 Y68.341 F6600.000
G1 F1800.000
G1 X208.497 Y82.860 E25.37828
G1 X210.123 Y82.541 E25.46143
G1 X214.083 Y82.408 E25.66030
G1 X218.216 Y82.937 E25.86940
G1 X222.710 Y84.343 E26.10572
G1 X226.149 Y86.098 E26.29949
G1 X226.774 Y86.547 E26.33808
G1 X230.493 Y83.458 E26.58071
G1 X231.462 Y82.869 F6600.000
G1 F1800.000
G1 X232.561 Y82.459 E26.63959
G1 X233.255 Y82.432 E26.67446
G1 X234.232 Y82.544 E26.72382
G1 X235.274 Y82.927 E26.77956
G1 X236.232 Y83.629 E26.83914
G1 X240.688 Y88.940 E27.18707
G1 X241.230 Y90.057 E27.24939
G1 X241.417 Y91.314 E27.31315
G1 X241.349 Y92.092 E27.35236
G1 X241.203 Y92.759 E27.38661
G1 X240.351 Y94.205 E27.47083
G1 X238.561 Y95.722 E27.58862
G1 X237.335 Y96.762 F6600.000
G1 F1800.000
G1 X236.143 Y97.772 E27.66702
G1 X236.872 Y99.439 E27.75836
G1 E23.75836 F2400.000
G92 E0
G1 Z0.450 F6600.000
G1 X237.497 Y101.879
G1 Z0.350
G1 E4.00000 F2400.000
G1 F1800.000
G1 X237.896 Y103.435 E4.08062
G1 X238.257 Y107.699 E4.29541
G1 X237.894 Y111.961 E4.51003
G1 X236.826 Y116.078 E4.72352
G1 X235.024 Y120.070 E4.94332
G1 X232.677 Y123.547 E5.15384
G1 X229.791 Y126.583 E5.36406
G1 X226.381 Y129.143 E5.57806
G1 X222.603 Y131.087 E5.79130
G1 X221.917 Y131.305 E5.82739
G1 E1.82739 F2400.000
G92 E0
G1 Z0.450 F6600.000
G1 X219.713 Y132.005
G1 Z0.350
G1 E4.00000 F2400.000
G1 F1800.000
G1 X218.543 Y132.377 E4.06160
G1 X214.328 Y132.966 E4.27521
G1 X209.766 Y132.803 E4.50431
G1 X206.002 Y132.025 E4.69720
G1 X203.412 Y131.308 E4.83206
G1 X200.820 Y130.726 E4.96538
G1 X200.820 Y150.368 E5.95115
G1 X200.820 Y151.808 F6600.000
G1 F1800.000
G1 X200.820 Y153.398 E6.03091
G1 X200.547 Y154.516 E6.08870
G1 X200.171 Y155.267 E6.13083
G1 X199.271 Y156.266 E6.19831
G1 X198.217 Y156.922 E6.26060
G1 X197.008 Y157.238 E6.32332
G1 X191.588 Y157.174 E6.59537
G1 X190.591 Y156.827 E6.64835
G1 X189.705 Y156.228 E6.70200
G1 X188.909 Y155.351 E6.76144
G1 X188.856 Y155.244 E6.76744
G1 X188.368 Y154.216 F6600.000
G1 F1800.000
G1 X188.198 Y153.306 E6.81388
G1 X188.198 Y128.667 E8.05042
G1 X183.640 Y128.155 E8.28061
G1 X174.369 Y127.521 E8.74694
G1 X163.389 Y127.139 E9.29831
G1 X147.968 Y126.989 E10.07227
G1 X135.550 Y127.159 E10.69556
G1 X126.786 Y127.582 E11.13590
G1 X119.106 Y128.266 E11.52284
G1 X112.236 Y129.215 E11.87091
G1 X106.089 Y130.411 E12.18517
G1 X102.655 Y131.305 E12.36327
G1 X102.655 Y154.659 E13.53535
G1 X102.507 Y155.393 E13.57291
G1 X102.067 Y156.434 F6600.000
G1 F1800.000
G1 X101.897 Y156.763 E13.59152
G1 X101.057 Y157.651 E13.65286
G1 X100.011 Y158.287 E13.71429
G1 X98.845 Y158.584 E13.77467
G1 X93.523 Y158.539 E14.04179
G1 X92.720 Y158.303 E14.08376
G1 X92.005 Y157.938 E14.12407
G1 X91.009 Y157.040 E14.19134
G1 X90.354 Y155.988 E14.25353
G1 X90.032 Y154.744 E14.31804
G1 X90.032 Y150.898 E14.51105
G1 E10.51105 F2400.000
G92 E0
G1 Z0.450 F6600.000
G1 X90.032 Y148.755
G1 Z0.350
G1 E4.00000 F2400.000
G1 F1800.000
G1 X90.032 Y132.761 E4.80267
G1 X87.508 Y132.412 E4.93059
G1 X83.428 Y131.145 E5.14496
G1 X79.595 Y129.196 E5.36076
G1 X79.268 Y128.952 E5.38126
G1 E1.38126 F2400.000
G92 E0
G1 Z0.450 F6600.000
G1 X77.296 Y127.484
G1 Z0.350
G1 E4.00000 F2400.000
G1 F1800.000
G1 X76.181 Y126.655 E4.06973
G1 X73.254 Y123.594 E4.28229
G1 X70.873 Y120.078 E4.49537
G1 X69.112 Y116.211 E4.70863
G1 X68.025 Y112.114 E4.92132
G1 X67.636 Y107.877 E5.13490
G1 X67.966 Y103.618 E5.34924
G1 X69.109 Y99.183 E5.57909
G1 X70.809 Y95.422 E5.78624
G1 X73.100 Y91.984 E5.99355
G1 X76.295 Y88.630 E6.22606
G1 X79.698 Y86.127 E6.43805
G1 X83.476 Y84.222 E6.65037
G1 X87.501 Y82.976 E6.86185
G1 X90.244 Y82.608 E7.00074
G1 X89.435 Y83.064 F6600.000
G1 F1800.000
G1 X87.589 Y83.310 E7.09420
G1 X83.591 Y84.548 E7.30423
G1 X79.866 Y86.428 E7.51365
G1 X76.512 Y88.899 E7.72272
G1 X73.378 Y92.188 E7.95072
G1 X71.118 Y95.577 E8.15517
G1 X69.429 Y99.312 E8.36086
G1 X68.308 Y103.660 E8.58622
G1 X67.981 Y107.860 E8.79762
G1 X68.362 Y112.040 E9.00830
G1 X69.432 Y116.081 E9.21808
G1 X71.167 Y119.897 E9.42843
G1 X73.513 Y123.366 E9.63860
G1 X76.420 Y126.406 E9.84970
G1 X76.905 Y126.766 E9.88001
G1 E5.88001 F2400.000
G92 E0
G1 Z0.450 F6600.000
G1 X78.876 Y128.231
G1 Z0.350
G1 E4.00000 F2400.000
G1 F1800.000
G1 X79.789 Y128.910 E4.05712
G1 X83.571 Y130.831 E4.26998
G1 X87.596 Y132.078 E4.48146
G1 X90.377 Y132.460 E4.62234
G1 X90.377 Y149.389 E5.47196
G1 E1.47196 F2400.000
G92 E0
G1 Z0.450 F6600.000
G1 X90.377 Y151.532
G1 Z0.350
G1 E4.00000 F2400.000
G1 F1800.000
G1 X90.377 Y154.722 E4.16011
G1 X90.661 Y155.830 E4.21751
G1 X91.260 Y156.802 E4.27478
G1 X92.183 Y157.642 E4.33743
G1 X92.834 Y157.977 E4.37414
G1 X93.597 Y158.201 E4.41407
G1 X98.783 Y158.244 E4.67436
G1 X99.856 Y157.977 E4.72983
G1 X100.824 Y157.396 E4.78653
G1 X101.602 Y156.583 E4.84299
G1 X101.676 Y156.439 E4.85109
G1 X102.161 Y155.398 F6600.000
G1 F1800.000
G1 X102.310 Y154.643 E4.88972
G1 X102.310 Y131.038 E6.07434
G1 X106.013 Y130.075 E6.26636
G1 X112.179 Y128.875 E6.58164
G1 X119.067 Y127.924 E6.93061
G1 X126.762 Y127.238 E7.31832
G1 X135.539 Y126.815 E7.75931
G1 X147.968 Y126.644 E8.38310
G1 X163.397 Y126.794 E9.15748
G1 X174.387 Y127.176 E9.70936
G1 X183.671 Y127.812 E10.17636
G1 X188.543 Y128.359 E10.42240
G1 X188.543 Y153.291 E11.67364
G1 X188.701 Y154.150 E11.71748
G1 X188.730 Y154.211 E11.72086
G1 X189.273 Y155.238 F6600.000
G1 F1800.000
G1 X189.947 Y155.981 E11.77123
G1 X190.725 Y156.509 E11.81842
G1 X191.675 Y156.839 E11.86886
G1 X196.945 Y156.898 E12.13340
G1 X198.060 Y156.614 E12.19111
G1 X199.033 Y156.015 E12.24845
G1 X199.874 Y155.089 E12.31124
G1 X200.217 Y154.413 E12.34929
G1 X200.475 Y153.376 E12.40293
G1 X200.475 Y152.144 E12.46479
G1 X200.475 Y150.704 F6600.000
G1 F1800.000
G1 X200.475 Y130.295 E13.48901
G1 X203.496 Y130.974 E13.64438
G1 X206.078 Y131.688 E13.77882
G1 X209.793 Y132.459 E13.96924
G1 X214.325 Y132.621 E14.19684
G1 X218.481 Y132.037 E14.40745
G1 X220.264 Y131.470 E14.50137
G1 E10.50137 F2400.000
G92 E0
G1 Z0.450 F6600.000
G1 X222.471 Y130.767
