; generated by PrusaSlicer 2.3.1+win64 on 2021-07-10 at 19:55:45 UTC

; 

; external perimeters extrusion width = 0.45mm
; perimeters extrusion width = 0.45mm
; infill extrusion width = 0.45mm
; solid infill extrusion width = 0.45mm
; top infill extrusion width = 0.40mm
; support material extrusion width = 0.35mm
; first layer extrusion width = 0.42mm

M107
M190 S80 ; set bed temperature and wait for it to be reached
M104 S230 ; set temperature
;TYPE:Custom
G28 ; home all axes
G1 Z5 F5000 ; lift nozzle
M109 S230 ; set temperature and wait for it to be reached
G21 ; set units to millimeters
G90 ; use absolute coordinates
M82 ; use absolute distances for extrusion
G92 E0
; Filament gcode
;LAYER_CHANGE
;Z:0.35
;HEIGHT:0.35
G1 Z0.350 F6600.000
G1 E-4.00000 F2400.000
G92 E0
G1 Z0.450 F6600.000
G1 X123.311 Y83.806
G1 Z0.350
G1 E4.00000 F2400.000
;TYPE:Skirt
;WIDTH:0.42
G1 X123.684 Y83.464 E4.02540
G1 X124.199 Y83.198 E4.05448
G1 X124.768 Y83.089 E4.08357
G1 X147.997 Y82.321 E5.24996
G1 X166.863 Y82.320 E6.19678
G1 X167.630 Y82.470 E6.23598
G1 X168.283 Y82.897 E6.27517
G1 X170.886 Y85.515 E6.46043
G1 X171.202 Y86.063 E6.49213
G1 X171.335 Y86.680 E6.52384
G1 X171.176 Y114.516 E7.92081
G1 X171.044 Y115.091 E7.95041
G1 X170.751 Y115.606 E7.98019
G1 X168.856 Y117.482 E8.11399
G1 X167.802 Y117.940 E8.17167
G1 X167.165 Y118.044 E8.20407
G1 X148.325 Y118.044 E9.14958
G1 X125.937 Y117.542 E10.27342
G1 X125.321 Y117.402 E10.30513
G1 X124.778 Y117.079 E10.33683
G1 X121.980 Y114.254 E10.53637
G1 X118.235 Y106.386 E10.97366
G1 X118.085 Y105.932 E10.99766
G1 X118.047 Y94.960 E11.54829
G1 X118.233 Y94.216 E11.58679
G1 X123.036 Y84.227 E12.14306
G1 X123.279 Y83.856 E12.16528
G1 X123.565 Y84.045 F6600.000
G1 F2400.000
G1 X123.891 Y83.739 E12.18770
G1 X124.319 Y83.522 E12.21179
G1 X124.788 Y83.433 E12.23573
G1 X148.007 Y82.665 E13.40165
G1 X166.863 Y82.665 E14.34796
G1 X167.502 Y82.790 E14.38063
G1 X168.046 Y83.148 E14.41330
G1 X170.606 Y85.718 E14.59536
G1 X170.878 Y86.182 E14.62233
G1 X170.991 Y86.707 E14.64929
G1 X170.833 Y114.481 E16.04317
G1 X170.720 Y114.974 E16.06854
G1 X170.466 Y115.411 E16.09391
G1 X168.647 Y117.208 E16.22223
G1 X167.705 Y117.609 E16.27360
G1 X167.205 Y117.698 E16.29913
G1 X148.350 Y117.699 E17.24538
G1 X125.963 Y117.199 E18.36917
G1 X125.442 Y117.079 E18.39597
G1 X124.983 Y116.800 E18.42293
G1 X122.255 Y114.044 E18.61755
G1 X118.422 Y105.859 E19.07112
G1 X118.391 Y94.980 E19.61711
G1 X118.547 Y94.358 E19.64931
G1 X123.347 Y84.377 E20.20508
G1 X123.532 Y84.095 E20.22205
G1 X123.819 Y84.341 F6600.000
G1 F2400.000
G1 X124.097 Y84.017 E20.24347
G1 X124.433 Y83.847 E20.26239
G1 X124.807 Y83.778 E20.28145
G1 X148.020 Y83.010 E21.44707
G1 X166.863 Y83.010 E22.39273
G1 X167.372 Y83.110 E22.41874
G1 X167.807 Y83.396 E22.44488
G1 X170.328 Y85.924 E22.62404
G1 X170.554 Y86.300 E22.64608
G1 X170.647 Y86.732 E22.66827
G1 X170.489 Y114.452 E24.05942
G1 X170.396 Y114.855 E24.08018
G1 X170.186 Y115.208 E24.10081
G1 X168.444 Y116.929 E24.22365
G1 X167.595 Y117.283 E24.26985
G1 X167.190 Y117.354 E24.29048
G1 X148.347 Y117.354 E25.23614
G1 X125.987 Y116.855 E26.35855
G1 X125.565 Y116.756 E26.38031
G1 X125.194 Y116.527 E26.40221
G1 X122.532 Y113.839 E26.59202
G1 X118.760 Y105.789 E27.03820
G1 X118.735 Y95.001 E27.57959
G1 X118.861 Y94.502 E27.60545
G1 X123.656 Y84.531 E28.16070
G1 X123.780 Y84.386 E28.17026
G1 E24.17026
G92 E0
G1 Z0.450 F6600.000
G1 X169.303 Y86.794
G1 Z0.350
G1 E4.00000 F2400.000
;TYPE:Support material
G1 X166.863 Y84.355 E4.17317
G1 X166.167 Y84.355 E4.20814
G1 X169.148 Y87.336 E4.41974
G1 X169.148 Y88.033 E4.45471
G1 X165.470 Y84.355 E4.71577
G1 X164.773 Y84.355 E4.75074
G1 X169.148 Y88.730 E5.06125
G1 X169.148 Y89.426 E5.09622
G1 X164.076 Y84.355 E5.45618
G1 X163.380 Y84.355 E5.49115
G1 X169.148 Y90.123 E5.90057
G1 X169.148 Y90.820 E5.93554
G1 X162.683 Y84.355 E6.39441
G1 X161.986 Y84.355 E6.42938
G1 X169.148 Y91.517 E6.93770
G1 X169.148 Y92.214 E6.97267
G1 X161.289 Y84.355 E7.53045
G1 X160.592 Y84.355 E7.56542
G1 X169.148 Y92.910 E8.17265
G1 X169.148 Y93.607 E8.20762
G1 X159.896 Y84.355 E8.86430
G1 X159.199 Y84.355 E8.89927
G1 X169.148 Y94.304 E9.60541
G1 X169.148 Y95.001 E9.64037
G1 X158.502 Y84.355 E10.39596
G1 X157.805 Y84.355 E10.43093
G1 X169.148 Y95.697 E11.23597
G1 X169.148 Y96.394 E11.27094
G1 X157.108 Y84.355 E12.12544
G1 X156.412 Y84.355 E12.16041
G1 X169.148 Y97.091 E13.06436
G1 X169.148 Y97.788 E13.09933
G1 X155.715 Y84.355 E14.05273
G1 X155.018 Y84.355 E14.08770
G1 X169.148 Y98.485 E15.09055
G1 X169.148 Y99.181 E15.12552
G1 X154.321 Y84.355 E16.17783
G1 X153.625 Y84.355 E16.21280
G1 X169.148 Y99.878 E17.31456
G1 X169.148 Y100.575 E17.34953
G1 X152.928 Y84.355 E18.50074
G1 X152.231 Y84.355 E18.53571
G1 X169.148 Y101.272 E19.73638
G1 X169.148 Y101.968 E19.77135
G1 X151.534 Y84.355 E21.02147
G1 X150.837 Y84.355 E21.05644
G1 X169.148 Y102.665 E22.35601
G1 X169.148 Y103.362 E22.39098
G1 X150.141 Y84.355 E23.74001
G1 X149.444 Y84.355 E23.77497
G1 X169.148 Y104.059 E25.17345
G1 X169.148 Y104.756 E25.20842
G1 X148.747 Y84.355 E26.65636
G1 X148.050 Y84.355 E26.69132
G1 X169.148 Y105.452 E28.18871
G1 X169.148 Y106.149 E28.22368
G1 X147.537 Y84.538 E29.75747
G1 X147.189 Y84.887 E29.78220
G1 X169.148 Y106.846 E31.34072
G1 X169.148 Y107.543 E31.37569
G1 X146.841 Y85.235 E32.95893
G1 X146.492 Y85.584 E32.98366
G1 X169.148 Y108.240 E34.59163
G1 X169.148 Y108.936 E34.62660
G1 X146.144 Y85.932 E36.25930
G1 X146.065 Y86.011 E36.26490
G1 X146.065 Y86.550 E36.29194
G1 X169.148 Y109.633 E37.93025
G1 X169.148 Y110.330 E37.96522
G1 X146.065 Y87.247 E39.60352
G1 X146.065 Y87.943 E39.63849
G1 X169.148 Y111.027 E41.27679
G1 X169.148 Y111.723 E41.31176
G1 X146.065 Y88.640 E42.95006
G1 X146.065 Y89.337 E42.98503
G1 X169.148 Y112.420 E44.62333
G1 X169.148 Y113.117 E44.65830
G1 X146.065 Y90.034 E46.29660
G1 X146.065 Y90.731 E46.33157
G1 X169.148 Y113.814 E47.96987
G1 X169.148 Y114.353 E47.99692
G1 X169.069 Y114.432 E48.00252
G1 X146.065 Y91.427 E49.63522
G1 X146.065 Y92.124 E49.67019
G1 X168.721 Y114.780 E51.27816
G1 X168.372 Y115.128 E51.30288
G1 X146.065 Y92.821 E52.88613
G1 X146.065 Y93.518 E52.92110
G1 X168.024 Y115.477 E54.47962
G1 X167.676 Y115.825 E54.50434
G1 X146.065 Y94.214 E56.03814
G1 X146.065 Y94.911 E56.07311
G1 X167.163 Y116.009 E57.57049
G1 X166.466 Y116.009 E57.60546
G1 X146.065 Y95.608 E59.05339
G1 X146.065 Y96.305 E59.08836
G1 X165.769 Y116.009 E60.48684
G1 X165.072 Y116.009 E60.52181
G1 X146.065 Y97.002 E61.87084
G1 X146.065 Y97.698 E61.90581
G1 X164.376 Y116.009 E63.20538
G1 X163.679 Y116.009 E63.24035
G1 X146.065 Y98.395 E64.49047
G1 X146.065 Y99.092 E64.52544
G1 X162.982 Y116.009 E65.72611
G1 X162.285 Y116.009 E65.76107
G1 X146.065 Y99.789 E66.91229
G1 X146.065 Y100.485 E66.94726
G1 X161.588 Y116.009 E68.04902
G1 X160.892 Y116.009 E68.08399
G1 X146.065 Y101.182 E69.13630
G1 X146.065 Y101.879 E69.17126
G1 X160.195 Y116.009 E70.17412
G1 X159.498 Y116.009 E70.20909
G1 X146.065 Y102.576 E71.16249
G1 X146.065 Y103.273 E71.19746
G1 X158.801 Y116.009 E72.10141
G1 X158.104 Y116.009 E72.13638
G1 X146.065 Y103.969 E72.99087
G1 X146.065 Y104.666 E73.02584
G1 X157.408 Y116.009 E73.83088
G1 X156.711 Y116.009 E73.86585
G1 X146.065 Y105.363 E74.62144
G1 X146.065 Y106.060 E74.65641
G1 X156.014 Y116.009 E75.36255
G1 X155.317 Y116.009 E75.39752
G1 X146.065 Y106.757 E76.05420
G1 X146.065 Y107.453 E76.08917
G1 X154.621 Y116.009 E76.69640
G1 X153.924 Y116.009 E76.73137
G1 X146.065 Y108.150 E77.28915
G1 X146.065 Y108.847 E77.32411
G1 X153.227 Y116.009 E77.83244
G1 X152.530 Y116.009 E77.86741
G1 X146.065 Y109.544 E78.32628
G1 X146.065 Y110.240 E78.36125
G1 X151.833 Y116.009 E78.77066
G1 X151.137 Y116.009 E78.80563
G1 X146.065 Y110.937 E79.16560
G1 X146.065 Y111.634 E79.20057
G1 X150.440 Y116.009 E79.51108
G1 X149.743 Y116.009 E79.54605
G1 X146.065 Y112.331 E79.80711
G1 X146.065 Y113.028 E79.84207
G1 X149.046 Y116.009 E80.05368
G1 X148.350 Y116.009 E80.08865
G1 X145.910 Y113.569 E80.26182
G1 E76.26182
G92 E0
G1 Z0.450 F6600.000
G1 X150.661 Y93.412
G1 Z0.350
G1 E4.00000 F2400.000
G1 X150.023 Y92.774 E4.04530
G1 X149.326 Y92.774 E4.08027
G1 X150.506 Y93.954 E4.16400
G1 X150.506 Y94.651 E4.19897
G1 X148.630 Y92.774 E4.33216
G1 X147.933 Y92.774 E4.36713
G1 X150.506 Y95.348 E4.54977
G1 X150.506 Y96.044 E4.58474
G1 X147.236 Y92.774 E4.81683
G1 X146.539 Y92.774 E4.85180
G1 X150.506 Y96.741 E5.13335
G1 X150.506 Y97.438 E5.16832
G1 X145.843 Y92.774 E5.49932
G1 X145.146 Y92.774 E5.53429
G1 X150.506 Y98.135 E5.91474
G1 X150.506 Y98.832 E5.94971
G1 X144.449 Y92.774 E6.37961
G1 X143.752 Y92.774 E6.41458
G1 X150.506 Y99.528 E6.89394
G1 X150.506 Y100.225 E6.92891
G1 X143.055 Y92.774 E7.45772
G1 X142.359 Y92.774 E7.49269
G1 X150.506 Y100.922 E8.07096
G1 X150.506 Y101.619 E8.10593
G1 X141.662 Y92.774 E8.73365
G1 X140.965 Y92.774 E8.76862
G1 X150.506 Y102.315 E9.44579
G1 X150.506 Y103.012 E9.48076
G1 X140.268 Y92.774 E10.20738
G1 X139.572 Y92.774 E10.24235
G1 X150.506 Y103.709 E11.01843
G1 X150.506 Y104.406 E11.05340
G1 X138.875 Y92.774 E11.87893
G1 X138.178 Y92.774 E11.91390
G1 X150.506 Y105.103 E12.78888
G1 X150.506 Y105.799 E12.82385
G1 X137.481 Y92.774 E13.74829
G1 X136.784 Y92.774 E13.78326
G1 X150.296 Y106.286 E14.74225
G1 X149.600 Y106.286 E14.77722
G1 X136.088 Y92.774 E15.73622
G1 X135.391 Y92.774 E15.77119
G1 X148.903 Y106.286 E16.73018
G1 X148.206 Y106.286 E16.76515
G1 X134.694 Y92.774 E17.72414
G1 X133.997 Y92.774 E17.75911
G1 X147.509 Y106.286 E18.71811
G1 X146.813 Y106.286 E18.75307
G1 X133.301 Y92.774 E19.71207
G1 X132.709 Y92.774 E19.74177
G1 X132.709 Y92.879 E19.74704
G1 X146.116 Y106.286 E20.69859
G1 X145.419 Y106.286 E20.73356
G1 X132.709 Y93.576 E21.63565
G1 X132.709 Y94.273 E21.67062
G1 X144.722 Y106.286 E22.52327
G1 X144.025 Y106.286 E22.55823
G1 X132.709 Y94.969 E23.36142
G1 X132.709 Y95.666 E23.39639
G1 X143.329 Y106.286 E24.15013
G1 X142.632 Y106.286 E24.18510
G1 X132.709 Y96.363 E24.88938
G1 X132.709 Y97.060 E24.92435
G1 X142.435 Y106.786 E25.61467
G1 X142.435 Y107.483 E25.64964
G1 X132.709 Y97.757 E26.33996
G1 X132.709 Y98.453 E26.37493
G1 X142.435 Y108.180 E27.06524
G1 X142.435 Y108.877 E27.10021
G1 X132.709 Y99.150 E27.79053
G1 X132.709 Y99.847 E27.82550
G1 X142.435 Y109.573 E28.51581
G1 X142.435 Y110.270 E28.55078
G1 X132.709 Y100.544 E29.24110
G1 X132.709 Y100.845 E29.25624
G1 X132.314 Y100.845 E29.27607
G1 X142.435 Y110.967 E29.99442
G1 X142.435 Y111.664 E30.02939
G1 X131.617 Y100.845 E30.79720
G1 X130.920 Y100.845 E30.83217
G1 X142.435 Y112.361 E31.64943
G1 X142.435 Y113.057 E31.68440
G1 X130.223 Y100.845 E32.55111
G1 X129.526 Y100.845 E32.58608
G1 X142.409 Y113.728 E33.50037
G1 X142.060 Y114.076 E33.52509
G1 X128.830 Y100.845 E34.46411
G1 X128.133 Y100.845 E34.49908
G1 X141.712 Y114.424 E35.46282
G1 X141.363 Y114.773 E35.48754
G1 X127.436 Y100.845 E36.47601
G1 X126.739 Y100.845 E36.51098
G1 X141.015 Y115.121 E37.52417
G1 X140.779 Y115.357 E37.54095
G1 X140.555 Y115.357 E37.55220
G1 X126.043 Y100.845 E38.58216
G1 X125.346 Y100.845 E38.61713
G1 X139.858 Y115.357 E39.64709
G1 X139.161 Y115.357 E39.68206
G1 X124.971 Y101.168 E40.68915
G1 X124.623 Y101.516 E40.71388
G1 X138.464 Y115.357 E41.69623
G1 X137.767 Y115.357 E41.73120
G1 X124.275 Y101.865 E42.68884
G1 X123.926 Y102.213 E42.71356
G1 X137.071 Y115.357 E43.64647
G1 X136.374 Y115.357 E43.68144
G1 X123.637 Y102.621 E44.58539
G1 X123.637 Y103.318 E44.62036
G1 X135.677 Y115.357 E45.47485
G1 X134.980 Y115.357 E45.50982
G1 X123.637 Y104.015 E46.31487
G1 X123.637 Y104.711 E46.34983
G1 X134.283 Y115.357 E47.10542
G1 X133.587 Y115.357 E47.14039
G1 X123.637 Y105.408 E47.84653
G1 X123.637 Y106.105 E47.88150
G1 X132.890 Y115.357 E48.53818
G1 X132.193 Y115.357 E48.57315
G1 X123.637 Y106.802 E49.18038
G1 X123.637 Y107.498 E49.21535
G1 X131.496 Y115.357 E49.77313
G1 X130.800 Y115.357 E49.80810
G1 X123.637 Y108.195 E50.31643
G1 X123.637 Y108.892 E50.35139
G1 X130.103 Y115.357 E50.81027
G1 X129.406 Y115.357 E50.84524
G1 X123.637 Y109.589 E51.25465
G1 X123.637 Y110.286 E51.28962
G1 X128.709 Y115.357 E51.64959
G1 X128.012 Y115.357 E51.68456
G1 X123.637 Y110.982 E51.99507
G1 X123.637 Y111.679 E52.03004
G1 X127.316 Y115.357 E52.29110
G1 X126.619 Y115.357 E52.32607
G1 X123.637 Y112.376 E52.53767
G1 X123.637 Y113.073 E52.57264
G1 X126.077 Y115.513 E52.74581
G1 E48.74581
G92 E0
G1 Z0.450 F6600.000
G1 X142.817 Y85.760
G1 Z0.350
G1 E4.00000 F2400.000
G1 X142.179 Y85.121 E4.04530
G1 X141.482 Y85.121 E4.08027
G1 X142.662 Y86.301 E4.16400
G1 X142.662 Y86.998 E4.19897
G1 X140.785 Y85.121 E4.33216
G1 X140.088 Y85.121 E4.36713
G1 X142.662 Y87.695 E4.54977
G1 X142.662 Y88.391 E4.58474
G1 X139.391 Y85.121 E4.81683
G1 X138.695 Y85.121 E4.85180
G1 X142.662 Y89.088 E5.13335
G1 X142.662 Y89.785 E5.16832
G1 X137.998 Y85.121 E5.49932
G1 X137.301 Y85.121 E5.53429
G1 X142.662 Y90.482 E5.91474
G1 X142.662 Y91.179 E5.94971
G1 X136.604 Y85.121 E6.37961
G1 X135.908 Y85.121 E6.41458
G1 X142.662 Y91.875 E6.89394
G1 X142.662 Y92.572 E6.92891
G1 X135.211 Y85.121 E7.45772
G1 X134.514 Y85.121 E7.49269
G1 X142.662 Y93.269 E8.07096
G1 X142.662 Y93.966 E8.10593
G1 X133.817 Y85.121 E8.73365
G1 X133.120 Y85.121 E8.76862
G1 X142.662 Y94.663 E9.44579
G1 X142.662 Y95.359 E9.48076
G1 X132.424 Y85.121 E10.20738
G1 X131.727 Y85.121 E10.24235
G1 X142.662 Y96.056 E11.01843
G1 X142.662 Y96.753 E11.05340
G1 X131.030 Y85.121 E11.87893
G1 X130.333 Y85.121 E11.91390
G1 X142.662 Y97.450 E12.78888
G1 X142.662 Y98.146 E12.82385
G1 X129.636 Y85.121 E13.74829
G1 X128.940 Y85.121 E13.78326
G1 X142.452 Y98.633 E14.74225
G1 X141.755 Y98.633 E14.77722
G1 X128.243 Y85.121 E15.73622
G1 X127.546 Y85.121 E15.77119
G1 X141.058 Y98.633 E16.73018
G1 X140.361 Y98.633 E16.76515
G1 X126.849 Y85.121 E17.72414
G1 X126.153 Y85.121 E17.75911
G1 X139.665 Y98.633 E18.71811
G1 X138.968 Y98.633 E18.75307
G1 X125.456 Y85.121 E19.71207
G1 X124.864 Y85.121 E19.74177
G1 X124.864 Y85.226 E19.74704
G1 X138.376 Y98.738 E20.70604
G1 X138.376 Y99.435 E20.74101
G1 X124.864 Y85.923 E21.70000
G1 X124.864 Y86.620 E21.73497
G1 X138.376 Y100.132 E22.69397
G1 X138.376 Y100.829 E22.72894
G1 X124.864 Y87.317 E23.68794
G1 X124.864 Y88.013 E23.72291
G1 X138.376 Y101.525 E24.68190
G1 X138.376 Y102.222 E24.71687
G1 X124.864 Y88.710 E25.67587
G1 X124.864 Y89.407 E25.71084
G1 X138.376 Y102.919 E26.66984
G1 X137.679 Y102.919 E26.70481
G1 X124.864 Y90.104 E27.61435
G1 X124.864 Y90.800 E27.64932
G1 X136.982 Y102.919 E28.50941
G1 X136.286 Y102.919 E28.54438
G1 X124.864 Y91.497 E29.35501
G1 X124.864 Y92.194 E29.38998
G1 X135.589 Y102.919 E30.15117
G1 X134.892 Y102.919 E30.18614
G1 X124.864 Y92.891 E30.89787
G1 X124.864 Y93.193 E30.91301
G1 X124.469 Y93.193 E30.93283
G1 X134.590 Y103.314 E31.65119
G1 X134.590 Y104.011 E31.68616
G1 X123.772 Y93.193 E32.45397
G1 X123.075 Y93.193 E32.48893
G1 X134.590 Y104.708 E33.30619
G1 X134.590 Y105.404 E33.34116
G1 X122.379 Y93.193 E34.20788
G1 X121.735 Y93.193 E34.24019
G1 X121.708 Y93.219 E34.24207
G1 X134.564 Y106.075 E35.15448
G1 X134.215 Y106.423 E35.17920
G1 X121.360 Y93.567 E36.09162
G1 X121.011 Y93.916 E36.11634
G1 X133.867 Y106.771 E37.02875
G1 X133.519 Y107.120 E37.05348
G1 X120.663 Y94.264 E37.96589
G1 X120.315 Y94.613 E37.99062
G1 X133.170 Y107.468 E38.90303
G1 X132.934 Y107.705 E38.91980
G1 X132.710 Y107.705 E38.93105
G1 X120.078 Y95.073 E39.82755
G1 X120.078 Y95.770 E39.86252
G1 X132.013 Y107.705 E40.70957
G1 X131.316 Y107.705 E40.74454
G1 X120.078 Y96.467 E41.54213
G1 X120.078 Y97.163 E41.57710
G1 X130.619 Y107.705 E42.32525
G1 X129.923 Y107.705 E42.36021
G1 X120.078 Y97.860 E43.05890
G1 X120.078 Y98.557 E43.09387
G1 X129.226 Y107.705 E43.74311
G1 X128.529 Y107.705 E43.77808
G1 X120.078 Y99.254 E44.37786
G1 X120.078 Y99.951 E44.41283
G1 X127.832 Y107.705 E44.96316
G1 X127.136 Y107.705 E44.99813
G1 X120.078 Y100.647 E45.49901
G1 X120.078 Y101.344 E45.53398
G1 X126.439 Y107.705 E45.98540
G1 X125.742 Y107.705 E46.02037
G1 X120.078 Y102.041 E46.42234
G1 X120.078 Y102.738 E46.45731
G1 X125.045 Y107.705 E46.80983
G1 X124.348 Y107.705 E46.84480
G1 X120.078 Y103.434 E47.14786
G1 X120.078 Y104.131 E47.18283
