; generated by PrusaSlicer 2.3.1+win64 on 2021-07-10 at 17:30:33 UTC

; 

; external perimeters extrusion width = 0.45mm
; perimeters extrusion width = 0.45mm
; infill extrusion width = 0.45mm
; solid infill extrusion width = 0.45mm
; top infill extrusion width = 0.40mm
; support material extrusion width = 0.35mm
; first layer extrusion width = 0.42mm

M107
M190 S80 ; set bed temperature and wait for it to be reached
M104 S230 ; set temperature
;TYPE:Custom
G28 ; home all axes
G1 Z5 F5000 ; lift nozzle
M109 S230 ; set temperature and wait for it to be reached
G21 ; set units to millimeters
G90 ; use absolute coordinates
M82 ; use absolute distances for extrusion
G92 E0
; Filament gcode
;LAYER_CHANGE
;Z:0.35
;HEIGHT:0.35
G1 Z0.350 F6600.000
G1 E-4.00000 F2400.000
G92 E0
G1 Z0.450 F6600.000
G1 X122.943 Y76.285
G1 Z0.350
G1 E4.00000 F2400.000
;TYPE:Skirt
;WIDTH:0.42
G1 X123.296 Y75.760 E4.03171
G1 X125.087 Y73.975 E4.15863
G1 X125.594 Y73.654 E4.18877
G1 X126.173 Y73.494 E4.21890
G1 X146.155 Y73.480 E5.22170
G1 X146.606 Y73.531 E5.24447
G1 X147.034 Y73.681 E5.26724
G1 X163.672 Y81.914 E6.19888
G1 X164.759 Y82.954 E6.27439
G1 X169.271 Y88.672 E6.63988
G1 X169.582 Y89.261 E6.67333
G1 X169.686 Y89.923 E6.70696
G1 X169.529 Y102.373 E7.33182
G1 X169.437 Y102.902 E7.35880
G1 X169.131 Y103.638 E7.39879
G1 X168.701 Y104.240 E7.43590
G1 X158.853 Y113.570 E8.11673
G1 X158.425 Y113.775 E8.14055
G1 X146.809 Y117.677 E8.75552
G1 X146.199 Y117.775 E8.78653
G1 X126.447 Y117.775 E9.77781
G1 X125.594 Y117.584 E9.82168
G1 X125.065 Y117.226 E9.85373
G1 X123.053 Y115.206 E9.99682
G1 X122.718 Y114.650 E10.02939
G1 X122.575 Y114.020 E10.06180
G1 X122.727 Y77.795 E11.87981
G1 X122.773 Y76.857 E11.92696
G1 X122.926 Y76.342 E11.95391
G1 X123.254 Y76.439 F6600.000
G1 F2400.000
G1 X123.556 Y75.987 E11.98116
G1 X125.307 Y74.241 E12.10529
G1 X125.737 Y73.968 E12.13082
G1 X126.228 Y73.835 E12.15635
G1 X146.155 Y73.825 E13.15641
G1 X146.887 Y73.993 E13.19413
G1 X163.484 Y82.203 E14.12336
G1 X164.496 Y83.176 E14.19383
G1 X168.994 Y88.878 E14.55830
G1 X169.256 Y89.372 E14.58638
G1 X169.341 Y89.925 E14.61446
G1 X169.185 Y102.357 E15.23842
G1 X169.104 Y102.811 E15.26155
G1 X168.816 Y103.496 E15.29888
G1 X168.459 Y103.995 E15.32965
G1 X158.666 Y113.281 E16.00691
G1 X146.702 Y117.350 E16.64114
G1 X146.196 Y117.430 E16.66683
G1 X126.448 Y117.430 E17.65793
G1 X125.736 Y117.270 E17.69455
G1 X125.294 Y116.969 E17.72135
G1 X123.324 Y114.993 E17.86141
G1 X123.041 Y114.529 E17.88869
G1 X122.919 Y113.995 E17.91613
G1 X123.071 Y77.801 E19.73261
G1 X123.113 Y76.918 E19.77699
G1 X123.237 Y76.496 E19.79902
G1 X123.565 Y76.592 F6600.000
G1 F2400.000
G1 X123.812 Y76.218 E19.82151
G1 X125.527 Y74.506 E19.94310
G1 X125.876 Y74.283 E19.96387
G1 X126.275 Y74.177 E19.98463
G1 X146.154 Y74.169 E20.98228
G1 X146.739 Y74.304 E21.01236
G1 X163.296 Y82.492 E21.93939
G1 X164.232 Y83.399 E22.00477
G1 X168.720 Y89.087 E22.36837
G1 X168.923 Y89.466 E22.38999
G1 X168.997 Y89.891 E22.41161
G1 X168.841 Y102.311 E23.03495
G1 X168.775 Y102.708 E23.05515
G1 X168.502 Y103.355 E23.09040
G1 X168.218 Y103.748 E23.11471
G1 X158.480 Y112.991 E23.78854
G1 X146.597 Y117.021 E24.41824
G1 X146.191 Y117.085 E24.43886
G1 X126.448 Y117.085 E25.42969
G1 X125.877 Y116.955 E25.45907
G1 X125.525 Y116.712 E25.48054
G1 X123.594 Y114.778 E25.61769
G1 X123.362 Y114.402 E25.63988
G1 X123.263 Y113.968 E25.66221
G1 X123.416 Y77.803 E27.47722
G1 X123.453 Y76.977 E27.51872
G1 X123.549 Y76.649 E27.53583
G1 E23.53583
G92 E0
G1 Z0.450 F6600.000
G1 X124.606 Y113.892
G1 Z0.350
G1 E4.00000 F2400.000
;TYPE:Support material
G1 X126.454 Y115.740 E4.13116
G1 X127.151 Y115.740 E4.16613
G1 X124.761 Y113.350 E4.33573
G1 X124.761 Y112.654 E4.37070
G1 X127.848 Y115.740 E4.58975
G1 X128.544 Y115.740 E4.62472
G1 X124.761 Y111.957 E4.89322
G1 X124.761 Y111.260 E4.92819
G1 X129.241 Y115.740 E5.24615
G1 X129.938 Y115.740 E5.28112
G1 X124.761 Y110.563 E5.64853
G1 X124.761 Y109.866 E5.68350
G1 X130.635 Y115.740 E6.10036
G1 X131.331 Y115.740 E6.13533
G1 X124.761 Y109.170 E6.60165
G1 X124.761 Y108.473 E6.63662
G1 X132.028 Y115.740 E7.15239
G1 X132.725 Y115.740 E7.18736
G1 X124.761 Y107.776 E7.75258
G1 X124.761 Y107.079 E7.78755
G1 X133.422 Y115.740 E8.40223
G1 X134.119 Y115.740 E8.43720
G1 X124.761 Y106.383 E9.10133
G1 X124.761 Y105.686 E9.13630
G1 X134.815 Y115.740 E9.84988
G1 X135.512 Y115.740 E9.88485
G1 X124.761 Y104.989 E10.64788
G1 X124.761 Y104.292 E10.68285
G1 X136.209 Y115.740 E11.49534
G1 X136.906 Y115.740 E11.53031
G1 X124.761 Y103.595 E12.39225
G1 X124.761 Y102.899 E12.42722
G1 X137.603 Y115.740 E13.33862
G1 X138.299 Y115.740 E13.37359
G1 X124.761 Y102.202 E14.33444
G1 X124.761 Y101.505 E14.36940
G1 X138.996 Y115.740 E15.37971
G1 X139.693 Y115.740 E15.41467
G1 X124.761 Y100.808 E16.47443
G1 X124.761 Y100.111 E16.50940
G1 X140.390 Y115.740 E17.61861
G1 X141.086 Y115.740 E17.65357
G1 X124.761 Y99.415 E18.81224
G1 X124.761 Y98.718 E18.84720
G1 X141.783 Y115.740 E20.05532
G1 X142.480 Y115.740 E20.09029
G1 X124.761 Y98.021 E21.34785
G1 X124.761 Y97.324 E21.38282
G1 X143.177 Y115.740 E22.68984
G1 X143.874 Y115.740 E22.72481
G1 X124.761 Y96.628 E24.08129
G1 X124.761 Y95.931 E24.11625
G1 X144.570 Y115.740 E25.52218
G1 X145.267 Y115.740 E25.55715
G1 X124.761 Y95.234 E27.01253
G1 X124.761 Y94.537 E27.04750
G1 X145.964 Y115.740 E28.55233
G1 X146.188 Y115.740 E28.56358
G1 X146.424 Y115.504 E28.58035
G1 X124.761 Y93.840 E30.11787
G1 X124.761 Y93.144 E30.15284
G1 X146.773 Y115.155 E31.71508
G1 X147.121 Y114.807 E31.73981
G1 X124.761 Y92.447 E33.32678
G1 X124.761 Y91.750 E33.36174
G1 X147.470 Y114.459 E34.97344
G1 X147.818 Y114.110 E34.99817
G1 X124.761 Y91.053 E36.63459
G1 X124.761 Y90.357 E36.66956
G1 X147.844 Y113.440 E38.30786
G1 X147.844 Y112.743 E38.34283
G1 X124.761 Y89.660 E39.98113
G1 X124.761 Y88.963 E40.01610
G1 X147.844 Y112.046 E41.65440
G1 X147.844 Y111.349 E41.68937
G1 X124.761 Y88.266 E43.32767
G1 X124.761 Y87.569 E43.36264
G1 X147.844 Y110.653 E45.00094
G1 X147.844 Y109.956 E45.03591
G1 X124.761 Y86.873 E46.67421
G1 X124.761 Y86.176 E46.70918
G1 X147.844 Y109.259 E48.34748
G1 X147.844 Y108.562 E48.38245
G1 X124.761 Y85.479 E50.02075
G1 X124.761 Y84.782 E50.05572
G1 X147.844 Y107.866 E51.69402
G1 X147.844 Y107.169 E51.72899
G1 X124.761 Y84.085 E53.36729
G1 X124.761 Y83.389 E53.40226
G1 X147.844 Y106.472 E55.04057
G1 X147.844 Y105.775 E55.07553
G1 X124.761 Y82.692 E56.71384
G1 X124.761 Y81.995 E56.74881
G1 X147.844 Y105.078 E58.38711
G1 X147.844 Y104.382 E58.42208
G1 X124.761 Y81.298 E60.06038
G1 X124.761 Y80.602 E60.09535
G1 X147.844 Y103.685 E61.73365
G1 X147.844 Y102.988 E61.76862
G1 X124.761 Y79.905 E63.40692
G1 X124.761 Y79.208 E63.44189
G1 X147.844 Y102.291 E65.08019
G1 X147.844 Y101.595 E65.11516
G1 X124.761 Y78.511 E66.75346
G1 X124.761 Y77.814 E66.78843
G1 X147.844 Y100.898 E68.42673
G1 X147.844 Y100.201 E68.46170
G1 X124.788 Y77.144 E70.09812
G1 X125.136 Y76.796 E70.12285
G1 X147.844 Y99.504 E71.73454
G1 X147.844 Y98.807 E71.76951
G1 X125.484 Y76.447 E73.35648
G1 X125.833 Y76.099 E73.38121
G1 X147.844 Y98.111 E74.94345
G1 X147.844 Y97.414 E74.97842
G1 X126.181 Y75.751 E76.51593
G1 X126.418 Y75.514 E76.53270
G1 X126.642 Y75.514 E76.54396
G1 X147.844 Y96.717 E78.04879
G1 X147.844 Y96.020 E78.08376
G1 X127.339 Y75.514 E79.53914
G1 X128.035 Y75.514 E79.57411
G1 X147.844 Y95.323 E80.98003
G1 X147.844 Y94.627 E81.01500
G1 X128.732 Y75.514 E82.37148
G1 X129.429 Y75.514 E82.40644
G1 X147.844 Y93.930 E83.71346
G1 X147.844 Y93.233 E83.74843
G1 X130.126 Y75.514 E85.00600
G1 X130.822 Y75.514 E85.04097
G1 X147.844 Y92.536 E86.24908
G1 X147.844 Y91.840 E86.28405
G1 X131.519 Y75.514 E87.44271
G1 X132.216 Y75.514 E87.47768
G1 X147.844 Y91.143 E88.58689
G1 X147.844 Y90.446 E88.62186
G1 X132.913 Y75.514 E89.68161
G1 X133.610 Y75.514 E89.71658
G1 X147.844 Y89.749 E90.72688
G1 X147.844 Y89.052 E90.76185
G1 X134.306 Y75.514 E91.72270
G1 X135.003 Y75.514 E91.75767
G1 X147.844 Y88.356 E92.66907
G1 X147.844 Y87.659 E92.70403
G1 X135.700 Y75.514 E93.56598
G1 X136.397 Y75.514 E93.60095
G1 X147.844 Y86.962 E94.41343
G1 X147.844 Y86.265 E94.44840
G1 X137.093 Y75.514 E95.21144
G1 X137.790 Y75.514 E95.24641
G1 X147.844 Y85.569 E95.95999
G1 X147.844 Y84.872 E95.99496
G1 X138.487 Y75.514 E96.65909
G1 X139.184 Y75.514 E96.69406
G1 X147.844 Y84.175 E97.30874
G1 X147.844 Y83.478 E97.34370
G1 X139.881 Y75.514 E97.90893
G1 X140.577 Y75.514 E97.94390
G1 X147.844 Y82.781 E98.45967
G1 X147.844 Y82.085 E98.49464
G1 X141.274 Y75.514 E98.96095
G1 X141.971 Y75.514 E98.99592
G1 X147.844 Y81.388 E99.41279
G1 X147.844 Y80.691 E99.44776
G1 X142.668 Y75.514 E99.81517
G1 X143.364 Y75.514 E99.85014
G1 X147.844 Y79.994 E100.16809
G1 X147.844 Y79.297 E100.20306
G1 X144.061 Y75.514 E100.47157
G1 X144.758 Y75.514 E100.50654
G1 X147.844 Y78.601 E100.72559
G1 X147.844 Y77.904 E100.76056
G1 X145.455 Y75.514 E100.93016
G1 X146.152 Y75.514 E100.96513
G1 X148.000 Y77.362 E101.09629
G1 E97.09629
G92 E0
G1 Z0.450 F6600.000
G1 X142.789 Y106.353
G1 Z0.350
G1 E4.00000 F2400.000
G1 X140.454 Y104.018 E4.16572
G1 X140.454 Y103.321 E4.20069
G1 X143.331 Y106.197 E4.40485
G1 X144.028 Y106.197 E4.43982
G1 X140.454 Y102.624 E4.69343
G1 X140.454 Y101.927 E4.72840
G1 X144.724 Y106.197 E5.03146
G1 X145.421 Y106.197 E5.06643
G1 X140.454 Y101.230 E5.41895
G1 X140.454 Y100.534 E5.45392
G1 X146.118 Y106.197 E5.85589
G1 X146.815 Y106.197 E5.89086
G1 X140.454 Y99.837 E6.34228
G1 X140.454 Y99.140 E6.37725
G1 X147.511 Y106.197 E6.87813
G1 X148.208 Y106.197 E6.91310
G1 X140.454 Y98.443 E7.46343
G1 X140.454 Y97.747 E7.49840
G1 X148.905 Y106.197 E8.09818
G1 X149.602 Y106.197 E8.13315
G1 X140.454 Y97.050 E8.78239
G1 X140.454 Y96.353 E8.81736
G1 X150.299 Y106.197 E9.51605
G1 X150.995 Y106.197 E9.55101
G1 X140.454 Y95.656 E10.29916
G1 X140.454 Y94.959 E10.33413
G1 X151.692 Y106.197 E11.13172
G1 X152.389 Y106.197 E11.16669
G1 X140.454 Y94.263 E12.01374
G1 X140.454 Y93.566 E12.04871
G1 X153.086 Y106.197 E12.94521
G1 X153.310 Y106.197 E12.95646
G1 X153.546 Y105.961 E12.97323
G1 X140.691 Y93.105 E13.88564
G1 X141.039 Y92.757 E13.91037
G1 X153.895 Y105.613 E14.82278
G1 X154.243 Y105.264 E14.84751
G1 X141.387 Y92.409 E15.75992
G1 X141.736 Y92.060 E15.78464
G1 X154.591 Y104.916 E16.69705
G1 X154.940 Y104.567 E16.72178
G1 X142.084 Y91.712 E17.63419
G1 X142.111 Y91.685 E17.63607
G1 X142.754 Y91.685 E17.66838
G1 X154.966 Y103.897 E18.53510
G1 X154.966 Y103.200 E18.57007
G1 X143.451 Y91.685 E19.38733
G1 X144.148 Y91.685 E19.42229
G1 X154.966 Y102.504 E20.19010
G1 X154.966 Y101.807 E20.22507
G1 X144.845 Y91.685 E20.94342
G1 X145.240 Y91.685 E20.96325
G1 X145.240 Y91.384 E20.97839
G1 X154.966 Y101.110 E21.66871
G1 X154.966 Y100.413 E21.70368
G1 X145.240 Y90.687 E22.39400
G1 X145.240 Y89.990 E22.42897
G1 X154.966 Y99.716 E23.11928
G1 X154.966 Y99.020 E23.15425
G1 X145.240 Y89.293 E23.84457
G1 X145.240 Y88.597 E23.87954
G1 X154.966 Y98.323 E24.56986
G1 X154.966 Y97.626 E24.60482
G1 X145.240 Y87.900 E25.29514
G1 X145.240 Y87.203 E25.33011
G1 X155.163 Y97.126 E26.03439
G1 X155.860 Y97.126 E26.06936
G1 X145.240 Y86.506 E26.82310
G1 X145.240 Y85.809 E26.85807
G1 X156.557 Y97.126 E27.66126
G1 X157.253 Y97.126 E27.69623
G1 X145.240 Y85.113 E28.54887
G1 X145.240 Y84.416 E28.58384
G1 X157.950 Y97.126 E29.48594
G1 X158.647 Y97.126 E29.52091
G1 X145.240 Y83.719 E30.47246
G1 X145.240 Y83.614 E30.47772
G1 X145.832 Y83.614 E30.50743
G1 X159.344 Y97.126 E31.46642
G1 X160.040 Y97.126 E31.50139
G1 X146.529 Y83.614 E32.46038
G1 X147.225 Y83.614 E32.49535
G1 X160.737 Y97.126 E33.45435
G1 X161.434 Y97.126 E33.48931
G1 X147.922 Y83.614 E34.44831
G1 X148.619 Y83.614 E34.48328
G1 X162.131 Y97.126 E35.44227
G1 X162.828 Y97.126 E35.47724
G1 X149.316 Y83.614 E36.43624
G1 X150.012 Y83.614 E36.47120
G1 X163.037 Y96.639 E37.39564
G1 X163.037 Y95.942 E37.43061
G1 X150.709 Y83.614 E38.30560
G1 X151.406 Y83.614 E38.34056
G1 X163.037 Y95.246 E39.16610
G1 X163.037 Y94.549 E39.20106
G1 X152.103 Y83.614 E39.97714
G1 X152.800 Y83.614 E40.01211
G1 X163.037 Y93.852 E40.73874
G1 X163.037 Y93.155 E40.77371
G1 X153.496 Y83.614 E41.45088
G1 X154.193 Y83.614 E41.48585
G1 X163.037 Y92.459 E42.11357
G1 X163.037 Y91.762 E42.14853
G1 X154.890 Y83.614 E42.72680
G1 X155.587 Y83.614 E42.76177
G1 X163.037 Y91.065 E43.29058
G1 X163.037 Y90.368 E43.32555
G1 X156.283 Y83.614 E43.80491
G1 X156.980 Y83.614 E43.83988
G1 X163.037 Y89.671 E44.26979
G1 X163.037 Y88.975 E44.30476
G1 X157.677 Y83.614 E44.68521
G1 X158.374 Y83.614 E44.72018
G1 X163.037 Y88.278 E45.05118
G1 X163.037 Y87.581 E45.08615
G1 X159.071 Y83.614 E45.36769
G1 X159.767 Y83.614 E45.40266
G1 X163.037 Y86.884 E45.63476
G1 X163.037 Y86.188 E45.66973
G1 X160.464 Y83.614 E45.85237
G1 X161.161 Y83.614 E45.88734
G1 X163.037 Y85.491 E46.02052
G1 X163.037 Y84.794 E46.05549
G1 X161.858 Y83.614 E46.13923
G1 X162.554 Y83.614 E46.17420
G1 X163.193 Y84.252 E46.21949
G1 E42.21949
G92 E0
G1 Z0.450 F6600.000
G1 X147.248 Y112.004
G1 Z0.350
G1 E4.00000 F2400.000
G1 X144.913 Y109.669 E4.16572
G1 X144.913 Y108.972 E4.20069
G1 X147.790 Y111.849 E4.40485
G1 X148.487 Y111.849 E4.43982
G1 X144.913 Y108.276 E4.69343
G1 X144.913 Y107.579 E4.72840
G1 X149.183 Y111.849 E5.03146
G1 X149.880 Y111.849 E5.06643
G1 X144.913 Y106.882 E5.41895
G1 X144.913 Y106.185 E5.45392
G1 X150.577 Y111.849 E5.85589
G1 X151.274 Y111.849 E5.89086
G1 X144.913 Y105.489 E6.34228
G1 X144.913 Y104.792 E6.37725
G1 X151.970 Y111.849 E6.87813
G1 X152.667 Y111.849 E6.91310
G1 X144.913 Y104.095 E7.46343
G1 X144.913 Y103.398 E7.49840
G1 X153.364 Y111.849 E8.09818
G1 X154.061 Y111.849 E8.13315
G1 X144.913 Y102.701 E8.78239
G1 X144.913 Y102.005 E8.81736
G1 X154.758 Y111.849 E9.51605
G1 X155.454 Y111.849 E9.55101
G1 X144.913 Y101.308 E10.29916
G1 X144.913 Y100.611 E10.33413
G1 X156.151 Y111.849 E11.13172
G1 X156.848 Y111.849 E11.16669
G1 X144.913 Y99.914 E12.01374
G1 X144.913 Y99.217 E12.04871
G1 X157.545 Y111.849 E12.94521
G1 X157.769 Y111.849 E12.95646
G1 X158.005 Y111.613 E12.97323
G1 X145.150 Y98.757 E13.88564
G1 X145.498 Y98.409 E13.91037
G1 X158.354 Y111.264 E14.82278
G1 X158.702 Y110.916 E14.84751
G1 X145.846 Y98.060 E15.75992
G1 X146.195 Y97.712 E15.78464
G1 X159.050 Y110.568 E16.69705
G1 X159.399 Y110.219 E16.72178
G1 X146.543 Y97.363 E17.63419
G1 X146.570 Y97.337 E17.63607
G1 X147.213 Y97.337 E17.66838
G1 X159.425 Y109.549 E18.53510
G1 X159.425 Y108.852 E18.57007
G1 X147.910 Y97.337 E19.38733
G1 X148.607 Y97.337 E19.42229
G1 X159.425 Y108.155 E20.19010
G1 X159.425 Y107.458 E20.22507
G1 X149.304 Y97.337 E20.94342
G1 X149.699 Y97.337 E20.96325
G1 X149.699 Y97.035 E20.97839
G1 X159.425 Y106.762 E21.66871
G1 X159.425 Y106.065 E21.70368
G1 X149.699 Y96.338 E22.39400
G1 X149.699 Y95.642 E22.42897
G1 X159.425 Y105.368 E23.11928
G1 X159.425 Y104.671 E23.15425
G1 X149.699 Y94.945 E23.84457
G1 X149.699 Y94.248 E23.87954
G1 X159.425 Y103.975 E24.56986
G1 X159.425 Y103.278 E24.60482
G1 X149.699 Y93.551 E25.29514
G1 X149.699 Y92.855 E25.33011
G1 X159.622 Y102.778 E26.03439
G1 X160.319 Y102.778 E26.06936
G1 X149.699 Y92.158 E26.82310
G1 X149.699 Y91.461 E26.85807
G1 X161.016 Y102.778 E27.66126
G1 X161.712 Y102.778 E27.69623
G1 X149.699 Y90.764 E28.54887
G1 X149.699 Y90.067 E28.58384
G1 X162.409 Y102.778 E29.48594
G1 X163.106 Y102.778 E29.52091
G1 X149.699 Y89.371 E30.47246
G1 X149.699 Y89.266 E30.47772
G1 X150.291 Y89.266 E30.50743
G1 X163.803 Y102.778 E31.46642
G1 X164.499 Y102.778 E31.50139
G1 X150.988 Y89.266 E32.46038
G1 X151.684 Y89.266 E32.49535
G1 X165.196 Y102.778 E33.45435
G1 X165.893 Y102.778 E33.48931
G1 X152.381 Y89.266 E34.44831
G1 X153.078 Y89.266 E34.48328
G1 X166.590 Y102.778 E35.44227
G1 X167.287 Y102.778 E35.47724
G1 X153.775 Y89.266 E36.43624
G1 X154.471 Y89.266 E36.47120
G1 X167.496 Y102.291 E37.39564
G1 X167.496 Y101.594 E37.43061
G1 X155.168 Y89.266 E38.30560
G1 X155.865 Y89.266 E38.34056
G1 X167.496 Y100.897 E39.16610
G1 X167.496 Y100.201 E39.20106
G1 X156.562 Y89.266 E39.97714
G1 X157.259 Y89.266 E40.01211
G1 X167.496 Y99.504 E40.73874
G1 X167.496 Y98.807 E40.77371
G1 X157.955 Y89.266 E41.45088
G1 X158.652 Y89.266 E41.48585
