; generated by PrusaSlicer 2.3.1+win64 on 2021-07-10 at 18:44:59 UTC

; 

; external perimeters extrusion width = 0.45mm
; perimeters extrusion width = 0.45mm
; infill extrusion width = 0.45mm
; solid infill extrusion width = 0.45mm
; top infill extrusion width = 0.40mm
; support material extrusion width = 0.35mm
; first layer extrusion width = 0.42mm

M107
M190 S80 ; set bed temperature and wait for it to be reached
M104 S230 ; set temperature
;TYPE:Custom
G28 ; home all axes
G1 Z5 F5000 ; lift nozzle
M109 S230 ; set temperature and wait for it to be reached
G21 ; set units to millimeters
G90 ; use absolute coordinates
M82 ; use absolute distances for extrusion
G92 E0
; Filament gcode
;LAYER_CHANGE
;Z:0.35
;HEIGHT:0.35
G1 Z0.350 F6600.000
G1 E-4.00000 F2400.000
G92 E0
G1 Z0.450 F6600.000
G1 X107.243 Y80.913
G1 Z0.350
G1 E4.00000 F2400.000
;TYPE:Skirt
;WIDTH:0.42
G1 X109.037 Y79.130 E4.12692
G1 X109.540 Y78.822 E4.15653
G1 X110.110 Y78.671 E4.18614
G1 X130.078 Y78.658 E5.18824
G1 X151.805 Y79.694 E6.27986
G1 X152.410 Y79.876 E6.31156
G1 X152.933 Y80.237 E6.34344
G1 X153.816 Y81.156 E6.40745
G1 X154.160 Y81.934 E6.45011
G1 X156.923 Y103.635 E7.54801
G1 X156.773 Y116.203 E8.17877
G1 X156.708 Y116.684 E8.20311
G1 X156.329 Y117.606 E8.25314
G1 X155.956 Y118.107 E8.28450
G1 X142.117 Y131.498 E9.25092
G1 X141.661 Y131.821 E9.27896
G1 X141.138 Y132.006 E9.30681
G1 X135.967 Y132.204 E9.56651
G1 X134.188 Y132.033 E9.65621
G1 X133.747 Y131.927 E9.67898
G1 X109.531 Y122.769 E10.97831
G1 X108.993 Y122.410 E11.01072
G1 X107.024 Y120.440 E11.15051
G1 X106.716 Y119.995 E11.17766
G1 X106.537 Y119.485 E11.20482
G1 X106.649 Y82.970 E13.03736
G1 X106.708 Y81.962 E13.08802
G1 X106.947 Y81.307 E13.12304
G1 X107.207 Y80.961 E13.14473
G1 X107.481 Y81.167 F6600.000
G1 F2400.000
G1 X109.247 Y79.404 E13.26995
G1 X109.671 Y79.141 E13.29500
G1 X110.157 Y79.013 E13.32021
G1 X130.078 Y79.003 E14.31995
G1 X151.741 Y80.034 E15.40836
G1 X152.250 Y80.182 E15.43500
G1 X152.691 Y80.483 E15.46180
G1 X153.524 Y81.341 E15.52178
G1 X153.822 Y82.003 E15.55824
G1 X156.579 Y103.660 E16.65386
G1 X156.375 Y116.592 E17.30294
G1 X156.028 Y117.436 E17.34877
G1 X155.715 Y117.861 E17.37525
G1 X141.884 Y131.244 E18.34111
G1 X141.506 Y131.513 E18.36440
G1 X141.072 Y131.668 E18.38754
G1 X135.974 Y131.859 E18.64357
G1 X133.869 Y131.604 E18.74999
G1 X109.681 Y122.459 E20.04772
G1 X109.221 Y122.151 E20.07548
G1 X107.287 Y120.217 E20.21278
G1 X107.027 Y119.844 E20.23559
G1 X106.875 Y119.416 E20.25841
G1 X106.994 Y82.976 E22.08718
G1 X107.044 Y82.045 E22.13396
G1 X107.244 Y81.483 E22.16394
G1 X107.445 Y81.215 E22.18072
G1 X107.716 Y81.477 F6600.000
G1 F2400.000
G1 X109.461 Y79.675 E22.30660
G1 X109.809 Y79.457 E22.32722
G1 X110.204 Y79.355 E22.34770
G1 X130.077 Y79.348 E23.34506
G1 X151.684 Y80.374 E24.43066
G1 X152.096 Y80.491 E24.45214
G1 X152.453 Y80.733 E24.47376
G1 X153.234 Y81.529 E24.52973
G1 X153.483 Y82.071 E24.55968
G1 X156.235 Y103.685 E25.65317
G1 X156.042 Y116.502 E26.29646
G1 X155.726 Y117.270 E26.33815
G1 X155.473 Y117.615 E26.35962
G1 X141.650 Y130.990 E27.32492
G1 X141.348 Y131.206 E27.34356
G1 X141.001 Y131.330 E27.36205
G1 X135.978 Y131.514 E27.61429
G1 X133.991 Y131.282 E27.71472
G1 X109.830 Y122.147 E29.01103
G1 X109.453 Y121.895 E29.03379
G1 X107.546 Y119.988 E29.16912
G1 X107.213 Y119.348 E29.20534
G1 X107.339 Y82.981 E31.03045
G1 X107.381 Y82.118 E31.07381
G1 X107.543 Y81.656 E31.09840
G1 X107.674 Y81.520 E31.10788
G1 E27.10788
G92 E0
G1 Z0.450 F6600.000
G1 X108.529 Y119.070
G1 Z0.350
G1 E4.00000 F2400.000
;TYPE:Support material
G1 X110.377 Y120.918 E4.13116
G1 X111.074 Y120.918 E4.16613
G1 X108.684 Y118.529 E4.33573
G1 X108.684 Y117.832 E4.37070
G1 X111.770 Y120.918 E4.58975
G1 X112.467 Y120.918 E4.62472
G1 X108.684 Y117.135 E4.89322
G1 X108.684 Y116.438 E4.92819
G1 X113.164 Y120.918 E5.24615
G1 X113.861 Y120.918 E5.28112
G1 X108.684 Y115.742 E5.64853
G1 X108.684 Y115.045 E5.68350
G1 X114.557 Y120.918 E6.10036
G1 X115.254 Y120.918 E6.13533
G1 X108.684 Y114.348 E6.60165
G1 X108.684 Y113.651 E6.63662
G1 X115.951 Y120.918 E7.15239
G1 X116.648 Y120.918 E7.18736
G1 X108.684 Y112.955 E7.75258
G1 X108.684 Y112.258 E7.78755
G1 X117.345 Y120.918 E8.40223
G1 X118.041 Y120.918 E8.43720
G1 X108.684 Y111.561 E9.10133
G1 X108.684 Y110.864 E9.13630
G1 X118.738 Y120.918 E9.84988
G1 X119.435 Y120.918 E9.88485
G1 X108.684 Y110.167 E10.64788
G1 X108.684 Y109.471 E10.68285
G1 X120.132 Y120.918 E11.49534
G1 X120.828 Y120.918 E11.53031
G1 X108.684 Y108.774 E12.39225
G1 X108.684 Y108.077 E12.42722
G1 X121.525 Y120.918 E13.33862
G1 X122.222 Y120.918 E13.37359
G1 X108.684 Y107.380 E14.33444
G1 X108.684 Y106.684 E14.36940
G1 X122.919 Y120.918 E15.37971
G1 X123.616 Y120.918 E15.41467
G1 X108.684 Y105.987 E16.47443
G1 X108.684 Y105.290 E16.50940
G1 X124.312 Y120.918 E17.61861
G1 X125.009 Y120.918 E17.65357
G1 X108.684 Y104.593 E18.81224
G1 X108.684 Y103.896 E18.84720
G1 X125.706 Y120.918 E20.05532
G1 X126.403 Y120.918 E20.09029
G1 X108.684 Y103.200 E21.34785
G1 X108.684 Y102.503 E21.38282
G1 X127.100 Y120.918 E22.68984
G1 X127.796 Y120.918 E22.72481
G1 X108.684 Y101.806 E24.08129
G1 X108.684 Y101.109 E24.11625
G1 X128.493 Y120.918 E25.52218
G1 X129.190 Y120.918 E25.55715
G1 X108.684 Y100.412 E27.01253
G1 X108.684 Y99.716 E27.04750
G1 X129.887 Y120.918 E28.55233
G1 X130.111 Y120.918 E28.56358
G1 X130.347 Y120.682 E28.58035
G1 X108.684 Y99.019 E30.11787
G1 X108.684 Y98.322 E30.15284
G1 X130.696 Y120.334 E31.71508
G1 X131.044 Y119.985 E31.73981
G1 X108.684 Y97.625 E33.32678
G1 X108.684 Y96.929 E33.36174
G1 X131.392 Y119.637 E34.97344
G1 X131.741 Y119.289 E34.99817
G1 X108.684 Y96.232 E36.63459
G1 X108.684 Y95.535 E36.66956
G1 X131.767 Y118.618 E38.30786
G1 X131.767 Y117.922 E38.34283
G1 X108.684 Y94.838 E39.98113
G1 X108.684 Y94.141 E40.01610
G1 X131.767 Y117.225 E41.65440
G1 X131.767 Y116.528 E41.68937
G1 X108.684 Y93.445 E43.32767
G1 X108.684 Y92.748 E43.36264
G1 X131.767 Y115.831 E45.00094
G1 X131.767 Y115.134 E45.03591
G1 X108.684 Y92.051 E46.67421
G1 X108.684 Y91.354 E46.70918
G1 X131.767 Y114.438 E48.34748
G1 X131.767 Y113.741 E48.38245
G1 X108.684 Y90.658 E50.02075
G1 X108.684 Y89.961 E50.05572
G1 X131.767 Y113.044 E51.69402
G1 X131.767 Y112.347 E51.72899
G1 X108.684 Y89.264 E53.36729
G1 X108.684 Y88.567 E53.40226
G1 X131.767 Y111.650 E55.04057
G1 X131.767 Y110.954 E55.07553
G1 X108.684 Y87.870 E56.71384
G1 X108.684 Y87.174 E56.74881
G1 X131.767 Y110.257 E58.38711
G1 X131.767 Y109.560 E58.42208
G1 X108.684 Y86.477 E60.06038
G1 X108.684 Y85.780 E60.09535
G1 X131.767 Y108.863 E61.73365
G1 X131.767 Y108.167 E61.76862
G1 X108.684 Y85.083 E63.40692
G1 X108.684 Y84.386 E63.44189
G1 X131.767 Y107.470 E65.08019
G1 X131.767 Y106.773 E65.11516
G1 X108.684 Y83.690 E66.75346
G1 X108.684 Y82.993 E66.78843
G1 X131.767 Y106.076 E68.42673
G1 X131.767 Y105.379 E68.46170
G1 X108.710 Y82.323 E70.09812
G1 X109.059 Y81.974 E70.12285
G1 X131.767 Y104.683 E71.73454
G1 X131.767 Y103.986 E71.76951
G1 X109.407 Y81.626 E73.35648
G1 X109.756 Y81.277 E73.38121
G1 X131.767 Y103.289 E74.94345
G1 X131.767 Y102.592 E74.97842
G1 X110.104 Y80.929 E76.51593
G1 X110.340 Y80.693 E76.53270
G1 X110.564 Y80.693 E76.54396
G1 X131.767 Y101.896 E78.04879
G1 X131.767 Y101.199 E78.08376
G1 X111.261 Y80.693 E79.53914
G1 X111.958 Y80.693 E79.57411
G1 X131.767 Y100.502 E80.98003
G1 X131.767 Y99.805 E81.01500
G1 X112.655 Y80.693 E82.37148
G1 X113.352 Y80.693 E82.40644
G1 X131.767 Y99.108 E83.71346
G1 X131.767 Y98.412 E83.74843
G1 X114.048 Y80.693 E85.00600
G1 X114.745 Y80.693 E85.04097
G1 X131.767 Y97.715 E86.24908
G1 X131.767 Y97.018 E86.28405
G1 X115.442 Y80.693 E87.44271
G1 X116.139 Y80.693 E87.47768
G1 X131.767 Y96.321 E88.58689
G1 X131.767 Y95.624 E88.62186
G1 X116.836 Y80.693 E89.68161
G1 X117.532 Y80.693 E89.71658
G1 X131.767 Y94.928 E90.72688
G1 X131.767 Y94.231 E90.76185
G1 X118.229 Y80.693 E91.72270
G1 X118.926 Y80.693 E91.75767
G1 X131.767 Y93.534 E92.66907
G1 X131.767 Y92.837 E92.70403
G1 X119.623 Y80.693 E93.56598
G1 X120.319 Y80.693 E93.60095
G1 X131.767 Y92.141 E94.41343
G1 X131.767 Y91.444 E94.44840
G1 X121.016 Y80.693 E95.21144
G1 X121.713 Y80.693 E95.24641
G1 X131.767 Y90.747 E95.95999
G1 X131.767 Y90.050 E95.99496
G1 X122.410 Y80.693 E96.65909
G1 X123.107 Y80.693 E96.69406
G1 X131.767 Y89.353 E97.30874
G1 X131.767 Y88.657 E97.34370
G1 X123.803 Y80.693 E97.90893
G1 X124.500 Y80.693 E97.94390
G1 X131.767 Y87.960 E98.45967
G1 X131.767 Y87.263 E98.49464
G1 X125.197 Y80.693 E98.96095
G1 X125.894 Y80.693 E98.99592
G1 X131.767 Y86.566 E99.41279
G1 X131.767 Y85.870 E99.44776
G1 X126.590 Y80.693 E99.81517
G1 X127.287 Y80.693 E99.85014
G1 X131.767 Y85.173 E100.16809
G1 X131.767 Y84.476 E100.20306
G1 X127.984 Y80.693 E100.47157
G1 X128.681 Y80.693 E100.50654
G1 X131.767 Y83.779 E100.72559
G1 X131.767 Y83.082 E100.76056
G1 X129.378 Y80.693 E100.93016
G1 X130.074 Y80.693 E100.96513
G1 X131.922 Y82.541 E101.09629
G1 E97.09629
G92 E0
G1 Z0.450 F6600.000
G1 X131.764 Y104.449
G1 Z0.350
G1 E4.00000 F2400.000
G1 X129.429 Y102.114 E4.16572
G1 X129.429 Y101.417 E4.20069
G1 X132.306 Y104.294 E4.40485
G1 X133.002 Y104.294 E4.43982
G1 X129.429 Y100.720 E4.69343
G1 X129.429 Y100.023 E4.72840
G1 X133.699 Y104.294 E5.03146
G1 X134.396 Y104.294 E5.06643
G1 X129.429 Y99.327 E5.41895
G1 X129.429 Y98.630 E5.45392
G1 X135.093 Y104.294 E5.85589
G1 X135.790 Y104.294 E5.89086
G1 X129.429 Y97.933 E6.34228
G1 X129.429 Y97.236 E6.37725
G1 X136.486 Y104.294 E6.87813
G1 X137.183 Y104.294 E6.91310
G1 X129.429 Y96.540 E7.46343
G1 X129.429 Y95.843 E7.49840
G1 X137.880 Y104.294 E8.09818
G1 X138.577 Y104.294 E8.13315
G1 X129.429 Y95.146 E8.78239
G1 X129.429 Y94.449 E8.81736
G1 X139.274 Y104.294 E9.51605
G1 X139.970 Y104.294 E9.55101
G1 X129.429 Y93.752 E10.29916
G1 X129.429 Y93.056 E10.33413
G1 X140.667 Y104.294 E11.13172
G1 X141.364 Y104.294 E11.16669
G1 X129.429 Y92.359 E12.01374
G1 X129.429 Y91.662 E12.04871
G1 X142.061 Y104.294 E12.94521
G1 X142.285 Y104.294 E12.95646
G1 X142.521 Y104.057 E12.97323
G1 X129.665 Y91.202 E13.88564
G1 X130.014 Y90.853 E13.91037
G1 X142.869 Y103.709 E14.82278
G1 X143.218 Y103.360 E14.84751
G1 X130.362 Y90.505 E15.75992
G1 X130.711 Y90.156 E15.78464
G1 X143.566 Y103.012 E16.69705
G1 X143.915 Y102.664 E16.72178
G1 X131.059 Y89.808 E17.63419
G1 X131.086 Y89.782 E17.63607
G1 X131.729 Y89.782 E17.66838
G1 X143.941 Y101.993 E18.53510
G1 X143.941 Y101.297 E18.57007
G1 X132.426 Y89.782 E19.38733
G1 X133.123 Y89.782 E19.42229
G1 X143.941 Y100.600 E20.19010
G1 X143.941 Y99.903 E20.22507
G1 X133.820 Y89.782 E20.94342
G1 X134.215 Y89.782 E20.96325
G1 X134.215 Y89.480 E20.97839
G1 X143.941 Y99.206 E21.66871
G1 X143.941 Y98.509 E21.70368
G1 X134.215 Y88.783 E22.39400
G1 X134.215 Y88.086 E22.42897
G1 X143.941 Y97.813 E23.11928
G1 X143.941 Y97.116 E23.15425
G1 X134.215 Y87.389 E23.84457
G1 X134.215 Y86.693 E23.87954
G1 X143.941 Y96.419 E24.56986
G1 X143.941 Y95.722 E24.60482
G1 X134.215 Y85.996 E25.29514
G1 X134.215 Y85.299 E25.33011
G1 X144.138 Y95.222 E26.03439
G1 X144.835 Y95.222 E26.06936
G1 X134.215 Y84.602 E26.82310
G1 X134.215 Y83.906 E26.85807
G1 X145.531 Y95.222 E27.66126
G1 X146.228 Y95.222 E27.69623
G1 X134.215 Y83.209 E28.54887
G1 X134.215 Y82.512 E28.58384
G1 X146.925 Y95.222 E29.48594
G1 X147.622 Y95.222 E29.52091
G1 X134.215 Y81.815 E30.47246
G1 X134.215 Y81.710 E30.47772
G1 X134.807 Y81.710 E30.50743
G1 X148.319 Y95.222 E31.46642
G1 X149.015 Y95.222 E31.50139
G1 X135.503 Y81.710 E32.46038
G1 X136.200 Y81.710 E32.49535
G1 X149.712 Y95.222 E33.45435
G1 X150.409 Y95.222 E33.48931
G1 X136.897 Y81.710 E34.44831
G1 X137.594 Y81.710 E34.48328
G1 X151.106 Y95.222 E35.44227
G1 X151.803 Y95.222 E35.47724
G1 X138.291 Y81.710 E36.43624
G1 X138.987 Y81.710 E36.47120
G1 X152.012 Y94.735 E37.39564
G1 X152.012 Y94.039 E37.43061
G1 X139.684 Y81.710 E38.30560
G1 X140.381 Y81.710 E38.34056
G1 X152.012 Y93.342 E39.16610
G1 X152.012 Y92.645 E39.20106
G1 X141.078 Y81.710 E39.97714
G1 X141.774 Y81.710 E40.01211
G1 X152.012 Y91.948 E40.73874
G1 X152.012 Y91.252 E40.77371
G1 X142.471 Y81.710 E41.45088
G1 X143.168 Y81.710 E41.48585
G1 X152.012 Y90.555 E42.11357
G1 X152.012 Y89.858 E42.14853
G1 X143.865 Y81.710 E42.72680
G1 X144.562 Y81.710 E42.76177
G1 X152.012 Y89.161 E43.29058
G1 X152.012 Y88.464 E43.32555
G1 X145.258 Y81.710 E43.80491
G1 X145.955 Y81.710 E43.83988
G1 X152.012 Y87.768 E44.26979
G1 X152.012 Y87.071 E44.30476
G1 X146.652 Y81.710 E44.68521
G1 X147.349 Y81.710 E44.72018
G1 X152.012 Y86.374 E45.05118
G1 X152.012 Y85.677 E45.08615
G1 X148.045 Y81.710 E45.36769
G1 X148.742 Y81.710 E45.40266
G1 X152.012 Y84.980 E45.63476
G1 X152.012 Y84.284 E45.66973
G1 X149.439 Y81.710 E45.85237
G1 X150.136 Y81.710 E45.88734
G1 X152.012 Y83.587 E46.02052
G1 X152.012 Y82.890 E46.05549
G1 X150.833 Y81.710 E46.13923
G1 X151.529 Y81.710 E46.17420
G1 X152.168 Y82.349 E46.21949
G1 E42.21949
G92 E0
G1 Z0.450 F6600.000
G1 X154.894 Y103.783
G1 Z0.350
G1 E4.00000 F2400.000
G1 X154.256 Y103.145 E4.04530
G1 X153.559 Y103.145 E4.08027
G1 X154.739 Y104.325 E4.16400
G1 X154.739 Y105.022 E4.19897
G1 X152.862 Y103.145 E4.33216
G1 X152.165 Y103.145 E4.36713
G1 X154.739 Y105.719 E4.54977
G1 X154.739 Y106.415 E4.58474
G1 X151.468 Y103.145 E4.81683
G1 X150.772 Y103.145 E4.85180
G1 X154.739 Y107.112 E5.13335
G1 X154.739 Y107.809 E5.16832
G1 X150.075 Y103.145 E5.49932
G1 X149.378 Y103.145 E5.53429
G1 X154.739 Y108.506 E5.91474
G1 X154.739 Y109.203 E5.94971
G1 X148.681 Y103.145 E6.37961
G1 X147.985 Y103.145 E6.41458
G1 X154.739 Y109.899 E6.89394
G1 X154.739 Y110.596 E6.92891
G1 X147.288 Y103.145 E7.45772
G1 X146.591 Y103.145 E7.49269
G1 X154.739 Y111.293 E8.07096
G1 X154.739 Y111.990 E8.10593
G1 X145.894 Y103.145 E8.73365
G1 X145.197 Y103.145 E8.76862
G1 X154.739 Y112.686 E9.44579
G1 X154.739 Y113.383 E9.48076
G1 X144.501 Y103.145 E10.20738
G1 X143.804 Y103.145 E10.24235
G1 X154.739 Y114.080 E11.01843
G1 X154.739 Y114.777 E11.05340
G1 X143.107 Y103.145 E11.87893
G1 X142.410 Y103.145 E11.91390
G1 X154.739 Y115.474 E12.78888
G1 X154.739 Y116.170 E12.82385
G1 X141.714 Y103.145 E13.74829
G1 X141.017 Y103.145 E13.78326
G1 X154.529 Y116.657 E14.74225
G1 X153.832 Y116.657 E14.77722
G1 X140.320 Y103.145 E15.73622
G1 X139.623 Y103.145 E15.77119
G1 X153.135 Y116.657 E16.73018
G1 X152.438 Y116.657 E16.76515
G1 X138.926 Y103.145 E17.72414
G1 X138.230 Y103.145 E17.75911
G1 X151.742 Y116.657 E18.71811
G1 X151.045 Y116.657 E18.75307
G1 X137.533 Y103.145 E19.71207
G1 X136.941 Y103.145 E19.74177
G1 X136.941 Y103.250 E19.74704
G1 X150.348 Y116.657 E20.69859
G1 X149.651 Y116.657 E20.73356
G1 X136.941 Y103.947 E21.63565
G1 X136.941 Y104.644 E21.67062
G1 X148.955 Y116.657 E22.52327
G1 X148.258 Y116.657 E22.55823
G1 X136.941 Y105.340 E23.36142
G1 X136.941 Y106.037 E23.39639
G1 X147.561 Y116.657 E24.15013
G1 X146.864 Y116.657 E24.18510
G1 X136.941 Y106.734 E24.88938
G1 X136.941 Y107.431 E24.92435
G1 X146.667 Y117.157 E25.61467
G1 X146.667 Y117.854 E25.64964
G1 X136.941 Y108.128 E26.33996
G1 X136.941 Y108.824 E26.37493
G1 X146.667 Y118.551 E27.06524
G1 X146.667 Y119.248 E27.10021
G1 X136.941 Y109.521 E27.79053
G1 X136.941 Y110.218 E27.82550
G1 X146.667 Y119.944 E28.51581
G1 X146.667 Y120.641 E28.55078
G1 X136.941 Y110.915 E29.24110
G1 X136.941 Y111.217 E29.25624
G1 X136.546 Y111.217 E29.27607
G1 X146.667 Y121.338 E29.99442
G1 X146.667 Y122.035 E30.02939
G1 X135.849 Y111.217 E30.79720
G1 X135.152 Y111.217 E30.83217
G1 X146.667 Y122.732 E31.64943
G1 X146.667 Y123.428 E31.68440
G1 X134.456 Y111.217 E32.55111
G1 X133.759 Y111.217 E32.58608
G1 X146.641 Y124.099 E33.50037
G1 X146.293 Y124.447 E33.52509
G1 X133.062 Y111.217 E34.46411
G1 X132.365 Y111.217 E34.49908
G1 X145.944 Y124.795 E35.46282
G1 X145.596 Y125.144 E35.48754
G1 X131.669 Y111.217 E36.47601
G1 X130.972 Y111.217 E36.51098
G1 X145.247 Y125.492 E37.52417
G1 X145.011 Y125.728 E37.54095
G1 X144.787 Y125.728 E37.55220
G1 X130.275 Y111.217 E38.58216
G1 X129.578 Y111.217 E38.61713
G1 X144.090 Y125.728 E39.64709
G1 X143.393 Y125.728 E39.68206
G1 X129.204 Y111.539 E40.68915
G1 X128.855 Y111.887 E40.71388
