; generated by PrusaSlicer 2.3.1+win64 on 2021-07-03 at 12:38:38 UTC

; 

; external perimeters extrusion width = 0.45mm
; perimeters extrusion width = 0.45mm
; infill extrusion width = 0.45mm
; solid infill extrusion width = 0.45mm
; top infill extrusion width = 0.40mm
; support material extrusion width = 0.35mm
; first layer extrusion width = 0.42mm

M107
M190 S80 ; set bed temperature and wait for it to be reached
M104 S230 ; set temperature
;TYPE:Custom
G28 ; home all axes
G1 Z5 F5000 ; lift nozzle
M109 S230 ; set temperature and wait for it to be reached
G21 ; set units to millimeters
G90 ; use absolute coordinates
M82 ; use absolute distances for extrusion
G92 E0
; Filament gcode
;LAYER_CHANGE
;Z:0.35
;HEIGHT:0.35
G1 Z0.350 F6600.000
G1 E-4.00000 F2400.000
G92 E0
G1 Z0.450 F6600.000
G1 X120.292 Y65.380
G1 Z0.350
G1 E4.00000 F2400.000
;TYPE:Skirt
;WIDTH:0.42
G1 X122.209 Y63.487 E4.13521
G1 X122.745 Y63.232 E4.16499
G1 X123.328 Y63.142 E4.19460
G1 X168.585 Y63.142 E6.46587
G1 X169.351 Y63.293 E6.50506
G1 X170.007 Y63.724 E6.54443
G1 X172.246 Y65.986 E6.70416
G1 X172.552 Y66.539 E6.73586
G1 X172.673 Y67.155 E6.76739
G1 X172.511 Y95.127 E8.17122
G1 X172.358 Y95.744 E8.20310
G1 X171.875 Y96.632 E8.25386
G1 X169.962 Y98.520 E8.38872
G1 X169.427 Y98.775 E8.41851
G1 X168.844 Y98.865 E8.44811
G1 X123.484 Y98.863 E10.72451
G1 X122.860 Y98.730 E10.75656
G1 X122.307 Y98.410 E10.78862
G1 X119.843 Y95.907 E10.96486
G1 X119.588 Y95.372 E10.99465
G1 X119.498 Y94.785 E11.02443
G1 X119.658 Y66.908 E12.42349
G1 X119.808 Y66.276 E12.45606
G1 X120.264 Y65.433 E12.50417
G1 X120.566 Y65.597 F6600.000
G1 F2400.000
G1 X122.407 Y63.770 E12.63433
G1 X122.849 Y63.561 E12.65890
G1 X123.333 Y63.487 E12.68347
G1 X168.585 Y63.487 E14.95446
G1 X169.223 Y63.613 E14.98714
G1 X169.767 Y63.972 E15.01981
G1 X171.959 Y66.178 E15.17588
G1 X172.224 Y66.649 E15.20300
G1 X172.328 Y67.176 E15.22996
G1 X172.168 Y95.088 E16.63080
G1 X172.038 Y95.616 E16.65808
G1 X171.592 Y96.435 E16.70487
G1 X169.765 Y98.237 E16.83367
G1 X169.322 Y98.447 E16.85825
G1 X168.838 Y98.521 E16.88282
G1 X123.503 Y98.518 E19.15799
G1 X122.975 Y98.405 E19.18512
G1 X122.510 Y98.130 E19.21224
G1 X120.124 Y95.707 E19.38288
G1 X119.915 Y95.264 E19.40745
G1 X119.842 Y94.780 E19.43202
G1 X120.002 Y66.935 E20.82948
G1 X120.132 Y66.397 E20.85723
G1 X120.537 Y65.650 E20.89992
G1 X120.839 Y65.813 F6600.000
G1 F2400.000
G1 X120.861 Y65.772 E20.90228
G1 X122.606 Y64.052 E21.02524
G1 X122.955 Y63.889 E21.04458
G1 X123.339 Y63.831 E21.06407
G1 X168.584 Y63.831 E23.33476
G1 X169.093 Y63.932 E23.36076
G1 X169.527 Y64.220 E23.38691
G1 X171.677 Y66.379 E23.53981
G1 X171.898 Y66.761 E23.56200
G1 X171.984 Y67.195 E23.58418
G1 X171.825 Y95.055 E24.98239
G1 X171.716 Y95.490 E25.00486
G1 X171.309 Y96.237 E25.04759
G1 X169.566 Y97.955 E25.17041
G1 X169.217 Y98.118 E25.18976
G1 X168.833 Y98.176 E25.20924
G1 X123.524 Y98.174 E27.48309
G1 X123.095 Y98.081 E27.50513
G1 X122.716 Y97.853 E27.52732
G1 X120.408 Y95.511 E27.69236
G1 X120.244 Y95.159 E27.71184
G1 X120.187 Y94.775 E27.73133
G1 X120.346 Y66.963 E29.12710
G1 X120.453 Y66.523 E29.14985
G1 X120.810 Y65.866 E29.18736
G1 E25.18736
G92 E0
G1 Z0.450 F6600.000
G1 X170.639 Y67.234
G1 Z0.350
G1 E4.00000 F2400.000
;TYPE:Support material
G1 X168.582 Y65.176 E4.14606
G1 X167.885 Y65.176 E4.18103
G1 X170.484 Y67.776 E4.36552
G1 X170.484 Y68.473 E4.40049
G1 X167.188 Y65.176 E4.63444
G1 X166.491 Y65.176 E4.66941
G1 X170.484 Y69.169 E4.95281
G1 X170.484 Y69.866 E4.98778
G1 X165.794 Y65.176 E5.32063
G1 X165.098 Y65.176 E5.35560
G1 X170.484 Y70.563 E5.73791
G1 X170.484 Y71.260 E5.77288
G1 X164.401 Y65.176 E6.20464
G1 X163.704 Y65.176 E6.23961
G1 X170.484 Y71.957 E6.72083
G1 X170.484 Y72.653 E6.75579
G1 X163.007 Y65.176 E7.28646
G1 X162.311 Y65.176 E7.32143
G1 X170.484 Y73.350 E7.90155
G1 X170.484 Y74.047 E7.93652
G1 X161.614 Y65.176 E8.56609
G1 X160.917 Y65.176 E8.60106
G1 X170.484 Y74.744 E9.28009
G1 X170.484 Y75.440 E9.31506
G1 X160.220 Y65.176 E10.04354
G1 X159.523 Y65.176 E10.07851
G1 X170.484 Y76.137 E10.85644
G1 X170.484 Y76.834 E10.89141
G1 X158.827 Y65.176 E11.71879
G1 X158.130 Y65.176 E11.75376
G1 X170.484 Y77.531 E12.63060
G1 X170.484 Y78.228 E12.66557
G1 X157.433 Y65.176 E13.59186
G1 X156.736 Y65.176 E13.62683
G1 X170.484 Y78.924 E14.60258
G1 X170.484 Y79.621 E14.63755
G1 X156.040 Y65.176 E15.66274
G1 X155.343 Y65.176 E15.69771
G1 X170.484 Y80.318 E16.77236
G1 X170.484 Y81.015 E16.80733
G1 X154.646 Y65.176 E17.93144
G1 X153.949 Y65.176 E17.96641
G1 X170.484 Y81.712 E19.13996
G1 X170.484 Y82.408 E19.17493
G1 X153.252 Y65.176 E20.39794
G1 X152.556 Y65.176 E20.43291
G1 X170.484 Y83.105 E21.70538
G1 X170.484 Y83.802 E21.74035
G1 X151.859 Y65.176 E23.06226
G1 X151.162 Y65.176 E23.09723
G1 X170.484 Y84.499 E24.46860
G1 X170.484 Y85.195 E24.50357
G1 X150.465 Y65.176 E25.92439
G1 X149.768 Y65.176 E25.95936
G1 X170.484 Y85.892 E27.42964
G1 X170.484 Y86.589 E27.46461
G1 X149.072 Y65.176 E28.98434
G1 X148.375 Y65.176 E29.01931
G1 X170.484 Y87.286 E30.58849
G1 X170.484 Y87.983 E30.62346
G1 X147.678 Y65.176 E32.24209
G1 X146.981 Y65.176 E32.27706
G1 X170.484 Y88.679 E33.94515
G1 X170.484 Y89.376 E33.98012
G1 X146.285 Y65.176 E35.69766
G1 X145.588 Y65.176 E35.73263
G1 X170.484 Y90.073 E37.49962
G1 X170.484 Y90.770 E37.53459
G1 X144.891 Y65.176 E39.35104
G1 X144.194 Y65.176 E39.38601
G1 X170.484 Y91.466 E41.25191
G1 X170.484 Y92.163 E41.28688
G1 X143.497 Y65.176 E43.20223
G1 X142.801 Y65.176 E43.23720
G1 X170.484 Y92.860 E45.20201
G1 X170.484 Y93.557 E45.23698
G1 X142.104 Y65.176 E47.25124
G1 X141.407 Y65.176 E47.28621
G1 X170.484 Y94.254 E49.34992
G1 X170.484 Y94.950 E49.38489
G1 X140.710 Y65.176 E51.49806
G1 X140.014 Y65.176 E51.53303
G1 X170.248 Y95.411 E53.67887
G1 X169.900 Y95.759 E53.70360
G1 X139.317 Y65.176 E55.87417
G1 X138.620 Y65.176 E55.90914
G1 X169.551 Y96.108 E58.10443
G1 X169.203 Y96.456 E58.12916
G1 X137.923 Y65.176 E60.34919
G1 X137.226 Y65.176 E60.38415
G1 X168.854 Y96.804 E62.62890
G1 X168.828 Y96.831 E62.63078
G1 X168.184 Y96.831 E62.66310
G1 X136.530 Y65.176 E64.90972
G1 X135.833 Y65.176 E64.94469
G1 X167.487 Y96.831 E67.19132
G1 X166.790 Y96.831 E67.22629
G1 X135.136 Y65.176 E69.47291
G1 X134.439 Y65.176 E69.50788
G1 X166.094 Y96.831 E71.75451
G1 X165.397 Y96.831 E71.78948
G1 X133.743 Y65.176 E74.03610
G1 X133.046 Y65.176 E74.07107
G1 X164.700 Y96.831 E76.31770
G1 X164.003 Y96.831 E76.35266
G1 X132.349 Y65.176 E78.59929
G1 X131.652 Y65.176 E78.63426
G1 X163.307 Y96.831 E80.88089
G1 X162.610 Y96.831 E80.91585
G1 X130.955 Y65.176 E83.16248
G1 X130.259 Y65.176 E83.19745
G1 X161.913 Y96.831 E85.44407
G1 X161.216 Y96.831 E85.47904
G1 X129.562 Y65.176 E87.72567
G1 X128.865 Y65.176 E87.76064
G1 X160.519 Y96.831 E90.00726
G1 X159.823 Y96.831 E90.04223
G1 X128.168 Y65.176 E92.28886
G1 X127.472 Y65.176 E92.32383
G1 X159.126 Y96.831 E94.57045
G1 X158.429 Y96.831 E94.60542
G1 X126.775 Y65.176 E96.85205
G1 X126.078 Y65.176 E96.88702
G1 X157.732 Y96.831 E99.13364
G1 X157.036 Y96.831 E99.16861
G1 X125.381 Y65.176 E101.41524
G1 X124.684 Y65.176 E101.45021
G1 X156.339 Y96.831 E103.69683
G1 X155.642 Y96.831 E103.73180
G1 X123.988 Y65.176 E105.97843
G1 X123.344 Y65.176 E106.01074
G1 X123.317 Y65.203 E106.01262
G1 X154.945 Y96.831 E108.25737
G1 X154.248 Y96.831 E108.29234
G1 X122.969 Y65.551 E110.51236
G1 X122.620 Y65.900 E110.53709
G1 X153.552 Y96.831 E112.73239
G1 X152.855 Y96.831 E112.76736
G1 X122.272 Y66.248 E114.93793
G1 X121.924 Y66.596 E114.96265
G1 X152.158 Y96.831 E117.10850
G1 X151.461 Y96.831 E117.14347
G1 X121.687 Y67.057 E119.25663
G1 X121.687 Y67.754 E119.29160
G1 X150.764 Y96.831 E121.35532
G1 X150.068 Y96.831 E121.39028
G1 X121.687 Y68.450 E123.40454
G1 X121.687 Y69.147 E123.43951
G1 X149.371 Y96.831 E125.40432
G1 X148.674 Y96.831 E125.43929
G1 X121.687 Y69.844 E127.35464
G1 X121.687 Y70.541 E127.38961
G1 X147.977 Y96.831 E129.25551
G1 X147.281 Y96.831 E129.29048
G1 X121.687 Y71.237 E131.10693
G1 X121.687 Y71.934 E131.14190
G1 X146.584 Y96.831 E132.90889
G1 X145.887 Y96.831 E132.94386
G1 X121.687 Y72.631 E134.66140
G1 X121.687 Y73.328 E134.69637
G1 X145.190 Y96.831 E136.36446
G1 X144.493 Y96.831 E136.39943
G1 X121.687 Y74.025 E138.01807
G1 X121.687 Y74.721 E138.05303
G1 X143.797 Y96.831 E139.62222
G1 X143.100 Y96.831 E139.65719
G1 X121.687 Y75.418 E141.17692
G1 X121.687 Y76.115 E141.21188
G1 X142.403 Y96.831 E142.68216
G1 X141.706 Y96.831 E142.71713
G1 X121.687 Y76.812 E144.13795
G1 X121.687 Y77.508 E144.17292
G1 X141.010 Y96.831 E145.54429
G1 X140.313 Y96.831 E145.57926
G1 X121.687 Y78.205 E146.90118
G1 X121.687 Y78.902 E146.93615
G1 X139.616 Y96.831 E148.20861
G1 X138.919 Y96.831 E148.24358
G1 X121.687 Y79.599 E149.46659
G1 X121.687 Y80.296 E149.50156
G1 X138.222 Y96.831 E150.67512
G1 X137.526 Y96.831 E150.71008
G1 X121.687 Y80.992 E151.83419
G1 X121.687 Y81.689 E151.86916
G1 X136.829 Y96.831 E152.94381
G1 X136.132 Y96.831 E152.97878
G1 X121.687 Y82.386 E154.00398
G1 X121.687 Y83.083 E154.03895
G1 X135.435 Y96.831 E155.01469
G1 X134.739 Y96.831 E155.04966
G1 X121.687 Y83.780 E155.97595
G1 X121.687 Y84.476 E156.01092
G1 X134.042 Y96.831 E156.88776
G1 X133.345 Y96.831 E156.92273
G1 X121.687 Y85.173 E157.75012
G1 X121.687 Y85.870 E157.78508
G1 X132.648 Y96.831 E158.56302
G1 X131.951 Y96.831 E158.59799
G1 X121.687 Y86.567 E159.32647
G1 X121.687 Y87.263 E159.36143
G1 X131.255 Y96.831 E160.04046
G1 X130.558 Y96.831 E160.07543
G1 X121.687 Y87.960 E160.70500
G1 X121.687 Y88.657 E160.73997
G1 X129.861 Y96.831 E161.32009
G1 X129.164 Y96.831 E161.35506
G1 X121.687 Y89.354 E161.88573
G1 X121.687 Y90.051 E161.92070
G1 X128.468 Y96.831 E162.40191
G1 X127.771 Y96.831 E162.43688
G1 X121.687 Y90.747 E162.86864
G1 X121.687 Y91.444 E162.90361
G1 X127.074 Y96.831 E163.28592
G1 X126.377 Y96.831 E163.32089
G1 X121.687 Y92.141 E163.65374
G1 X121.687 Y92.838 E163.68871
G1 X125.680 Y96.831 E163.97211
G1 X124.984 Y96.831 E164.00708
G1 X121.687 Y93.535 E164.24103
G1 X121.687 Y94.231 E164.27600
G1 X124.287 Y96.831 E164.46050
G1 X123.590 Y96.831 E164.49546
G1 X121.532 Y94.773 E164.64152
;LAYER_CHANGE
;Z:0.65
;HEIGHT:0.3
G1 Z0.650 F6600.000
M104 S200 ; set temperature
M140 S60 ; set bed temperature
G1 X120.107 Y96.176
;TYPE:Skirt
G1 F3600.000
G1 X119.843 Y95.907 E164.65823
G1 X119.588 Y95.372 E164.68455
G1 X119.498 Y94.785 E164.71087
G1 X119.658 Y66.908 E165.94737
G1 X119.808 Y66.276 E165.97617
G1 X120.292 Y65.380 E166.02134
G1 X122.209 Y63.487 E166.14084
G1 X122.745 Y63.232 E166.16716
G1 X123.328 Y63.142 E166.19333
G1 X168.585 Y63.142 E168.20070
G1 X169.351 Y63.293 E168.23534
G1 X170.007 Y63.724 E168.27014
G1 X172.246 Y65.986 E168.41131
G1 X172.552 Y66.539 E168.43933
G1 X172.673 Y67.155 E168.46719
G1 X172.511 Y95.127 E169.70791
G1 X172.358 Y95.744 E169.73609
G1 X171.875 Y96.632 E169.78095
G1 X169.962 Y98.520 E169.90014
G1 X169.427 Y98.775 E169.92646
G1 X168.844 Y98.865 E169.95263
G1 X123.484 Y98.863 E171.96453
G1 X122.860 Y98.730 E171.99286
G1 X122.307 Y98.410 E172.02119
G1 X120.149 Y96.218 E172.15759
G1 X120.392 Y95.979 F6600.000
G1 F3600.000
G1 X120.124 Y95.707 E172.17454
G1 X119.915 Y95.264 E172.19626
G1 X119.842 Y94.780 E172.21797
G1 X120.002 Y66.935 E173.45306
G1 X120.132 Y66.397 E173.47759
G1 X120.578 Y65.575 E173.51909
G1 X122.407 Y63.770 E173.63306
G1 X122.849 Y63.561 E173.65478
G1 X123.333 Y63.487 E173.67650
G1 X168.585 Y63.487 E175.68362
G1 X169.223 Y63.613 E175.71250
G1 X169.767 Y63.972 E175.74137
G1 X171.959 Y66.178 E175.87931
G1 X172.224 Y66.649 E175.90328
G1 X172.328 Y67.176 E175.92711
G1 X172.168 Y95.088 E177.16519
G1 X172.038 Y95.616 E177.18930
G1 X171.592 Y96.435 E177.23065
G1 X169.765 Y98.237 E177.34449
G1 X169.322 Y98.447 E177.36620
G1 X168.838 Y98.521 E177.38792
G1 X123.503 Y98.518 E179.39874
G1 X122.975 Y98.405 E179.42271
G1 X122.510 Y98.130 E179.44668
G1 X120.434 Y96.022 E179.57789
G1 X120.676 Y95.783 F6600.000
G1 F3600.000
G1 X120.408 Y95.511 E179.59486
G1 X120.244 Y95.159 E179.61209
G1 X120.187 Y94.775 E179.62931
G1 X120.346 Y66.963 E180.86290
G1 X120.453 Y66.523 E180.88301
G1 X120.861 Y65.772 E180.92090
G1 X122.606 Y64.052 E181.02958
G1 X122.955 Y63.889 E181.04667
G1 X123.339 Y63.831 E181.06390
G1 X168.584 Y63.831 E183.07075
G1 X169.093 Y63.932 E183.09374
G1 X169.527 Y64.220 E183.11685
G1 X171.677 Y66.379 E183.25198
G1 X171.898 Y66.761 E183.27159
G1 X171.984 Y67.195 E183.29120
G1 X171.825 Y95.055 E184.52695
G1 X171.716 Y95.490 E184.54681
G1 X171.309 Y96.237 E184.58458
G1 X169.566 Y97.955 E184.69313
G1 X169.217 Y98.118 E184.71022
G1 X168.833 Y98.176 E184.72744
G1 X123.524 Y98.174 E186.73709
G1 X123.095 Y98.081 E186.75658
G1 X122.716 Y97.853 E186.77619
G1 X120.719 Y95.826 E186.90241
G1 E182.90241 F2400.000
G92 E0
G1 Z0.750 F6600.000
G1 X166.656 Y93.989
G1 Z0.650
G1 E4.00000 F2400.000
;TYPE:Support material interface
;WIDTH:0.35
G1 F3600.000
G1 X166.656 Y68.147 E4.92061
G1 X165.370 Y68.147 E4.96640
G1 X165.370 Y93.860 E5.88243
G1 X164.084 Y93.860 E5.92823
G1 X164.084 Y68.147 E6.84426
G1 X162.799 Y68.147 E6.89006
G1 X162.799 Y93.860 E7.80608
G1 X161.513 Y93.860 E7.85188
G1 X161.513 Y68.147 E8.76791
G1 X160.228 Y68.147 E8.81371
G1 X160.228 Y93.860 E9.72974
G1 X158.942 Y93.860 E9.77554
G1 X158.942 Y68.147 E10.69156
G1 X157.656 Y68.147 E10.73736
G1 X157.656 Y93.860 E11.65339
G1 X156.371 Y93.860 E11.69919
G1 X156.371 Y68.147 E12.61521
G1 X155.085 Y68.147 E12.66101
G1 X155.085 Y93.860 E13.57704
G1 X153.800 Y93.860 E13.62284
G1 X153.800 Y68.147 E14.53887
G1 X152.514 Y68.147 E14.58467
G1 X152.514 Y93.860 E15.50069
G1 X151.228 Y93.860 E15.54649
G1 X151.228 Y68.147 E16.46252
G1 X149.943 Y68.147 E16.50832
G1 X149.943 Y93.860 E17.42435
G1 X148.657 Y93.860 E17.47014
G1 X148.657 Y68.147 E18.38617
G1 X147.371 Y68.147 E18.43197
G1 X147.371 Y93.860 E19.34800
G1 X146.086 Y93.860 E19.39380
G1 X146.086 Y68.147 E20.30982
G1 X144.800 Y68.147 E20.35562
G1 X144.800 Y93.860 E21.27165
G1 X143.515 Y93.860 E21.31745
G1 X143.515 Y68.147 E22.23348
G1 X142.229 Y68.147 E22.27928
G1 X142.229 Y93.860 E23.19530
G1 X140.943 Y93.860 E23.24110
G1 X140.943 Y68.147 E24.15713
G1 X139.658 Y68.147 E24.20293
G1 X139.658 Y93.860 E25.11895
G1 X138.372 Y93.860 E25.16475
G1 X138.372 Y68.147 E26.08078
G1 X137.086 Y68.147 E26.12658
G1 X137.086 Y93.860 E27.04261
G1 X135.801 Y93.860 E27.08841
G1 X135.801 Y68.147 E28.00443
G1 X134.515 Y68.147 E28.05023
G1 X134.515 Y93.860 E28.96626
G1 X133.230 Y93.860 E29.01206
G1 X133.230 Y68.147 E29.92809
G1 X131.944 Y68.147 E29.97388
G1 X131.944 Y93.860 E30.88991
G1 X130.658 Y93.860 E30.93571
G1 X130.658 Y68.147 E31.85174
G1 X129.373 Y68.147 E31.89754
G1 X129.373 Y93.860 E32.81356
G1 X128.087 Y93.860 E32.85936
G1 X128.087 Y68.147 E33.77539
G1 X126.802 Y68.147 E33.82119
G1 X126.802 Y93.860 E34.73722
G1 X125.516 Y93.860 E34.78301
G1 X125.516 Y68.018 E35.70362
;LAYER_CHANGE
;Z:0.932353
;HEIGHT:0.282353
G1 Z0.932 F6600.000
G1 E31.70362 F2400.000
G92 E0
G1 Z1.032 F6600.000
G1 X126.556 Y76.718
G1 Z0.932
G1 E4.00000 F2400.000
;TYPE:Support material
G1 F2997
G1 X124.948 Y76.718 E4.05461
G1 X124.948 Y81.004 E4.20020
G1 X126.427 Y81.004 E4.25044
G1 X126.427 Y85.289 E4.39604
G1 X124.820 Y85.289 E4.45064
G1 X126.686 Y89.543 F6600.000
G1 F2997
G1 X124.690 Y89.543 E4.51845
G1 X124.690 Y72.464 E5.09865
G1 X126.686 Y72.464 E5.16646
G1 X126.686 Y89.543 E5.74665
G1 E1.74665 F2400.000
G92 E0
G1 Z1.032 F6600.000
G1 X154.625 Y93.828
G1 Z0.932
G1 E4.00000 F2400.000
G1 F2997
G1 X154.625 Y91.404 E4.08237
G1 X137.547 Y91.404 E4.66257
G1 X137.547 Y93.828 E4.74494
G1 X154.625 Y93.828 E5.32514
G1 E1.32514 F2400.000
G92 E0
G1 Z1.032 F6600.000
G1 X167.482 Y89.543
G1 Z0.932
G1 E4.00000 F2400.000
G1 F2997
G1 X167.482 Y76.750 E4.43460
G1 X165.486 Y76.750 E4.50241
G1 X165.486 Y89.543 E4.93701
G1 X167.482 Y89.543 E5.00482
G1 X167.352 Y85.289 F6600.000
G1 F2997
G1 X165.744 Y85.289 E5.05942
G1 X165.744 Y81.004 E5.20502
G1 X167.352 Y81.004 E5.25962
G1 E1.25962 F2400.000
G92 E0
G1 Z1.032 F6600.000
G1 X154.625 Y70.604
G1 Z0.932
G1 E4.00000 F2400.000
G1 F2997
G1 X133.261 Y70.604 E4.72579
G1 X133.261 Y68.179 E4.80817
G1 X154.625 Y68.179 E5.53396
G1 X154.625 Y70.604 E5.61633
M106 S252.45
