; generated by PrusaSlicer 2.3.3+win64 on 2021-08-14 at 13:01:31 UTC

; 

; external perimeters extrusion width = 0.45mm
; perimeters extrusion width = 0.45mm
; infill extrusion width = 0.45mm
; solid infill extrusion width = 0.45mm
; top infill extrusion width = 0.40mm
; support material extrusion width = 0.35mm
; first layer extrusion width = 0.42mm

M107
M190 S80 ; set bed temperature and wait for it to be reached
M104 S230 ; set temperature
;TYPE:Custom
G28 ; home all axes
G1 Z5 F5000 ; lift nozzle
M109 S230 ; set temperature and wait for it to be reached
G21 ; set units to millimeters
G90 ; use absolute coordinates
M82 ; use absolute distances for extrusion
G92 E0
; Filament gcode
;LAYER_CHANGE
;Z:0.35
;HEIGHT:0.35
G1 Z0.350 F6600.000
G1 E-4.00000 F2400.000
G92 E0
G1 Z0.450 F6600.000
G1 X115.733 Y76.606
G1 Z0.350
G1 E4.00000 F2400.000
;TYPE:Skirt
;WIDTH:0.42
G1 X116.046 Y76.278 E4.02277
G1 X131.973 Y63.049 E5.06182
G1 X132.769 Y62.648 E5.10656
G1 X133.222 Y62.588 E5.12950
G1 X160.998 Y62.125 E6.52366
G1 X173.597 Y62.125 E7.15592
G1 X174.234 Y62.228 E7.18832
G1 X174.807 Y62.526 E7.22072
G1 X192.214 Y75.982 E8.32487
G1 X200.150 Y83.044 E8.85802
G1 X202.711 Y85.611 E9.03999
G1 X202.985 Y86.007 E9.06416
G1 X203.158 Y86.456 E9.08834
G1 X203.220 Y86.945 E9.11303
G1 X203.281 Y108.432 E10.19138
G1 X203.081 Y121.238 E10.83415
G1 X202.767 Y121.968 E10.87404
G1 X192.501 Y136.584 E11.77040
G1 X192.073 Y137.000 E11.80036
G1 X191.546 Y137.273 E11.83014
G1 X159.322 Y148.107 E13.53632
G1 X158.691 Y148.211 E13.56837
G1 X146.101 Y148.211 E14.20021
G1 X145.589 Y148.142 E14.22614
G1 X116.994 Y137.249 E15.76185
G1 X116.488 Y136.966 E15.79093
G1 X115.700 Y136.202 E15.84604
G1 X115.412 Y135.802 E15.87074
G1 X106.888 Y120.018 E16.77103
G1 X106.717 Y119.571 E16.79503
G1 X106.655 Y119.097 E16.81903
G1 X106.855 Y106.262 E17.46325
G1 X115.400 Y77.258 E18.98068
G1 X115.705 Y76.659 E19.01443
G1 X116.008 Y76.814 F6600.000
G1 F2400.000
G1 X132.190 Y63.317 E20.07192
G1 X132.853 Y62.983 E20.10917
G1 X161.003 Y62.470 E21.52218
G1 X173.596 Y62.470 E22.15417
G1 X174.127 Y62.556 E22.18113
G1 X174.606 Y62.807 E22.20825
G1 X191.994 Y76.247 E23.31118
G1 X199.906 Y83.289 E23.84277
G1 X202.445 Y85.830 E24.02302
G1 X202.824 Y86.543 E24.06356
G1 X202.936 Y108.432 E25.16208
G1 X202.744 Y121.166 E25.80125
G1 X202.481 Y121.775 E25.83456
G1 X192.225 Y136.377 E26.73004
G1 X191.871 Y136.720 E26.75478
G1 X191.431 Y136.948 E26.77967
G1 X159.215 Y147.779 E28.48535
G1 X158.688 Y147.866 E28.51215
G1 X146.106 Y147.866 E29.14363
G1 X145.677 Y147.809 E29.16533
G1 X117.117 Y136.927 E30.69917
G1 X116.692 Y136.689 E30.72358
G1 X115.957 Y135.972 E30.77510
G1 X115.715 Y135.638 E30.79584
G1 X107.195 Y119.861 E31.69565
G1 X107.000 Y119.090 E31.73557
G1 X107.192 Y106.333 E32.37588
G1 X115.731 Y77.356 E33.89192
G1 X115.981 Y76.867 E33.91950
G1 X116.283 Y77.022 F6600.000
G1 F2400.000
G1 X132.407 Y63.584 E34.97285
G1 X132.937 Y63.317 E35.00265
G1 X161.009 Y62.815 E36.41165
G1 X173.596 Y62.815 E37.04337
G1 X174.021 Y62.885 E37.06499
G1 X174.402 Y63.085 E37.08661
G1 X191.776 Y76.515 E38.18864
G1 X199.667 Y83.536 E38.71872
G1 X202.180 Y86.051 E38.89718
G1 X202.491 Y86.632 E38.93020
G1 X202.591 Y108.432 E40.02426
G1 X202.407 Y121.095 E40.65985
G1 X202.196 Y121.581 E40.68642
G1 X191.949 Y136.170 E41.58117
G1 X191.665 Y136.444 E41.60094
G1 X191.317 Y136.622 E41.62057
G1 X159.106 Y147.452 E43.32604
G1 X158.684 Y147.521 E43.34752
G1 X145.766 Y147.476 E43.99578
G1 X117.240 Y136.604 E45.52783
G1 X116.901 Y136.414 E45.54732
G1 X116.017 Y135.471 E45.61222
G1 X107.501 Y119.702 E46.51165
G1 X107.345 Y119.085 E46.54355
G1 X107.529 Y106.407 E47.17988
G1 X116.061 Y77.457 E48.69454
G1 X116.256 Y77.075 E48.71607
G1 E44.71607
G92 E0
G1 Z0.450 F6600.000
G1 X201.247 Y108.427
G1 Z0.350
G1 E4.00000 F2400.000
;TYPE:Support material
G1 X198.804 Y105.984 E4.17338
G1 X198.107 Y105.984 E4.20835
G1 X201.091 Y108.968 E4.42017
G1 X201.091 Y109.665 E4.45514
G1 X197.410 Y105.984 E4.71642
G1 X196.713 Y105.984 E4.75138
G1 X201.091 Y110.362 E5.06211
G1 X201.091 Y111.059 E5.09708
G1 X196.017 Y105.984 E5.45726
G1 X195.320 Y105.984 E5.49223
G1 X201.091 Y111.755 E5.90186
G1 X201.091 Y112.452 E5.93683
G1 X194.623 Y105.984 E6.39592
G1 X193.926 Y105.984 E6.43089
G1 X201.091 Y113.149 E6.93943
G1 X201.091 Y113.846 E6.97439
G1 X193.229 Y105.984 E7.53239
G1 X192.533 Y105.984 E7.56735
G1 X201.091 Y114.543 E8.17480
G1 X201.091 Y115.239 E8.20977
G1 X191.836 Y105.984 E8.86667
G1 X191.139 Y105.984 E8.90164
G1 X201.091 Y115.936 E9.60799
G1 X201.091 Y116.633 E9.64296
G1 X190.442 Y105.984 E10.39876
G1 X189.745 Y105.984 E10.43373
G1 X201.091 Y117.330 E11.23899
G1 X201.091 Y118.027 E11.27396
G1 X189.049 Y105.984 E12.12867
G1 X188.352 Y105.984 E12.16364
G1 X201.091 Y118.723 E13.06780
G1 X201.091 Y119.420 E13.10277
G1 X187.655 Y105.984 E14.05639
G1 X186.958 Y105.984 E14.09136
G1 X201.091 Y120.117 E15.09443
G1 X201.091 Y120.814 E15.12940
G1 X186.262 Y105.984 E16.18192
G1 X185.565 Y105.984 E16.21689
G1 X200.756 Y121.175 E17.29505
G1 X200.407 Y121.523 E17.31978
G1 X184.868 Y105.984 E18.42267
G1 X184.171 Y105.984 E18.45764
G1 X200.059 Y121.872 E19.58526
G1 X199.711 Y122.220 E19.60999
G1 X183.474 Y105.984 E20.76233
G1 X182.778 Y105.984 E20.79730
G1 X199.290 Y122.496 E21.96921
G1 X198.593 Y122.496 E22.00418
G1 X182.081 Y105.984 E23.17610
G1 X181.384 Y105.984 E23.21106
G1 X197.896 Y122.496 E24.38298
G1 X197.199 Y122.496 E24.41794
G1 X180.687 Y105.984 E25.58986
G1 X179.991 Y105.984 E25.62483
G1 X196.502 Y122.496 E26.79674
G1 X195.806 Y122.496 E26.83171
G1 X179.294 Y105.984 E28.00362
G1 X178.597 Y105.984 E28.03859
G1 X195.109 Y122.496 E29.21050
G1 X194.412 Y122.496 E29.24547
G1 X177.900 Y105.984 E30.41738
G1 X177.203 Y105.984 E30.45235
G1 X193.715 Y122.496 E31.62426
G1 X193.019 Y122.496 E31.65923
G1 X176.507 Y105.984 E32.83114
G1 X175.810 Y105.984 E32.86611
G1 X192.322 Y122.496 E34.03802
G1 X191.625 Y122.496 E34.07299
G1 X175.389 Y106.260 E35.22534
G1 X175.040 Y106.608 E35.25006
G1 X190.928 Y122.496 E36.37768
G1 X190.231 Y122.496 E36.41265
G1 X174.692 Y106.956 E37.51554
G1 X174.344 Y107.305 E37.54027
G1 X189.535 Y122.496 E38.61844
G1 X188.838 Y122.496 E38.65340
G1 X174.008 Y107.666 E39.70593
G1 X174.008 Y108.363 E39.74090
G1 X188.141 Y122.496 E40.74397
G1 X187.444 Y122.496 E40.77894
G1 X174.008 Y109.060 E41.73255
G1 X174.008 Y109.756 E41.76752
G1 X186.748 Y122.496 E42.67169
G1 X186.051 Y122.496 E42.70665
G1 X174.008 Y110.453 E43.56137
G1 X174.008 Y111.150 E43.59633
G1 X185.354 Y122.496 E44.40159
G1 X184.657 Y122.496 E44.43656
G1 X174.008 Y111.847 E45.19237
G1 X174.008 Y112.543 E45.22734
G1 X183.960 Y122.496 E45.93369
G1 X183.264 Y122.496 E45.96866
G1 X174.008 Y113.240 E46.62555
G1 X174.008 Y113.937 E46.66052
G1 X182.567 Y122.496 E47.26797
G1 X181.870 Y122.496 E47.30294
G1 X174.008 Y114.634 E47.86093
G1 X174.008 Y115.331 E47.89590
G1 X181.173 Y122.496 E48.40444
G1 X180.477 Y122.496 E48.43941
G1 X174.008 Y116.027 E48.89849
G1 X174.008 Y116.724 E48.93346
G1 X179.780 Y122.496 E49.34310
G1 X179.083 Y122.496 E49.37806
G1 X174.008 Y117.421 E49.73824
G1 X174.008 Y118.118 E49.77321
G1 X178.386 Y122.496 E50.08394
G1 X177.689 Y122.496 E50.11891
G1 X174.008 Y118.815 E50.38018
G1 X174.008 Y119.511 E50.41515
G1 X176.993 Y122.496 E50.62697
G1 X176.296 Y122.496 E50.66194
G1 X173.853 Y120.053 E50.83532
G1 E46.83532
G92 E0
G1 Z0.450 F6600.000
G1 X201.186 Y86.957
G1 Z0.350
G1 E4.00000 F2400.000
G1 X198.743 Y84.514 E4.17338
G1 X198.046 Y84.514 E4.20835
G1 X201.031 Y87.498 E4.42017
G1 X201.031 Y88.195 E4.45514
G1 X197.349 Y84.514 E4.71642
G1 X196.653 Y84.514 E4.75138
G1 X201.031 Y88.892 E5.06211
G1 X201.031 Y89.589 E5.09708
G1 X195.956 Y84.514 E5.45726
G1 X195.259 Y84.514 E5.49223
G1 X201.031 Y90.286 E5.90186
G1 X201.031 Y90.982 E5.93683
G1 X194.562 Y84.514 E6.39592
G1 X193.865 Y84.514 E6.43089
G1 X201.031 Y91.679 E6.93943
G1 X201.031 Y92.376 E6.97439
G1 X193.169 Y84.514 E7.53239
G1 X192.472 Y84.514 E7.56735
G1 X201.031 Y93.073 E8.17480
G1 X201.031 Y93.769 E8.20977
G1 X191.775 Y84.514 E8.86667
G1 X191.078 Y84.514 E8.90164
G1 X201.031 Y94.466 E9.60799
G1 X201.031 Y95.163 E9.64296
G1 X190.381 Y84.514 E10.39876
G1 X189.685 Y84.514 E10.43373
G1 X201.031 Y95.860 E11.23899
G1 X201.031 Y96.557 E11.27396
G1 X188.988 Y84.514 E12.12867
G1 X188.291 Y84.514 E12.16364
G1 X201.031 Y97.253 E13.06780
G1 X201.031 Y97.950 E13.10277
G1 X187.594 Y84.514 E14.05639
G1 X186.898 Y84.514 E14.09136
G1 X201.031 Y98.647 E15.09443
G1 X201.031 Y99.344 E15.12940
G1 X186.201 Y84.514 E16.18192
G1 X185.504 Y84.514 E16.21689
G1 X200.695 Y99.705 E17.29505
G1 X200.347 Y100.053 E17.31978
G1 X184.807 Y84.514 E18.42267
G1 X184.110 Y84.514 E18.45764
G1 X199.998 Y100.402 E19.58526
G1 X199.650 Y100.750 E19.60999
G1 X183.414 Y84.514 E20.76233
G1 X182.717 Y84.514 E20.79730
G1 X199.229 Y101.026 E21.96921
G1 X198.532 Y101.026 E22.00418
G1 X182.020 Y84.514 E23.17610
G1 X181.323 Y84.514 E23.21106
G1 X197.835 Y101.026 E24.38298
G1 X197.138 Y101.026 E24.41794
G1 X180.627 Y84.514 E25.58986
G1 X179.930 Y84.514 E25.62483
G1 X196.442 Y101.026 E26.79674
G1 X195.745 Y101.026 E26.83171
G1 X179.233 Y84.514 E28.00362
G1 X178.536 Y84.514 E28.03859
G1 X195.048 Y101.026 E29.21050
G1 X194.351 Y101.026 E29.24547
G1 X177.839 Y84.514 E30.41738
G1 X177.143 Y84.514 E30.45235
G1 X193.655 Y101.026 E31.62426
G1 X192.958 Y101.026 E31.65923
G1 X176.446 Y84.514 E32.83114
G1 X175.749 Y84.514 E32.86611
G1 X192.261 Y101.026 E34.03802
G1 X191.564 Y101.026 E34.07299
G1 X175.328 Y84.790 E35.22534
G1 X174.980 Y85.138 E35.25006
G1 X190.867 Y101.026 E36.37768
G1 X190.171 Y101.026 E36.41265
G1 X174.631 Y85.486 E37.51554
G1 X174.283 Y85.835 E37.54027
G1 X189.474 Y101.026 E38.61844
G1 X188.777 Y101.026 E38.65340
G1 X173.947 Y86.196 E39.70593
G1 X173.947 Y86.893 E39.74090
G1 X188.080 Y101.026 E40.74397
G1 X187.384 Y101.026 E40.77894
G1 X173.947 Y87.590 E41.73255
G1 X173.947 Y88.286 E41.76752
G1 X186.687 Y101.026 E42.67169
G1 X185.990 Y101.026 E42.70665
G1 X173.947 Y88.983 E43.56137
G1 X173.947 Y89.680 E43.59633
G1 X185.293 Y101.026 E44.40159
G1 X184.596 Y101.026 E44.43656
G1 X173.947 Y90.377 E45.19237
G1 X173.947 Y91.074 E45.22734
G1 X183.900 Y101.026 E45.93369
G1 X183.203 Y101.026 E45.96866
G1 X173.947 Y91.770 E46.62555
G1 X173.947 Y92.467 E46.66052
G1 X182.506 Y101.026 E47.26797
G1 X181.809 Y101.026 E47.30294
G1 X173.947 Y93.164 E47.86093
G1 X173.947 Y93.861 E47.89590
G1 X181.113 Y101.026 E48.40444
G1 X180.416 Y101.026 E48.43941
G1 X173.947 Y94.557 E48.89849
G1 X173.947 Y95.254 E48.93346
G1 X179.719 Y101.026 E49.34310
G1 X179.022 Y101.026 E49.37806
G1 X173.947 Y95.951 E49.73824
G1 X173.947 Y96.648 E49.77321
G1 X178.325 Y101.026 E50.08394
G1 X177.629 Y101.026 E50.11891
G1 X173.947 Y97.345 E50.38018
G1 X173.947 Y98.041 E50.41515
G1 X176.932 Y101.026 E50.62697
G1 X176.235 Y101.026 E50.66194
G1 X173.792 Y98.583 E50.83532
G1 E46.83532
G92 E0
G1 Z0.450 F6600.000
G1 X176.036 Y66.602
G1 Z0.350
G1 E4.00000 F2400.000
G1 X173.593 Y64.160 E4.17338
G1 X172.896 Y64.160 E4.20835
G1 X175.881 Y67.144 E4.42017
G1 X175.881 Y67.841 E4.45514
G1 X172.200 Y64.160 E4.71641
G1 X171.503 Y64.160 E4.75138
G1 X175.881 Y68.538 E5.06211
G1 X175.881 Y69.234 E5.09707
G1 X170.806 Y64.160 E5.45725
G1 X170.109 Y64.160 E5.49222
G1 X175.881 Y69.931 E5.90185
G1 X175.881 Y70.628 E5.93682
G1 X169.412 Y64.160 E6.39591
G1 X168.716 Y64.160 E6.43088
G1 X175.881 Y71.325 E6.93941
G1 X175.881 Y72.022 E6.97438
G1 X168.019 Y64.160 E7.53237
G1 X167.322 Y64.160 E7.56734
G1 X175.881 Y72.718 E8.17479
G1 X175.881 Y73.415 E8.20975
G1 X166.625 Y64.160 E8.86665
G1 X165.929 Y64.160 E8.90162
G1 X175.881 Y74.112 E9.60797
G1 X175.881 Y74.809 E9.64294
G1 X165.232 Y64.160 E10.39874
G1 X164.535 Y64.160 E10.43371
G1 X175.881 Y75.505 E11.23897
G1 X175.881 Y76.202 E11.27394
G1 X163.838 Y64.160 E12.12865
G1 X163.141 Y64.160 E12.16362
G1 X175.881 Y76.899 E13.06778
G1 X175.881 Y77.596 E13.10275
G1 X162.445 Y64.160 E14.05636
G1 X161.748 Y64.160 E14.09133
G1 X175.881 Y78.293 E15.09440
G1 X175.881 Y78.989 E15.12937
G1 X161.051 Y64.160 E16.18189
G1 X161.025 Y64.160 E16.18319
G1 X160.690 Y64.495 E16.20700
G1 X175.881 Y79.686 E17.28517
G1 X175.881 Y80.383 E17.32013
G1 X160.341 Y64.843 E18.42303
G1 X159.993 Y65.192 E18.44776
G1 X175.881 Y81.080 E19.57538
G1 X175.881 Y81.777 E19.61035
G1 X159.645 Y65.540 E20.76269
G1 X159.369 Y65.816 E20.78226
G1 X159.369 Y65.961 E20.78956
G1 X175.881 Y82.473 E21.96147
G1 X175.881 Y83.170 E21.99644
G1 X159.369 Y66.658 E23.16836
G1 X159.369 Y67.355 E23.20333
G1 X175.881 Y83.867 E24.37524
G1 X175.881 Y84.564 E24.41021
G1 X159.369 Y68.052 E25.58213
G1 X159.369 Y68.748 E25.61710
G1 X175.881 Y85.260 E26.78901
G1 X175.881 Y85.957 E26.82398
G1 X159.369 Y69.445 E27.99590
G1 X159.369 Y70.142 E28.03087
G1 X175.881 Y86.654 E29.20278
G1 X175.881 Y87.351 E29.23775
G1 X159.369 Y70.839 E30.40967
G1 X159.369 Y71.536 E30.44464
G1 X175.881 Y88.048 E31.61656
G1 X175.881 Y88.744 E31.65152
G1 X159.369 Y72.232 E32.82344
G1 X159.369 Y72.929 E32.85841
G1 X175.881 Y89.441 E34.03033
G1 X175.881 Y89.586 E34.03762
G1 X175.605 Y89.862 E34.05719
G1 X159.369 Y73.626 E35.20954
G1 X159.369 Y74.323 E35.24450
G1 X175.257 Y90.211 E36.37213
G1 X174.908 Y90.559 E36.39685
G1 X159.369 Y75.019 E37.49975
G1 X159.369 Y75.716 E37.53472
G1 X174.560 Y90.907 E38.61288
G1 X174.225 Y91.243 E38.63669
G1 X174.199 Y91.243 E38.63799
G1 X159.369 Y76.413 E39.69051
G1 X159.369 Y77.110 E39.72548
G1 X173.502 Y91.243 E40.72855
G1 X172.805 Y91.243 E40.76352
G1 X159.369 Y77.807 E41.71713
G1 X159.369 Y78.503 E41.75210
G1 X172.108 Y91.243 E42.65627
G1 X171.412 Y91.243 E42.69123
G1 X159.369 Y79.200 E43.54594
G1 X159.369 Y79.897 E43.58091
G1 X170.715 Y91.243 E44.38617
G1 X170.018 Y91.243 E44.42114
G1 X159.369 Y80.594 E45.17694
G1 X159.369 Y81.290 E45.21191
G1 X169.321 Y91.243 E45.91826
G1 X168.624 Y91.243 E45.95323
G1 X159.369 Y81.987 E46.61013
G1 X159.369 Y82.684 E46.64510
G1 X167.928 Y91.243 E47.25254
G1 X167.231 Y91.243 E47.28751
G1 X159.369 Y83.381 E47.84550
G1 X159.369 Y84.078 E47.88047
G1 X166.534 Y91.243 E48.38901
G1 X165.837 Y91.243 E48.42397
G1 X159.369 Y84.774 E48.88306
G1 X159.369 Y85.471 E48.91803
G1 X165.140 Y91.243 E49.32766
G1 X164.444 Y91.243 E49.36263
G1 X159.369 Y86.168 E49.72281
G1 X159.369 Y86.865 E49.75778
G1 X163.747 Y91.243 E50.06850
G1 X163.050 Y91.243 E50.10347
G1 X159.369 Y87.562 E50.36474
G1 X159.369 Y88.258 E50.39971
G1 X162.353 Y91.243 E50.61153
G1 X161.657 Y91.243 E50.64650
G1 X159.214 Y88.800 E50.81988
G1 E46.81988
G92 E0
G1 Z0.450 F6600.000
G1 X131.450 Y89.263
G1 Z0.350
G1 E4.00000 F2400.000
G1 X133.893 Y91.706 E4.17338
G1 X134.590 Y91.706 E4.20835
G1 X131.606 Y88.721 E4.42017
G1 X131.606 Y88.025 E4.45514
G1 X135.287 Y91.706 E4.71641
G1 X135.984 Y91.706 E4.75138
G1 X131.606 Y87.328 E5.06210
G1 X131.606 Y86.631 E5.09707
G1 X136.680 Y91.706 E5.45725
G1 X137.377 Y91.706 E5.49222
G1 X131.606 Y85.934 E5.90185
G1 X131.606 Y85.237 E5.93682
G1 X138.074 Y91.706 E6.39591
G1 X138.771 Y91.706 E6.43087
G1 X131.606 Y84.541 E6.93941
G1 X131.606 Y83.844 E6.97438
G1 X139.467 Y91.706 E7.53237
G1 X140.164 Y91.706 E7.56734
G1 X131.606 Y83.147 E8.17479
G1 X131.606 Y82.450 E8.20975
G1 X140.861 Y91.706 E8.86665
G1 X141.558 Y91.706 E8.90162
G1 X131.606 Y81.754 E9.60797
G1 X131.606 Y81.057 E9.64294
G1 X142.255 Y91.706 E10.39874
G1 X142.951 Y91.706 E10.43371
G1 X131.606 Y80.360 E11.23897
G1 X131.606 Y79.663 E11.27394
G1 X143.648 Y91.706 E12.12865
G1 X144.345 Y91.706 E12.16362
G1 X131.606 Y78.966 E13.06778
G1 X131.606 Y78.270 E13.10275
G1 X145.042 Y91.706 E14.05636
G1 X145.739 Y91.706 E14.09133
G1 X131.606 Y77.573 E15.09440
G1 X131.606 Y76.876 E15.12937
G1 X146.435 Y91.706 E16.18189
G1 X146.461 Y91.706 E16.18319
G1 X146.797 Y91.370 E16.20700
G1 X131.606 Y76.179 E17.28517
G1 X131.606 Y75.482 E17.32013
G1 X147.145 Y91.022 E18.42303
G1 X147.493 Y90.674 E18.44776
G1 X131.606 Y74.786 E19.57538
G1 X131.606 Y74.089 E19.61034
G1 X147.842 Y90.325 E20.76269
G1 X148.118 Y90.049 E20.78226
G1 X148.118 Y89.904 E20.78956
G1 X131.606 Y73.392 E21.96147
G1 X131.606 Y72.695 E21.99644
G1 X148.118 Y89.207 E23.16836
G1 X148.118 Y88.511 E23.20333
