; generated by PrusaSlicer 2.3.1+win64 on 2021-06-02 at 02:44:52 UTC

; 

; external perimeters extrusion width = 0.45mm
; perimeters extrusion width = 0.45mm
; infill extrusion width = 0.45mm
; solid infill extrusion width = 0.45mm
; top infill extrusion width = 0.40mm
; support material extrusion width = 0.35mm
; first layer extrusion width = 0.42mm

M107
M190 S80 ; set bed temperature and wait for it to be reached
M104 S230 ; set temperature
;TYPE:Custom
G28 ; home all axes
G1 Z5 F5000 ; lift nozzle
M109 S230 ; set temperature and wait for it to be reached
G21 ; set units to millimeters
G90 ; use absolute coordinates
M82 ; use absolute distances for extrusion
G92 E0
; Filament gcode
;LAYER_CHANGE
;Z:0.35
;HEIGHT:0.35
G1 Z0.350 F6600.000
G1 E-4.00000 F2400.000
G92 E0
G1 Z0.450 F6600.000
G1 X95.203 Y91.880
G1 Z0.350
G1 E4.00000 F2400.000
;TYPE:Skirt
;WIDTH:0.42
G1 F3000.000
G1 X96.586 Y90.699 E4.09125
G1 X98.049 Y89.796 E4.17752
G1 X99.964 Y89.002 E4.28158
G1 X101.640 Y88.605 E4.36800
G1 X103.452 Y88.462 E4.45926
G1 X193.466 Y88.462 E8.97669
G1 X195.303 Y88.608 E9.06918
G1 X197.192 Y89.077 E9.16684
G1 X198.886 Y89.801 E9.25929
G1 X200.333 Y90.694 E9.34464
G1 X201.636 Y91.800 E9.43042
G1 X202.914 Y93.272 E9.52824
G1 X203.877 Y94.841 E9.62062
G1 X204.582 Y96.545 E9.71316
G1 X205.020 Y98.408 E9.80922
G1 X205.153 Y100.131 E9.89597
G1 X205.152 Y110.200 E10.40127
G1 X205.008 Y111.986 E10.49118
G1 X204.568 Y113.803 E10.58501
G1 X203.881 Y115.455 E10.67481
G1 X202.992 Y116.915 E10.76059
G1 X201.721 Y118.426 E10.85970
G1 X200.340 Y119.605 E10.95079
G1 X198.878 Y120.508 E11.03705
G1 X196.962 Y121.302 E11.14112
G1 X195.286 Y121.698 E11.22754
G1 X193.474 Y121.841 E11.31880
G1 X103.341 Y121.837 E15.84218
G1 X101.626 Y121.696 E15.92855
G1 X99.843 Y121.267 E16.02061
G1 X98.154 Y120.566 E16.11235
G1 X96.577 Y119.598 E16.20521
G1 X95.196 Y118.416 E16.29646
G1 X93.999 Y117.013 E16.38900
G1 X93.042 Y115.448 E16.48106
G1 X92.313 Y113.651 E16.57840
G1 X91.917 Y111.978 E16.66466
G1 X91.775 Y110.220 E16.75318
G1 X91.773 Y100.149 E17.25864
G1 X91.917 Y98.324 E17.35048
G1 X92.338 Y96.562 E17.44142
G1 X93.111 Y94.731 E17.54116
G1 X94.011 Y93.274 E17.62710
G1 X95.164 Y91.925 E17.71615
G1 X95.425 Y92.148 F6600.000
G1 F3000.000
G1 X96.712 Y91.039 E17.80140
G1 X98.399 Y90.003 E17.90074
G1 X99.958 Y89.362 E17.98534
G1 X101.599 Y88.964 E18.07009
G1 X103.461 Y88.807 E18.16386
G1 X193.466 Y88.807 E22.68086
G1 X195.247 Y88.948 E22.77051
G1 X197.068 Y89.399 E22.86467
G1 X198.614 Y90.044 E22.94873
G1 X200.049 Y90.918 E23.03305
G1 X201.481 Y92.126 E23.12710
G1 X202.645 Y93.488 E23.21702
G1 X203.614 Y95.093 E23.31107
G1 X204.253 Y96.646 E23.39539
G1 X204.648 Y98.273 E23.47942
G1 X204.806 Y100.075 E23.57017
G1 X204.808 Y110.166 E24.07660
G1 X204.681 Y111.822 E24.15993
G1 X204.256 Y113.647 E24.25399
G1 X203.601 Y115.240 E24.34046
G1 X202.579 Y116.899 E24.43823
G1 X201.483 Y118.176 E24.52269
G1 X200.138 Y119.325 E24.61146
G1 X198.522 Y120.302 E24.70623
G1 X196.968 Y120.941 E24.79054
G1 X195.327 Y121.340 E24.87529
G1 X193.463 Y121.497 E24.96918
G1 X103.460 Y121.497 E29.48606
G1 X101.776 Y121.368 E29.57083
G1 X99.962 Y120.943 E29.66431
G1 X98.317 Y120.263 E29.75365
G1 X96.794 Y119.330 E29.84328
G1 X95.449 Y118.182 E29.93205
G1 X94.285 Y116.820 E30.02196
G1 X93.357 Y115.307 E30.11102
G1 X92.675 Y113.663 E30.20036
G1 X92.275 Y112.016 E30.28540
G1 X92.118 Y110.169 E30.37845
G1 X92.119 Y100.114 E30.88302
G1 X92.259 Y98.368 E30.97095
G1 X92.706 Y96.557 E31.06457
G1 X93.356 Y94.998 E31.14932
G1 X94.285 Y93.483 E31.23852
G1 X95.386 Y92.194 E31.32361
G1 X94.585 Y91.230 F6600.000
G1 F3000.000
G1 X96.134 Y89.919 E31.42546
G1 X97.773 Y88.925 E31.52168
G1 X99.570 Y88.183 E31.61923
G1 X101.461 Y87.726 E31.71685
G1 X103.414 Y87.565 E31.81522
G1 X193.526 Y87.566 E36.33757
G1 X195.522 Y87.735 E36.43808
G1 X197.461 Y88.217 E36.53839
G1 X199.177 Y88.937 E36.63177
G1 X200.769 Y89.903 E36.72522
G1 X202.312 Y91.205 E36.82653
G1 X203.628 Y92.730 E36.92761
G1 X204.678 Y94.439 E37.02827
G1 X205.424 Y96.234 E37.12585
G1 X205.889 Y98.148 E37.22471
G1 X206.047 Y100.046 E37.32028
G1 X206.047 Y110.257 E37.83273
G1 X205.880 Y112.208 E37.93101
G1 X205.416 Y114.095 E38.02854
G1 X204.677 Y115.867 E38.12490
G1 X203.627 Y117.575 E38.22549
G1 X202.323 Y119.091 E38.32586
G1 X200.860 Y120.335 E38.42223
G1 X199.149 Y121.380 E38.52282
G1 X197.299 Y122.139 E38.62318
G1 X195.435 Y122.583 E38.71938
G1 X193.511 Y122.738 E38.81620
G1 X103.375 Y122.737 E43.33981
G1 X101.496 Y122.583 E43.43441
G1 X99.577 Y122.123 E43.53344
G1 X97.752 Y121.368 E43.63256
G1 X96.068 Y120.336 E43.73168
G1 X94.566 Y119.054 E43.83080
G1 X93.283 Y117.552 E43.92991
G1 X92.250 Y115.869 E44.02903
G1 X91.494 Y114.044 E44.12815
G1 X91.037 Y112.151 E44.22591
G1 X90.876 Y110.200 E44.32413
G1 X90.878 Y100.061 E44.83296
G1 X91.041 Y98.126 E44.93042
G1 X91.494 Y96.260 E45.02679
G1 X92.224 Y94.486 E45.12308
G1 X93.232 Y92.821 E45.22073
G1 X94.546 Y91.276 E45.32253
G1 X94.809 Y91.500 F6600.000
G1 F3000.000
G1 X96.325 Y90.207 E45.42253
G1 X97.918 Y89.238 E45.51609
G1 X99.664 Y88.515 E45.61097
G1 X101.503 Y88.068 E45.70590
G1 X103.421 Y87.910 E45.80252
G1 X193.519 Y87.910 E50.32414
G1 X195.479 Y88.077 E50.42287
G1 X197.340 Y88.541 E50.51914
G1 X199.009 Y89.239 E50.60993
G1 X200.579 Y90.191 E50.70205
G1 X202.079 Y91.460 E50.80064
G1 X203.357 Y92.944 E50.89898
G1 X204.377 Y94.607 E50.99687
G1 X205.100 Y96.354 E51.09175
G1 X205.546 Y98.191 E51.18661
G1 X205.703 Y100.053 E51.28043
G1 X205.703 Y110.250 E51.79214
G1 X205.542 Y112.139 E51.88732
G1 X205.092 Y113.975 E51.98218
G1 X204.376 Y115.698 E52.07583
G1 X203.340 Y117.383 E52.17505
G1 X202.089 Y118.838 E52.27136
G1 X200.668 Y120.048 E52.36502
G1 X198.981 Y121.079 E52.46424
G1 X197.206 Y121.807 E52.56053
G1 X195.393 Y122.240 E52.65407
G1 X193.504 Y122.393 E52.74917
G1 X103.395 Y122.392 E57.27138
G1 X101.563 Y122.245 E57.36365
G1 X99.696 Y121.799 E57.45998
G1 X97.920 Y121.066 E57.55638
G1 X96.281 Y120.065 E57.65279
G1 X94.819 Y118.819 E57.74919
G1 X93.569 Y117.360 E57.84559
G1 X92.563 Y115.724 E57.94199
G1 X91.826 Y113.950 E58.03839
G1 X91.375 Y112.083 E58.13479
G1 X91.221 Y110.193 E58.22994
G1 X91.222 Y100.082 E58.73735
G1 X91.379 Y98.194 E58.83243
G1 X91.826 Y96.354 E58.92746
G1 X92.538 Y94.630 E59.02108
G1 X93.519 Y93.012 E59.11605
G1 X94.770 Y91.545 E59.21277
G1 X95.032 Y91.769 F6600.000
G1 F3000.000
G1 X95.091 Y91.700 E59.21737
G1 X96.516 Y90.495 E59.31101
G1 X98.063 Y89.552 E59.40192
G1 X99.759 Y88.847 E59.49413
G1 X101.545 Y88.411 E59.58636
G1 X103.428 Y88.255 E59.68122
G1 X193.511 Y88.255 E64.20212
G1 X195.409 Y88.416 E64.29770
G1 X197.220 Y88.864 E64.39130
G1 X198.864 Y89.552 E64.48077
G1 X200.388 Y90.478 E64.57025
G1 X201.845 Y91.714 E64.66613
G1 X203.087 Y93.158 E64.76172
G1 X204.075 Y94.775 E64.85685
G1 X204.776 Y96.473 E64.94903
G1 X205.204 Y98.233 E65.03991
G1 X205.358 Y100.061 E65.13197
G1 X205.358 Y110.243 E65.64296
G1 X205.204 Y112.071 E65.73503
G1 X204.768 Y113.856 E65.82724
G1 X204.075 Y115.530 E65.91817
G1 X203.054 Y117.190 E66.01601
G1 X201.855 Y118.584 E66.10826
G1 X200.477 Y119.761 E66.19921
G1 X198.813 Y120.777 E66.29704
G1 X197.113 Y121.474 E66.38928
G1 X195.352 Y121.897 E66.48016
G1 X193.497 Y122.049 E66.57354
G1 X103.416 Y122.048 E71.09437
G1 X101.629 Y121.906 E71.18431
G1 X99.814 Y121.475 E71.27794
G1 X98.088 Y120.764 E71.37162
G1 X96.494 Y119.793 E71.46531
G1 X95.071 Y118.584 E71.55899
G1 X93.856 Y117.167 E71.65268
G1 X92.876 Y115.578 E71.74636
G1 X92.158 Y113.855 E71.84005
G1 X91.718 Y112.041 E71.93373
G1 X91.566 Y110.186 E72.02714
G1 X91.567 Y100.103 E72.53314
G1 X91.718 Y98.262 E72.62585
G1 X92.158 Y96.449 E72.71952
G1 X92.851 Y94.774 E72.81047
G1 X93.807 Y93.203 E72.90275
G1 X94.993 Y91.815 E72.99438
G1 X95.775 Y92.485 F6600.000
G1 F3000.000
G1 X97.090 Y91.356 E73.08133
G1 X98.544 Y90.468 E73.16688
G1 X100.094 Y89.826 E73.25105
G1 X101.723 Y89.430 E73.33520
G1 X103.450 Y89.289 E73.42212
G1 X193.490 Y89.290 E77.94090
G1 X195.203 Y89.430 E78.02714
G1 X196.858 Y89.834 E78.11265
G1 X198.406 Y90.480 E78.19679
G1 X199.814 Y91.340 E78.27961
G1 X201.124 Y92.456 E78.36598
G1 X202.258 Y93.777 E78.45336
G1 X203.147 Y95.232 E78.53891
G1 X203.789 Y96.781 E78.62308
G1 X204.185 Y98.412 E78.70727
G1 X204.324 Y100.111 E78.79282
G1 X204.324 Y110.193 E79.29881
G1 X204.185 Y111.892 E79.38436
G1 X203.789 Y113.522 E79.46855
G1 X203.147 Y115.071 E79.55272
G1 X202.226 Y116.570 E79.64097
G1 X201.133 Y117.842 E79.72516
G1 X199.858 Y118.932 E79.80933
G1 X198.357 Y119.848 E79.89757
G1 X196.806 Y120.486 E79.98174
G1 X195.175 Y120.878 E80.06592
G1 X193.477 Y121.014 E80.15145
G1 X103.449 Y121.014 E84.66954
G1 X101.777 Y120.882 E84.75375
G1 X100.119 Y120.486 E84.83929
G1 X98.543 Y119.835 E84.92482
G1 X97.089 Y118.947 E85.01036
G1 X95.792 Y117.841 E85.09590
G1 X94.683 Y116.546 E85.18143
G1 X93.791 Y115.094 E85.26697
G1 X93.137 Y113.520 E85.35251
G1 X92.737 Y111.864 E85.43804
G1 X92.601 Y110.165 E85.52356
G1 X92.601 Y100.138 E86.02676
G1 X92.737 Y98.440 E86.11228
G1 X93.137 Y96.783 E86.19781
G1 X93.791 Y95.209 E86.28337
G1 X94.668 Y93.778 E86.36757
G1 X95.736 Y92.531 E86.45000
G1 X95.997 Y92.753 F6600.000
G1 F3000.000
G1 X97.281 Y91.644 E86.53521
G1 X98.713 Y90.769 E86.61938
G1 X100.213 Y90.150 E86.70084
G1 X101.791 Y89.769 E86.78232
G1 X103.456 Y89.634 E86.86617
G1 X193.483 Y89.635 E91.38426
G1 X195.135 Y89.769 E91.46742
G1 X196.739 Y90.158 E91.55023
G1 X198.237 Y90.781 E91.63168
G1 X199.623 Y91.627 E91.71316
G1 X200.872 Y92.691 E91.79549
G1 X201.971 Y93.970 E91.88011
G1 X202.834 Y95.377 E91.96295
G1 X203.457 Y96.876 E92.04442
G1 X203.846 Y98.480 E92.12725
G1 X203.980 Y100.131 E92.21041
G1 X203.980 Y110.172 E92.71431
G1 X203.846 Y111.824 E92.79747
G1 X203.457 Y113.427 E92.88029
G1 X202.834 Y114.926 E92.96176
G1 X201.955 Y116.355 E93.04594
G1 X200.880 Y117.607 E93.12876
G1 X199.645 Y118.660 E93.21023
G1 X198.213 Y119.535 E93.29440
G1 X196.713 Y120.154 E93.37587
G1 X195.108 Y120.539 E93.45870
G1 X193.470 Y120.669 E93.54117
G1 X103.456 Y120.669 E98.05857
G1 X101.818 Y120.539 E98.14107
G1 X100.213 Y120.154 E98.22390
G1 X98.688 Y119.522 E98.30672
G1 X97.281 Y118.660 E98.38954
G1 X96.026 Y117.588 E98.47236
G1 X94.955 Y116.333 E98.55518
G1 X94.092 Y114.926 E98.63800
G1 X93.461 Y113.401 E98.72083
G1 X93.076 Y111.797 E98.80364
G1 X92.946 Y110.158 E98.88611
G1 X92.946 Y100.145 E99.38864
G1 X93.076 Y98.507 E99.47111
G1 X93.461 Y96.902 E99.55393
G1 X94.092 Y95.377 E99.63677
G1 X94.955 Y93.970 E99.71959
G1 X95.958 Y92.799 E99.79697
G1 X96.218 Y93.022 F6600.000
G1 F3000.000
G1 X96.280 Y92.950 E99.80175
G1 X97.473 Y91.930 E99.88051
G1 X98.857 Y91.082 E99.96197
G1 X100.307 Y90.482 E100.04072
G1 X101.859 Y90.107 E100.12083
G1 X103.463 Y89.979 E100.20161
G1 X193.463 Y89.979 E104.71833
G1 X195.068 Y90.107 E104.79911
G1 X196.619 Y90.482 E104.87922
G1 X198.069 Y91.082 E104.95798
G1 X199.431 Y91.915 E105.03809
G1 X200.619 Y92.926 E105.11638
G1 X201.700 Y94.184 E105.19964
G1 X202.520 Y95.522 E105.27838
G1 X203.133 Y96.996 E105.35849
G1 X203.508 Y98.547 E105.43859
G1 X203.636 Y100.152 E105.51937
G1 X203.636 Y110.152 E106.02122
G1 X203.508 Y111.756 E106.10200
G1 X203.133 Y113.308 E106.18210
G1 X202.520 Y114.782 E106.26221
G1 X201.685 Y116.141 E106.34231
G1 X200.646 Y117.354 E106.42242
G1 X199.431 Y118.389 E106.50252
G1 X198.069 Y119.221 E106.58263
G1 X196.594 Y119.830 E106.66273
G1 X195.041 Y120.201 E106.74284
G1 X193.463 Y120.324 E106.82227
G1 X103.463 Y120.324 E111.33900
G1 X101.859 Y120.196 E111.41978
G1 X100.307 Y119.822 E111.49989
G1 X98.833 Y119.209 E111.57999
G1 X97.473 Y118.373 E111.66010
G1 X96.261 Y117.335 E111.74020
G1 X95.226 Y116.120 E111.82030
G1 X94.394 Y114.758 E111.90041
G1 X93.785 Y113.282 E111.98051
G1 X93.414 Y111.730 E112.06062
G1 X93.291 Y110.152 E112.14006
G1 X93.291 Y100.152 E112.64192
G1 X93.414 Y98.574 E112.72135
G1 X93.785 Y97.021 E112.80146
G1 X94.394 Y95.546 E112.88156
G1 X95.242 Y94.162 E112.96301
G1 X96.179 Y93.068 E113.03532
G1 X96.683 Y93.371 F6600.000
;TYPE:External perimeter
G1 F3000.000
G1 X97.827 Y92.394 E113.11083
G1 X99.110 Y91.608 E113.18634
G1 X100.500 Y91.032 E113.26186
G1 X101.963 Y90.681 E113.33737
G1 X103.479 Y90.562 E113.41369
G1 X193.447 Y90.562 E117.92881
G1 X194.963 Y90.681 E118.00513
G1 X196.426 Y91.032 E118.08064
G1 X197.816 Y91.608 E118.15615
G1 X199.099 Y92.394 E118.23166
G1 X200.243 Y93.371 E118.30718
G1 X201.221 Y94.516 E118.38269
G1 X202.007 Y95.799 E118.45820
G1 X202.583 Y97.189 E118.53371
G1 X202.934 Y98.652 E118.60923
G1 X203.053 Y100.168 E118.68555
G1 X203.053 Y110.136 E119.18579
G1 X202.934 Y111.652 E119.26211
G1 X202.583 Y113.115 E119.33763
G1 X202.007 Y114.505 E119.41314
G1 X201.221 Y115.788 E119.48865
G1 X200.243 Y116.932 E119.56416
G1 X199.099 Y117.909 E119.63967
G1 X197.816 Y118.695 E119.71519
G1 X196.426 Y119.271 E119.79070
G1 X194.963 Y119.622 E119.86621
G1 X193.447 Y119.742 E119.94253
G1 X103.479 Y119.742 E124.45765
G1 X101.963 Y119.622 E124.53397
G1 X100.500 Y119.271 E124.60948
G1 X99.110 Y118.695 E124.68500
G1 X97.827 Y117.909 E124.76051
G1 X96.683 Y116.932 E124.83602
G1 X95.706 Y115.788 E124.91153
G1 X94.919 Y114.505 E124.98704
G1 X94.344 Y113.115 E125.06256
G1 X93.992 Y111.652 E125.13807
G1 X93.873 Y110.136 E125.21439
G1 X93.873 Y100.168 E125.71463
G1 X93.992 Y98.652 E125.79096
G1 X94.344 Y97.189 E125.86647
G1 X94.919 Y95.799 E125.94198
G1 X95.706 Y94.516 E126.01749
G1 X96.644 Y93.417 E126.08999
G1 E122.08999 F2400.000
G92 E0
G1 Z0.450 F6600.000
G1 X105.258 Y104.000
G1 Z0.350
G1 E4.00000 F2400.000
G1 F3000.000
G1 X105.457 Y103.866 E4.01201
G1 X105.675 Y103.767 E4.02403
G1 X105.906 Y103.707 E4.03604
G1 X106.111 Y103.689 E4.04634
G1 X106.381 Y103.706 E4.05993
G1 X106.615 Y103.767 E4.07207
G1 X106.833 Y103.866 E4.08408
G1 X107.032 Y104.000 E4.09610
G1 X107.204 Y104.165 E4.10811
G1 X107.347 Y104.358 E4.12013
G1 X107.439 Y104.541 E4.13042
G1 X107.524 Y104.798 E4.14402
G1 X107.555 Y105.038 E4.15615
G1 X107.545 Y105.277 E4.16817
G1 X107.495 Y105.511 E4.18018
G1 X107.418 Y105.702 E4.19048
G1 X107.281 Y105.935 E4.20407
G1 X107.122 Y106.117 E4.21621
G1 X106.935 Y106.267 E4.22822
G1 X106.726 Y106.384 E4.24024
G1 X106.496 Y106.465 E4.25249
G1 X106.145 Y106.510 E4.27025
G1 X105.794 Y106.465 E4.28802
G1 X105.564 Y106.384 E4.30027
G1 X105.354 Y106.267 E4.31229
G1 X105.168 Y106.117 E4.32430
G1 X105.010 Y105.937 E4.33631
G1 X104.903 Y105.763 E4.34661
G1 X104.796 Y105.514 E4.36020
G1 X104.745 Y105.277 E4.37234
G1 X104.735 Y105.038 E4.38435
G1 X104.765 Y104.800 E4.39637
G1 X104.835 Y104.572 E4.40838
G1 X104.943 Y104.358 E4.42040
G1 X105.085 Y104.165 E4.43241
G1 X105.215 Y104.041 E4.44142
G1 E0.44142 F2400.000
G92 E0
G1 Z0.450 F6600.000
G1 X108.320 Y104.289
G1 Z0.350
G1 E4.00000 F2400.000
G1 F3000.000
G1 X108.510 Y103.666 E4.03270
G1 X108.804 Y103.084 E4.06540
G1 X109.191 Y102.560 E4.09810
G1 X109.662 Y102.109 E4.13080
G1 X110.201 Y101.744 E4.16350
G1 X110.795 Y101.476 E4.19620
G1 X111.426 Y101.312 E4.22889
G1 X112.005 Y101.262 E4.25810
G1 X112.722 Y101.311 E4.29416
G1 X113.355 Y101.476 E4.32695
G1 X113.948 Y101.744 E4.35965
G1 X114.488 Y102.109 E4.39235
G1 X114.959 Y102.560 E4.42505
G1 X115.346 Y103.084 E4.45774
G1 X115.639 Y103.666 E4.49044
G1 X115.830 Y104.289 E4.52314
G1 X115.913 Y104.935 E4.55584
G1 X115.885 Y105.586 E4.58854
G1 X115.748 Y106.223 E4.62124
G1 X115.505 Y106.827 E4.65394
G1 X115.163 Y107.382 E4.68664
G1 X114.733 Y107.871 E4.71934
G1 X114.226 Y108.281 E4.75204
G1 X113.657 Y108.598 E4.78474
G1 X113.043 Y108.815 E4.81744
G1 X112.401 Y108.926 E4.85013
G1 X111.749 Y108.926 E4.88283
G1 X111.107 Y108.815 E4.91553
G1 X110.493 Y108.598 E4.94823
G1 X109.924 Y108.281 E4.98093
G1 X109.417 Y107.871 E5.01363
G1 X108.986 Y107.382 E5.04633
G1 X108.645 Y106.827 E5.07903
G1 X108.402 Y106.223 E5.11173
G1 X108.265 Y105.586 E5.14443
G1 X108.237 Y104.935 E5.17713
G1 X108.312 Y104.348 E5.20681
G1 E1.20681 F2400.000
G92 E0
G1 Z0.450 F6600.000
G1 X116.595 Y105.038
G1 Z0.350
G1 E4.00000 F2400.000
G1 F3000.000
G1 X116.625 Y104.800 E4.01201
G1 X116.695 Y104.572 E4.02403
G1 X116.803 Y104.358 E4.03604
G1 X116.945 Y104.165 E4.04806
