; generated by PrusaSlicer 2.3.1+win64 on 2021-05-29 at 14:30:51 UTC

; 

; external perimeters extrusion width = 0.45mm
; perimeters extrusion width = 0.45mm
; infill extrusion width = 0.45mm
; solid infill extrusion width = 0.45mm
; top infill extrusion width = 0.40mm
; support material extrusion width = 0.35mm
; first layer extrusion width = 0.42mm

M107
M190 S80 ; set bed temperature and wait for it to be reached
M104 S230 ; set temperature
;TYPE:Custom
G28 ; home all axes
G1 Z5 F5000 ; lift nozzle
M109 S230 ; set temperature and wait for it to be reached
G21 ; set units to millimeters
G90 ; use absolute coordinates
M82 ; use absolute distances for extrusion
G92 E0
; Filament gcode
;LAYER_CHANGE
;Z:0.35
;HEIGHT:0.35
G1 Z0.350 F6600.000
G1 E-4.00000 F2400.000
G92 E0
G1 Z0.450 F6600.000
G1 X125.639 Y56.713
G1 Z0.350
G1 E4.00000 F2400.000
;TYPE:Skirt
;WIDTH:0.42
G1 F3000.000
G1 X125.898 Y56.348 E4.02250
G1 X126.242 Y56.065 E4.04484
G1 X141.305 Y46.856 E4.93086
G1 X141.841 Y46.647 E4.95973
G1 X175.181 Y46.613 E6.63295
G1 X175.635 Y46.675 E6.65593
G1 X176.052 Y46.856 E6.67875
G1 X176.406 Y47.141 E6.70156
G1 X176.672 Y47.514 E6.72454
G1 X191.963 Y78.491 E8.45824
G1 X192.117 Y79.127 E8.49107
G1 X192.118 Y82.214 E8.64603
G1 X191.924 Y82.985 E8.68594
G1 X191.576 Y83.439 E8.71465
G1 X191.099 Y83.750 E8.74320
G1 X165.179 Y94.790 E10.15708
G1 X163.055 Y95.457 E10.26882
G1 X160.756 Y95.870 E10.38607
G1 X158.674 Y95.992 E10.49073
G1 X156.488 Y95.860 E10.60063
G1 X154.330 Y95.465 E10.71071
G1 X152.338 Y94.848 E10.81539
G1 X150.221 Y93.907 E10.93163
G1 X148.344 Y92.772 E11.04174
G1 X146.619 Y91.420 E11.15171
G1 X145.066 Y89.868 E11.26188
G1 X143.757 Y88.203 E11.36817
G1 X125.723 Y61.431 E12.98816
G1 X125.520 Y61.000 E13.01209
G1 X125.444 Y60.532 E13.03587
G1 X125.446 Y57.414 E13.19236
G1 X125.623 Y56.771 E13.22581
G1 X125.946 Y56.870 F6600.000
G1 F3000.000
G1 X126.426 Y56.357 E13.26106
G1 X141.481 Y47.152 E14.14667
G1 X141.912 Y46.984 E14.16985
G1 X175.181 Y46.957 E15.83950
G1 X175.876 Y47.153 E15.87572
G1 X176.371 Y47.681 E15.91207
G1 X191.652 Y78.639 E17.64469
G1 X191.773 Y79.152 E17.67112
G1 X191.774 Y82.210 E17.82458
G1 X191.617 Y82.829 E17.85663
G1 X191.340 Y83.188 E17.87938
G1 X190.959 Y83.434 E17.90213
G1 X165.048 Y94.471 E19.31556
G1 X162.966 Y95.124 E19.42508
G1 X160.735 Y95.526 E19.53885
G1 X158.676 Y95.647 E19.64236
G1 X156.527 Y95.517 E19.75039
G1 X154.410 Y95.129 E19.85840
G1 X152.440 Y94.519 E19.96191
G1 X150.378 Y93.599 E20.07524
G1 X148.540 Y92.488 E20.18299
G1 X146.846 Y91.160 E20.29105
G1 X145.322 Y89.637 E20.39915
G1 X144.033 Y87.996 E20.50392
G1 X126.014 Y61.245 E22.12260
G1 X125.849 Y60.899 E22.14181
G1 X125.789 Y60.521 E22.16101
G1 X125.790 Y57.443 E22.31548
G1 X125.930 Y56.928 E22.34227
G1 E18.34227 F2400.000
G92 E0
G1 Z0.450 F6600.000
G1 X127.795 Y54.914
G1 Z0.350
G1 E4.00000 F2400.000
G1 F3000.000
G1 X126.780 Y54.914 E4.05092
G1 X126.083 Y55.105 E4.08719
G1 X125.698 Y55.314 E4.10919
G1 X125.019 Y55.978 E4.15686
G1 X124.832 Y56.245 E4.17321
G1 X124.547 Y57.147 E4.22070
G1 X124.583 Y61.076 E4.41788
G1 X124.766 Y61.618 E4.44662
G1 X125.080 Y62.105 E4.47566
G1 X125.592 Y62.608 E4.51166
G1 X126.190 Y62.942 E4.54605
G1 X126.597 Y63.036 E4.56700
G1 X127.463 Y63.087 F6600.000
G1 F3000.000
G1 X139.591 Y63.087 E5.17568
G1 X139.592 Y77.863 E5.91723
G1 X139.740 Y80.182 E6.03383
G1 X140.035 Y81.751 E6.11397
G1 E2.11397 F2400.000
G92 E0
G1 Z0.450 F6600.000
G1 X140.598 Y83.822
G1 Z0.350
G1 E4.00000 F2400.000
G1 F3000.000
G1 X140.837 Y84.584 E4.04007
G1 X141.764 Y86.646 E4.15354
G1 X142.927 Y88.581 E4.26687
G1 X144.337 Y90.396 E4.38218
G1 X146.103 Y92.160 E4.50745
G1 X147.842 Y93.514 E4.61807
G1 X149.737 Y94.665 E4.72937
G1 X151.840 Y95.622 E4.84533
G1 X154.004 Y96.307 E4.95922
G1 X156.434 Y96.756 E5.08323
G1 X158.643 Y96.889 E5.19431
G1 X160.865 Y96.762 E5.30597
G1 X163.318 Y96.316 E5.43114
G1 X165.500 Y95.628 E5.54593
G1 X167.600 Y94.675 E5.66167
G1 X169.563 Y93.480 E5.77701
G1 X170.587 Y92.674 E5.84243
G1 E1.84243 F2400.000
G92 E0
G1 Z0.450 F6600.000
G1 X172.177 Y91.247
G1 Z0.350
G1 E4.00000 F2400.000
G1 F3000.000
G1 X172.987 Y90.433 E4.05761
G1 X174.414 Y88.603 E4.17408
G1 X175.600 Y86.630 E4.28964
G1 X176.433 Y84.785 E4.39122
G1 X187.348 Y84.785 E4.93900
G1 X189.108 Y84.785 F6600.000
G1 F3000.000
G1 X190.783 Y84.785 E5.02304
G1 X191.480 Y84.594 E5.05931
G1 X191.865 Y84.385 E5.08132
G1 X192.544 Y83.720 E5.12898
G1 X192.731 Y83.454 E5.14534
G1 X193.016 Y82.551 E5.19282
G1 X192.980 Y78.622 E5.39000
G1 X192.796 Y78.080 E5.41874
G1 X192.483 Y77.594 E5.44778
G1 X191.971 Y77.091 E5.48379
G1 X191.373 Y76.757 E5.51818
G1 X191.290 Y76.738 E5.52241
G1 X190.459 Y76.612 F6600.000
G1 F3000.000
G1 X177.765 Y76.612 E6.15948
G1 X177.765 Y50.895 E7.45011
G1 X177.765 Y49.337 F6600.000
G1 F3000.000
G1 X177.765 Y47.949 E7.51978
G1 X177.571 Y47.243 E7.55652
G1 X177.210 Y46.675 E7.59029
G1 X176.500 Y46.042 E7.63802
G1 X176.088 Y45.847 E7.66091
G1 X175.709 Y45.741 E7.68063
G1 X141.521 Y45.767 E9.39642
G1 X141.085 Y45.923 E9.41965
G1 X140.745 Y46.114 E9.43922
G1 X140.133 Y46.688 E9.48132
G1 X139.805 Y47.196 E9.51168
G1 X139.657 Y47.661 E9.53615
G1 X139.612 Y48.497 F6600.000
G1 F3000.000
G1 X139.592 Y54.914 E9.85819
G1 X129.117 Y54.914 E10.38388
G1 X128.553 Y55.259 F6600.000
G1 F3000.000
G1 X139.936 Y55.259 E10.95515
G1 X139.951 Y48.290 E11.30489
G1 X140.100 Y47.390 F6600.000
G1 F3000.000
G1 X140.387 Y46.923 E11.33241
G1 X140.935 Y46.402 E11.37031
G1 X141.216 Y46.242 E11.38656
G1 X141.609 Y46.101 E11.40752
G1 X175.641 Y46.080 E13.11545
G1 X175.955 Y46.165 E13.13175
G1 X176.329 Y46.342 E13.15255
G1 X176.961 Y46.915 E13.19533
G1 X177.246 Y47.362 E13.22194
G1 X177.420 Y47.973 E13.25384
G1 X177.420 Y48.638 E13.28721
G1 X177.420 Y50.196 F6600.000
G1 F3000.000
G1 X177.420 Y76.956 E14.63022
G1 X190.629 Y76.956 E15.29314
G1 X191.541 Y77.246 F6600.000
G1 F3000.000
G1 X191.781 Y77.380 E15.30693
G1 X192.226 Y77.825 E15.33847
G1 X192.477 Y78.211 E15.36161
G1 X192.645 Y78.707 E15.38786
G1 X192.671 Y82.527 E15.57956
G1 X192.433 Y83.279 E15.61919
G1 X192.289 Y83.488 E15.63190
G1 X191.676 Y84.096 E15.67522
G1 X191.365 Y84.268 E15.69306
G1 X190.758 Y84.440 E15.72472
G1 X189.918 Y84.440 E15.76689
G1 X188.158 Y84.440 F6600.000
G1 F3000.000
G1 X176.210 Y84.440 E16.36650
G1 X175.299 Y86.461 E16.47774
G1 X174.135 Y88.400 E16.59122
G1 X172.735 Y90.198 E16.70560
G1 X171.334 Y91.606 E16.80527
G1 E12.80527 F2400.000
G92 E0
G1 Z0.450 F6600.000
G1 X169.378 Y93.189
G1 Z0.350
G1 E4.00000 F2400.000
G1 F3000.000
G1 X167.448 Y94.365 E4.11347
G1 X165.386 Y95.302 E4.22711
G1 X163.225 Y95.984 E4.34084
G1 X160.834 Y96.418 E4.46279
G1 X158.654 Y96.544 E4.57241
G1 X156.465 Y96.413 E4.68243
G1 X154.098 Y95.975 E4.80326
G1 X151.973 Y95.304 E4.91506
G1 X149.907 Y94.365 E5.02896
G1 X148.046 Y93.236 E5.13823
G1 X146.323 Y91.894 E5.24780
G1 X144.602 Y90.175 E5.36986
G1 X143.217 Y88.395 E5.48309
G1 X142.074 Y86.495 E5.59436
G1 X141.420 Y85.043 E5.67428
G1 E1.67428 F2400.000
G92 E0
G1 Z0.450 F6600.000
G1 X140.548 Y82.514
G1 Z0.350
G1 E4.00000 F2400.000
G1 F3000.000
G1 X140.499 Y82.357 E4.00826
G1 X140.081 Y80.129 E4.12204
G1 X139.937 Y77.847 E4.23678
G1 X139.936 Y62.742 E4.99482
G1 X127.230 Y62.742 E5.63247
G1 X126.313 Y62.616 F6600.000
G1 F3000.000
G1 X125.782 Y62.318 E5.66304
G1 X125.337 Y61.874 E5.69458
G1 X125.086 Y61.487 E5.71773
G1 X124.918 Y60.992 E5.74398
G1 X124.892 Y57.172 E5.93567
G1 X125.130 Y56.419 E5.97531
G1 X125.274 Y56.211 E5.98801
G1 X125.887 Y55.603 E6.03134
G1 X126.198 Y55.430 E6.04917
G1 X126.805 Y55.259 E6.08083
G1 X127.231 Y55.259 E6.10221
G1 X127.989 Y55.604 F6600.000
G1 F3000.000
G1 X140.281 Y55.604 E6.71909
G1 X140.289 Y48.083 E7.09650
G1 X140.919 Y46.889 F6600.000
G1 F3000.000
G1 X141.127 Y46.690 E7.11097
G1 X141.348 Y46.561 E7.12379
G1 X141.697 Y46.436 E7.14244
G1 X175.575 Y46.419 E8.84262
G1 X175.822 Y46.484 E8.85544
G1 X176.157 Y46.643 E8.87406
G1 X176.711 Y47.153 E8.91183
G1 X176.923 Y47.483 E8.93155
G1 X177.031 Y47.852 E8.95081
G1 X177.075 Y49.497 F6600.000
G1 F3000.000
G1 X177.075 Y77.301 E10.34619
G1 X190.708 Y77.301 E11.03041
G1 X190.811 Y77.324 E11.03566
G1 X191.914 Y78.000 F6600.000
G1 F3000.000
G1 X191.968 Y78.055 E11.03952
G1 X192.174 Y78.377 E11.05871
G1 X192.308 Y78.788 E11.08039
G1 X192.326 Y82.501 E11.26674
G1 X192.133 Y83.108 E11.29869
G1 X192.032 Y83.257 E11.30776
G1 X191.483 Y83.809 E11.34679
G1 X191.247 Y83.944 E11.36046
G1 X190.727 Y84.095 E11.38760
G1 X188.967 Y84.095 F6600.000
G1 F3000.000
G1 X175.952 Y84.095 E12.04081
G1 X175.858 Y84.382 E12.05595
G1 X174.998 Y86.292 E12.16109
G1 X173.857 Y88.196 E12.27249
G1 X172.483 Y89.962 E12.38477
G1 X170.927 Y91.528 E12.49555
G1 X170.234 Y92.074 E12.53984
G1 E8.53984 F2400.000
G92 E0
G1 Z0.450 F6600.000
G1 X166.625 Y94.361
G1 Z0.350
G1 E4.00000 F2400.000
G1 F3000.000
G1 X165.253 Y94.984 E4.07562
G1 X163.132 Y95.652 E4.18723
G1 X160.804 Y96.075 E4.30599
G1 X158.664 Y96.199 E4.41356
G1 X156.517 Y96.072 E4.52148
G1 X154.191 Y95.643 E4.64018
G1 X152.106 Y94.985 E4.74989
G1 X150.077 Y94.065 E4.86171
G1 X148.233 Y92.946 E4.96995
G1 X146.544 Y91.629 E5.07748
G1 X144.854 Y89.939 E5.19741
G1 X143.507 Y88.208 E5.30748
G1 X143.123 Y87.570 E5.34484
G1 E1.34484 F2400.000
G92 E0
G1 Z0.450 F6600.000
G1 X141.225 Y83.518
G1 Z0.350
G1 E4.00000 F2400.000
G1 F3000.000
G1 X140.836 Y82.283 E4.06497
G1 X140.422 Y80.075 E4.17769
G1 X140.281 Y77.831 E4.29058
G1 X140.281 Y62.397 E5.06511
G1 X126.998 Y62.397 E5.73173
G1 X125.791 Y61.841 F6600.000
G1 F3000.000
G1 X125.595 Y61.644 E5.74568
G1 X125.389 Y61.321 E5.76488
G1 X125.254 Y60.911 E5.78656
G1 X125.237 Y57.198 E5.97291
G1 X125.430 Y56.591 E6.00486
G1 X125.531 Y56.441 E6.01392
G1 X126.080 Y55.890 E6.05296
G1 X126.316 Y55.755 E6.06662
G1 X126.515 Y55.696 E6.07701
G1 X127.425 Y55.948 F6600.000
G1 F3000.000
G1 X140.626 Y55.948 E6.73953
G1 X140.626 Y48.026 E7.13713
G1 X140.683 Y47.842 E7.14676
G1 E3.14676 F2400.000
G92 E0
G1 Z0.450 F6600.000
G1 X126.748 Y62.025
G1 Z0.350
G1 E4.00000 F2400.000
G1 F3000.000
G1 X126.872 Y62.052 E4.00641
G1 X140.626 Y62.052 E4.69665
G1 X140.626 Y77.825 E5.48822
G1 X140.763 Y80.023 E5.59871
G1 X141.168 Y82.190 E5.70934
G1 X141.814 Y84.244 E5.81741
G1 X142.020 Y84.699 E5.84250
G1 E1.84250 F2400.000
G92 E0
G1 Z0.450 F6600.000
G1 X169.023 Y92.590
G1 Z0.350
G1 E4.00000 F2400.000
G1 F3000.000
G1 X170.690 Y91.277 E4.10647
G1 X172.217 Y89.742 E4.21515
G1 X173.566 Y88.010 E4.32534
G1 X174.688 Y86.142 E4.43469
G1 X175.539 Y84.250 E4.53880
G1 X175.699 Y83.750 E4.56512
G1 X189.777 Y83.750 E5.27163
G1 E1.27163 F2400.000
G92 E0
G1 Z0.450 F6600.000
G1 X191.015 Y77.739
G1 Z0.350
G1 E4.00000 F2400.000
G1 F3000.000
G1 X190.945 Y77.701 E4.00399
G1 X190.690 Y77.646 E4.01705
G1 X176.730 Y77.646 E4.71768
G1 X176.730 Y48.798 E6.16543
G1 X176.385 Y48.100 F6600.000
G1 F3000.000
G1 X176.385 Y77.991 E7.66556
G1 X190.673 Y77.991 E8.38263
G1 X190.812 Y78.020 E8.38971
G1 X191.107 Y78.170 E8.40635
G1 X191.345 Y78.408 E8.42325
G1 E4.42325 F2400.000
G92 E0
G1 Z0.450 F6600.000
G1 X190.587 Y83.405
G1 Z0.350
G1 E4.00000 F2400.000
G1 F3000.000
G1 X175.446 Y83.405 E4.75983
G1 X175.220 Y84.117 E4.79732
G1 X174.377 Y85.991 E4.90041
G1 X173.276 Y87.823 E5.00770
G1 X171.952 Y89.521 E5.11579
G1 X170.453 Y91.026 E5.22238
G1 X168.759 Y92.359 E5.33054
G1 X166.937 Y93.465 E5.43751
G1 X166.418 Y93.700 E5.46610
G1 E1.46610 F2400.000
G92 E0
G1 Z0.450 F6600.000
G1 X143.705 Y87.201
G1 Z0.350
G1 E4.00000 F2400.000
G1 F3000.000
G1 X142.995 Y86.023 E4.06901
G1 X142.133 Y84.111 E4.17425
G1 X141.500 Y82.096 E4.28025
G1 X141.104 Y79.970 E4.38879
G1 X140.971 Y77.820 E4.49690
G1 X140.971 Y61.708 E5.30551
G1 X126.889 Y61.708 E6.01220
G1 X126.751 Y61.679 E6.01929
G1 X126.455 Y61.529 E6.03592
G1 X126.326 Y61.400 E6.04510
G1 E2.04510 F2400.000
G92 E0
G1 Z0.450 F6600.000
G1 X126.831 Y56.312
G1 Z0.350
G1 E4.00000 F2400.000
G1 F3000.000
G1 X126.886 Y56.293 E4.00293
G1 X140.971 Y56.293 E4.70977
G1 X140.971 Y48.055 E5.12323
G1 X141.074 Y47.740 E5.13987
G1 X141.151 Y47.622 E5.14693
G1 X141.327 Y47.448 E5.15933
G1 E1.15933 F2400.000
G92 E0
G1 Z0.450 F6600.000
G1 X176.009 Y78.336
G1 Z0.350
G1 E4.00000 F2400.000
G1 F3000.000
G1 X190.686 Y78.342 E4.73658
G1 X190.886 Y78.436 E4.74767
G1 X191.200 Y78.750 E4.76995
G1 X191.291 Y78.983 E4.78249
G1 X191.291 Y82.414 E4.95467
G1 X191.222 Y82.607 E4.96499
G1 X190.875 Y82.971 E4.99019
G1 X190.644 Y83.060 E5.00262
G1 X175.193 Y83.060 E5.77804
G1 X174.902 Y83.985 E5.82671
G1 X174.067 Y85.840 E5.92877
G1 X172.986 Y87.636 E6.03398
G1 X171.686 Y89.301 E6.13998
G1 X170.216 Y90.775 E6.24447
G1 X168.555 Y92.081 E6.35055
G1 X166.767 Y93.165 E6.45542
G1 X164.855 Y94.028 E6.56071
G1 X162.853 Y94.655 E6.66601
G1 X160.712 Y95.044 E6.77522
G1 X158.654 Y95.164 E6.87865
G1 X156.611 Y95.041 E6.98140
G1 X154.471 Y94.646 E7.09061
G1 X152.504 Y94.030 E7.19405
G1 X150.586 Y93.163 E7.29965
G1 X148.829 Y92.100 E7.40274
G1 X147.205 Y90.833 E7.50611
G1 X145.650 Y89.278 E7.61649
G1 X144.377 Y87.647 E7.72031
G1 X143.305 Y85.872 E7.82438
G1 X142.452 Y83.979 E7.92857
G1 X141.832 Y82.003 E8.03250
G1 X141.445 Y79.917 E8.13896
G1 X141.316 Y77.815 E8.24468
G1 X141.316 Y61.363 E9.07034
G1 X126.876 Y61.357 E9.79499
G1 X126.677 Y61.262 E9.80608
G1 X126.363 Y60.949 E9.82836
G1 X126.272 Y60.716 E9.84090
G1 X126.272 Y57.285 E10.01308
G1 X126.341 Y57.091 E10.02340
G1 X126.688 Y56.728 E10.04860
G1 X126.918 Y56.638 E10.06103
G1 X141.316 Y56.638 E10.78357
G1 X141.316 Y48.087 E11.21273
G1 X141.407 Y47.854 E11.22527
G1 X141.730 Y47.531 E11.24819
G1 X141.962 Y47.440 E11.26073
G1 X175.436 Y47.446 E12.94061
G1 X175.635 Y47.540 E12.95170
G1 X175.949 Y47.854 E12.97397
G1 X176.040 Y48.087 E12.98651
G1 X176.040 Y77.810 E14.47821
G1 X176.013 Y78.276 E14.50163
G1 X175.643 Y78.681 F6600.000
G1 F3000.000
G1 X190.606 Y78.681 E15.25255
G1 X190.669 Y78.707 E15.25599
G1 X190.920 Y78.958 E15.27378
G1 X190.946 Y79.021 E15.27722
G1 X190.946 Y82.375 E15.44556
G1 X190.920 Y82.439 E15.44900
G1 X190.669 Y82.689 E15.46678
G1 X190.606 Y82.716 E15.47023
G1 X174.940 Y82.716 E16.25644
G1 X174.583 Y83.853 E16.31628
G1 X173.757 Y85.689 E16.41730
G1 X172.696 Y87.449 E16.52044
G1 X171.421 Y89.080 E16.62434
G1 X169.980 Y90.524 E16.72674
G1 X168.350 Y91.804 E16.83072
G1 X166.598 Y92.864 E16.93350
G1 X164.723 Y93.709 E17.03670
G1 X162.760 Y94.322 E17.13990
G1 X160.681 Y94.700 E17.24596
G1 X158.665 Y94.819 E17.34732
G1 X156.642 Y94.697 E17.44902
G1 X154.564 Y94.314 E17.55508
G1 X152.636 Y93.711 E17.65644
G1 X150.756 Y92.863 E17.75996
G1 X149.016 Y91.811 E17.86201
G1 X147.426 Y90.567 E17.96330
G1 X145.915 Y89.057 E18.07052
G1 X144.667 Y87.460 E18.17225
G1 X143.606 Y85.702 E18.27528
G1 X142.771 Y83.847 E18.37739
G1 X142.165 Y81.910 E18.47924
G1 X141.786 Y79.865 E18.58361
G1 X141.661 Y77.809 E18.68697
G1 X141.661 Y61.018 E19.52967
G1 X126.957 Y61.018 E20.26760
G1 X126.893 Y60.992 E20.27104
G1 X126.643 Y60.741 E20.28882
G1 X126.617 Y60.678 E20.29226
G1 X126.617 Y57.323 E20.46060
G1 X126.643 Y57.260 E20.46405
G1 X126.893 Y57.009 E20.48183
G1 X126.957 Y56.983 E20.48527
G1 X141.661 Y56.983 E21.22319
G1 X141.661 Y48.125 E21.66774
G1 X141.687 Y48.062 E21.67118
G1 X141.937 Y47.811 E21.68896
G1 X142.001 Y47.785 E21.69240
G1 X175.355 Y47.785 E23.36632
G1 X175.418 Y47.811 E23.36976
G1 X175.669 Y48.062 E23.38754
G1 X175.695 Y48.125 E23.39099
G1 X175.695 Y77.805 E24.88051
G1 X175.647 Y78.621 E24.92152
G1 X175.277 Y79.026 F6600.000
G1 F3000.000
G1 X190.500 Y79.026 E25.68552
G1 X190.601 Y79.127 E25.69269
G1 X190.601 Y82.270 E25.85042
G1 X190.500 Y82.371 E25.85759
G1 X174.686 Y82.371 E26.65123
G1 X174.264 Y83.721 E26.72224
G1 X173.447 Y85.538 E26.82221
G1 X172.406 Y87.262 E26.92327
G1 X171.156 Y88.859 E27.02507
G1 X169.743 Y90.273 E27.12538
G1 X168.145 Y91.526 E27.22727
G1 X166.428 Y92.563 E27.32796
G1 X164.591 Y93.391 E27.42907
G1 X162.668 Y93.990 E27.53017
G1 X160.650 Y94.356 E27.63310
G1 X158.675 Y94.475 E27.73238
G1 X156.674 Y94.354 E27.83302
G1 X154.657 Y93.981 E27.93595
G1 X152.768 Y93.392 E28.03523
G1 X150.926 Y92.562 E28.13665
G1 X149.203 Y91.521 E28.23765
G1 X147.647 Y90.302 E28.33686
G1 X146.180 Y88.836 E28.44094
