; generated by PrusaSlicer 2.3.1+win64 on 2021-05-28 at 02:05:00 UTC

; 

; external perimeters extrusion width = 0.45mm
; perimeters extrusion width = 0.45mm
; infill extrusion width = 0.45mm
; solid infill extrusion width = 0.45mm
; top infill extrusion width = 0.40mm
; support material extrusion width = 0.35mm
; first layer extrusion width = 0.42mm

M107
M190 S80 ; set bed temperature and wait for it to be reached
M104 S230 ; set temperature
;TYPE:Custom
G28 ; home all axes
G1 Z5 F5000 ; lift nozzle
M109 S230 ; set temperature and wait for it to be reached
G21 ; set units to millimeters
G90 ; use absolute coordinates
M82 ; use absolute distances for extrusion
G92 E0
; Filament gcode
;LAYER_CHANGE
;Z:0.35
;HEIGHT:0.35
G1 Z0.350 F6600.000
G1 E-4.00000 F2400.000
G92 E0
G1 Z0.450 F6600.000
G1 X106.759 Y78.484
G1 Z0.350
G1 E4.00000 F2400.000
;TYPE:Skirt
;WIDTH:0.42
G1 F3000.000
G1 X134.847 Y60.520 E5.67324
G1 X135.585 Y60.301 E5.71190
G1 X138.687 Y60.298 E5.86757
G1 X139.119 Y60.355 E5.88941
G1 X205.827 Y78.139 E9.35417
G1 X206.206 Y78.384 E9.37683
G1 X206.508 Y78.724 E9.39964
G1 X206.708 Y79.129 E9.42230
G1 X206.793 Y79.572 E9.44496
G1 X206.796 Y91.686 E10.05293
G1 X206.635 Y92.388 E10.08907
G1 X206.188 Y92.965 E10.12569
G1 X187.299 Y108.500 E11.35308
G1 X186.803 Y108.779 E11.38163
G1 X186.242 Y108.877 E11.41019
G1 X182.900 Y108.844 E11.57791
G1 X107.619 Y93.321 E15.43548
G1 X107.168 Y93.156 E15.45957
G1 X106.783 Y92.874 E15.48350
G1 X106.409 Y92.322 E15.51697
G1 X106.276 Y91.669 E15.55043
G1 X106.277 Y79.606 E16.15581
G1 X106.413 Y79.002 E16.18690
G1 X106.726 Y78.534 E16.21513
G1 X107.008 Y78.724 F6600.000
G1 F3000.000
G1 X135.017 Y60.820 E17.88343
G1 X135.619 Y60.645 E17.91492
G1 X138.687 Y60.643 E18.06886
G1 X205.676 Y78.449 E21.54748
G1 X206.223 Y78.918 E21.58370
G1 X206.450 Y79.604 E21.61991
G1 X206.451 Y91.682 E22.22606
G1 X206.325 Y92.236 E22.25460
G1 X205.966 Y92.702 E22.28412
G1 X187.083 Y108.231 E23.51109
G1 X186.688 Y108.454 E23.53384
G1 X186.241 Y108.532 E23.55659
G1 X182.971 Y108.506 E23.72074
G1 X107.692 Y92.984 E27.57816
G1 X107.330 Y92.852 E27.59750
G1 X107.020 Y92.623 E27.61685
G1 X106.724 Y92.183 E27.64342
G1 X106.621 Y91.667 E27.66983
G1 X106.622 Y79.627 E28.27407
G1 X106.730 Y79.138 E28.29923
G1 X106.975 Y78.774 E28.32124
G1 E24.32124 F2400.000
G92 E0
G1 Z0.450 F6600.000
G1 X108.634 Y77.081
G1 Z0.350
G1 E4.00000 F2400.000
G1 F3000.000
G1 X107.612 Y77.081 E4.05130
G1 X106.902 Y77.276 E4.08825
G1 X106.600 Y77.433 E4.10536
G1 X105.938 Y78.035 E4.15024
G1 X105.573 Y78.606 E4.18425
G1 X105.379 Y79.313 E4.22105
G1 X105.379 Y92.027 E4.85911
G1 X105.702 Y92.988 E4.90994
G1 X105.922 Y93.281 E4.92834
G1 X106.361 Y93.721 E4.95955
G1 X106.907 Y94.060 E4.99179
G1 X107.612 Y94.254 E5.02851
G1 X111.290 Y94.254 E5.21306
G1 E1.21306 F2400.000
G92 E0
G1 Z0.450 F6600.000
G1 X114.705 Y94.254
G1 Z0.350
G1 E4.00000 F2400.000
G1 F3000.000
G1 X180.649 Y94.254 E7.30944
G1 X180.649 Y107.498 E7.97408
G1 X180.728 Y107.867 E7.99306
G1 X181.080 Y108.644 F6600.000
G1 F3000.000
G1 X181.121 Y108.720 E7.99738
G1 X181.629 Y109.239 E8.03384
G1 X182.063 Y109.529 E8.06000
G1 X182.576 Y109.722 E8.08754
G1 X186.590 Y109.774 E8.28900
G1 X187.510 Y109.476 E8.33750
G1 X187.850 Y109.231 E8.35857
G1 X188.289 Y108.791 E8.38974
G1 X188.610 Y108.290 E8.41961
G1 X188.816 Y107.587 E8.45637
G1 X188.816 Y107.476 E8.46191
G1 X188.816 Y106.583 F6600.000
G1 F3000.000
G1 X188.822 Y94.254 E9.08065
G1 X203.807 Y94.254 E9.83268
G1 X204.893 Y94.254 F6600.000
G1 F3000.000
G1 X205.460 Y94.254 E9.86115
G1 X206.157 Y94.063 E9.89742
G1 X206.543 Y93.854 E9.91942
G1 X207.221 Y93.189 E9.96709
G1 X207.409 Y92.923 E9.98345
G1 X207.693 Y92.023 E10.03079
G1 X207.693 Y79.313 E10.66864
G1 X207.500 Y78.608 E10.70536
G1 X207.155 Y78.058 E10.73794
G1 X206.537 Y77.482 E10.78032
G1 X205.774 Y77.132 E10.82247
G1 X205.411 Y77.081 E10.84085
G1 X202.527 Y77.081 E10.98560
G1 E6.98560 F2400.000
G92 E0
G1 Z0.450 F6600.000
G1 X199.857 Y77.081
G1 Z0.350
G1 E4.00000 F2400.000
G1 F3000.000
G1 X141.271 Y77.081 E6.94021
G1 X141.271 Y61.634 E7.71541
G1 X141.233 Y61.498 E7.72247
G1 X140.901 Y60.652 F6600.000
G1 F3000.000
G1 X140.716 Y60.360 E7.73980
G1 X140.006 Y59.727 E7.78753
G1 X139.594 Y59.532 E7.81042
G1 X139.215 Y59.426 E7.83018
G1 X135.025 Y59.453 E8.04043
G1 X134.511 Y59.647 E8.06799
G1 X134.074 Y59.940 E8.09444
G1 X133.528 Y60.513 E8.13413
G1 X133.178 Y61.225 E8.17396
G1 X133.147 Y61.402 E8.18300
G1 X133.097 Y62.252 F6600.000
G1 F3000.000
G1 X133.097 Y77.081 E8.92719
G1 X109.897 Y77.081 E10.09149
G1 X109.358 Y77.425 F6600.000
G1 F3000.000
G1 X133.442 Y77.425 E11.30018
G1 X133.442 Y62.031 E12.07275
G1 X133.621 Y61.100 F6600.000
G1 F3000.000
G1 X133.798 Y60.730 E12.09330
G1 X134.309 Y60.192 E12.13056
G1 X134.683 Y59.946 E12.15303
G1 X135.116 Y59.787 E12.17614
G1 X139.147 Y59.765 E12.37846
G1 X139.460 Y59.851 E12.39478
G1 X139.835 Y60.028 E12.41558
G1 X140.367 Y60.509 E12.45156
G1 X140.851 Y61.397 F6600.000
G1 F3000.000
G1 X140.926 Y61.659 E12.46522
G1 X140.926 Y77.425 E13.25649
G1 X201.155 Y77.425 E16.27913
G1 E12.27913 F2400.000
G92 E0
G1 Z0.450 F6600.000
G1 X203.820 Y77.425
G1 Z0.350
G1 E4.00000 F2400.000
G1 F3000.000
G1 X205.398 Y77.425 E4.07917
G1 X205.697 Y77.470 E4.09436
G1 X206.365 Y77.782 E4.13132
G1 X206.901 Y78.292 E4.16850
G1 X207.175 Y78.726 E4.19426
G1 X207.348 Y79.338 E4.22616
G1 X207.348 Y91.997 E4.86145
G1 X207.110 Y92.748 E4.90102
G1 X206.966 Y92.957 E4.91373
G1 X206.353 Y93.565 E4.95705
G1 X206.043 Y93.737 E4.97488
G1 X205.436 Y93.909 E5.00655
G1 X205.312 Y93.909 E5.01274
G1 X204.226 Y93.909 F6600.000
G1 F3000.000
G1 X188.477 Y93.909 E5.80313
G1 X188.477 Y106.862 E6.45316
G1 X188.389 Y107.827 F6600.000
G1 F3000.000
G1 X188.304 Y108.128 E6.46887
G1 X188.031 Y108.562 E6.49457
G1 X187.614 Y108.979 E6.52416
G1 X187.372 Y109.159 E6.53930
G1 X186.564 Y109.429 E6.58207
G1 X182.667 Y109.388 E6.77767
G1 X182.235 Y109.229 E6.80078
G1 X181.862 Y108.984 E6.82314
G1 X181.643 Y108.760 E6.83887
G1 X181.094 Y107.943 F6600.000
G1 F3000.000
G1 X180.994 Y107.480 E6.86263
G1 X180.994 Y93.909 E7.54371
G1 X113.033 Y93.909 E10.95440
G1 E6.95440 F2400.000
G92 E0
G1 Z0.450 F6600.000
G1 X109.617 Y93.909
G1 Z0.350
G1 E4.00000 F2400.000
G1 F3000.000
G1 X107.637 Y93.909 E4.09937
G1 X107.025 Y93.736 E4.13127
G1 X106.592 Y93.463 E4.15697
G1 X106.175 Y93.046 E4.18657
G1 X105.995 Y92.804 E4.20171
G1 X105.724 Y91.999 E4.24432
G1 X105.724 Y79.338 E4.87974
G1 X105.898 Y78.726 E4.91168
G1 X106.188 Y78.274 E4.93864
G1 X106.782 Y77.727 E4.97918
G1 X107.016 Y77.602 E4.99245
G1 X107.637 Y77.425 E5.02484
G1 X108.095 Y77.425 E5.04784
G1 X107.464 Y77.829 F6600.000
G1 F3000.000
G1 X107.133 Y77.927 E5.06513
G1 X106.969 Y78.018 E5.07457
G1 X106.439 Y78.511 E5.11091
G1 X106.221 Y78.848 E5.13104
G1 X106.069 Y79.364 E5.15802
G1 X106.069 Y91.971 E5.79074
G1 X106.289 Y92.622 E5.82520
G1 X106.428 Y92.812 E5.83704
G1 X106.823 Y93.206 E5.86502
G1 X107.147 Y93.412 E5.88431
G1 X107.662 Y93.564 E5.91128
G1 X107.944 Y93.564 E5.92542
G1 E1.92542 F2400.000
G92 E0
G1 Z0.450 F6600.000
G1 X111.360 Y93.564
G1 Z0.350
G1 E4.00000 F2400.000
G1 F3000.000
G1 X181.339 Y93.564 E7.51194
G1 X181.339 Y107.464 E8.20950
G1 X181.405 Y107.793 E8.22636
G1 X181.531 Y108.033 E8.23997
G1 X182.380 Y108.912 F6600.000
G1 F3000.000
G1 X182.755 Y109.054 E8.26010
G1 X186.538 Y109.084 E8.44995
G1 X187.190 Y108.865 E8.48449
G1 X187.380 Y108.725 E8.49632
G1 X187.765 Y108.341 E8.52361
G1 X188.132 Y107.145 F6600.000
G1 F3000.000
G1 X188.132 Y93.564 E9.20519
G1 X204.646 Y93.564 E10.03393
G1 X205.911 Y93.417 F6600.000
G1 F3000.000
G1 X206.161 Y93.278 E10.04829
G1 X206.709 Y92.726 E10.08732
G1 X206.810 Y92.577 E10.09639
G1 X207.003 Y91.970 E10.12833
G1 X207.003 Y79.364 E10.76099
G1 X206.851 Y78.848 E10.78796
G1 X206.646 Y78.525 E10.80719
G1 X206.189 Y78.079 E10.83923
G1 X205.619 Y77.806 E10.87095
G1 X205.384 Y77.770 E10.88285
G1 X205.114 Y77.770 E10.89641
G1 E6.89641 F2400.000
G92 E0
G1 Z0.450 F6600.000
G1 X202.452 Y77.770
G1 Z0.350
G1 E4.00000 F2400.000
G1 F3000.000
G1 X140.581 Y77.770 E7.10507
G1 X140.581 Y61.684 E7.91236
G1 X140.466 Y61.294 E7.93276
G1 X139.632 Y60.313 F6600.000
G1 F3000.000
G1 X139.328 Y60.170 E7.94963
G1 X139.081 Y60.104 E7.96245
G1 X135.203 Y60.122 E8.15706
G1 X134.852 Y60.247 E8.17577
G1 X134.542 Y60.448 E8.19434
G1 X134.380 Y60.614 E8.20595
G1 X133.787 Y61.811 F6600.000
G1 F3000.000
G1 X133.787 Y77.770 E9.00689
G1 X108.818 Y77.770 E10.25997
G1 X108.279 Y78.115 F6600.000
G1 F3000.000
G1 X134.132 Y78.115 E11.55743
G1 X134.132 Y61.725 E12.38002
G1 X134.156 Y61.575 E12.38762
G1 E8.38762 F2400.000
G92 E0
G1 Z0.450 F6600.000
G1 X140.033 Y61.179
G1 Z0.350
G1 E4.00000 F2400.000
G1 F3000.000
G1 X140.107 Y61.295 E4.00690
G1 X140.236 Y61.711 E4.02879
G1 X140.236 Y78.115 E4.85203
G1 X203.750 Y78.115 E8.03952
G1 E4.03952 F2400.000
G92 E0
G1 Z0.450 F6600.000
G1 X205.065 Y93.219
G1 Z0.350
G1 E4.00000 F2400.000
G1 F3000.000
G1 X187.787 Y93.219 E4.86709
G1 X187.787 Y107.429 E5.58022
G1 E1.58022 F2400.000
G92 E0
G1 Z0.450 F6600.000
G1 X181.978 Y108.125
G1 Z0.350
G1 E4.00000 F2400.000
G1 F3000.000
G1 X181.942 Y108.089 E4.00256
G1 X181.724 Y107.660 E4.02672
G1 X181.683 Y107.448 E4.03755
G1 X181.683 Y93.219 E4.75164
G1 X109.687 Y93.219 E8.36483
G1 X108.015 Y92.874 F6600.000
G1 F3000.000
G1 X182.028 Y92.874 E12.07928
G1 X182.028 Y107.435 E12.81000
G1 X182.046 Y107.534 E12.81505
G1 X182.208 Y107.867 E12.83363
G1 X182.555 Y108.214 E12.85826
G1 X182.622 Y108.258 E12.86232
G1 E8.86232 F2400.000
G92 E0
G1 Z0.450 F6600.000
G1 X187.272 Y107.853
G1 Z0.350
G1 E4.00000 F2400.000
G1 F3000.000
G1 X187.339 Y107.750 E4.00620
G1 X187.443 Y107.435 E4.02283
G1 X187.443 Y92.874 E4.75356
G1 X205.354 Y92.874 E5.65247
G1 X205.571 Y92.803 E5.66394
G1 E1.66394 F2400.000
G92 E0
G1 Z0.450 F6600.000
G1 X205.047 Y78.460
G1 Z0.350
G1 E4.00000 F2400.000
G1 F3000.000
G1 X139.891 Y78.460 E7.26992
G1 X139.891 Y61.740 E8.10902
G1 X139.788 Y61.425 E8.12565
G1 X139.711 Y61.309 E8.13266
G1 X139.405 Y61.012 E8.15405
G1 E4.15405 F2400.000
G92 E0
G1 Z0.450 F6600.000
G1 X134.804 Y61.161
G1 Z0.350
G1 E4.00000 F2400.000
G1 F3000.000
G1 X134.656 Y61.309 E4.01046
G1 X134.494 Y61.641 E4.02905
G1 X134.477 Y61.740 E4.03409
G1 X134.477 Y78.460 E4.87318
G1 X107.739 Y78.460 E6.21504
G1 E2.21504 F2400.000
G92 E0
G1 Z0.450 F6600.000
G1 X139.546 Y78.805
G1 Z0.350
G1 E4.00000 F2400.000
G1 F3000.000
G1 X205.335 Y78.805 E7.30167
G1 X205.564 Y78.905 E7.31420
G1 X205.878 Y79.219 E7.33648
G1 X205.969 Y79.452 E7.34902
G1 X205.969 Y91.883 E7.97288
G1 X205.899 Y92.076 E7.98320
G1 X205.553 Y92.440 E8.00839
G1 X205.322 Y92.529 E8.02083
G1 X187.098 Y92.529 E8.93543
G1 X187.098 Y107.403 E9.68186
G1 X187.007 Y107.635 E9.69440
G1 X186.684 Y107.958 E9.71733
G1 X186.451 Y108.049 E9.72987
G1 X183.020 Y108.049 E9.90205
G1 X182.787 Y107.958 E9.91459
G1 X182.473 Y107.645 E9.93687
G1 X182.379 Y107.445 E9.94796
G1 X182.373 Y92.529 E10.69650
G1 X107.751 Y92.529 E14.44150
G1 X107.518 Y92.438 E14.45404
G1 X107.178 Y92.091 E14.47843
G1 X107.104 Y91.883 E14.48952
G1 X107.104 Y79.452 E15.11338
G1 X107.194 Y79.221 E15.12581
G1 X107.557 Y78.874 E15.15101
G1 X107.751 Y78.805 E15.16133
G1 X134.822 Y78.805 E16.51991
G1 X134.822 Y61.759 E17.37536
G1 X134.922 Y61.531 E17.38790
G1 X135.236 Y61.217 E17.41017
G1 X135.468 Y61.126 E17.42271
G1 X138.912 Y61.126 E17.59555
G1 X139.141 Y61.226 E17.60809
G1 X139.455 Y61.540 E17.63037
G1 X139.546 Y61.772 E17.64290
G1 X139.546 Y78.745 E18.49469
G1 X139.201 Y79.150 F6600.000
G1 F3000.000
G1 X205.284 Y79.150 E21.81109
G1 X205.347 Y79.176 E21.81453
G1 X205.597 Y79.427 E21.83231
G1 X205.624 Y79.490 E21.83576
G1 X205.624 Y91.844 E22.45577
G1 X205.597 Y91.908 E22.45921
G1 X205.347 Y92.158 E22.47699
G1 X205.284 Y92.185 E22.48044
G1 X186.753 Y92.185 E23.41042
G1 X186.753 Y107.364 E24.17224
G1 X186.726 Y107.428 E24.17568
G1 X186.476 Y107.678 E24.19346
G1 X186.413 Y107.705 E24.19690
G1 X183.058 Y107.705 E24.36524
G1 X182.995 Y107.678 E24.36869
G1 X182.744 Y107.428 E24.38647
G1 X182.718 Y107.364 E24.38991
G1 X182.718 Y92.185 E25.15173
G1 X107.789 Y92.185 E28.91211
G1 X107.726 Y92.158 E28.91556
G1 X107.475 Y91.908 E28.93334
G1 X107.449 Y91.844 E28.93678
G1 X107.449 Y79.490 E29.55679
G1 X107.475 Y79.427 E29.56024
G1 X107.726 Y79.176 E29.57802
G1 X107.789 Y79.150 E29.58146
G1 X135.167 Y79.150 E30.95543
G1 X135.167 Y61.811 E31.82561
G1 X135.193 Y61.747 E31.82905
G1 X135.443 Y61.497 E31.84684
G1 X135.507 Y61.471 E31.85028
G1 X138.861 Y61.471 E32.01862
G1 X138.924 Y61.497 E32.02206
G1 X139.175 Y61.747 E32.03984
G1 X139.201 Y61.811 E32.04329
G1 X139.201 Y79.090 E32.91045
G1 X138.856 Y79.495 F6600.000
G1 F3000.000
G1 X205.178 Y79.495 E36.23886
G1 X205.279 Y79.596 E36.24603
G1 X205.279 Y91.739 E36.85543
G1 X205.178 Y91.840 E36.86260
G1 X186.408 Y91.840 E37.80458
G1 X186.408 Y107.259 E38.57840
G1 X186.307 Y107.360 E38.58557
G1 X183.164 Y107.360 E38.74330
G1 X183.063 Y107.259 E38.75047
G1 X183.063 Y91.840 E39.52429
G1 X107.895 Y91.840 E43.29668
G1 X107.794 Y91.739 E43.30384
G1 X107.794 Y79.596 E43.91325
G1 X107.895 Y79.495 E43.92041
G1 X135.511 Y79.495 E45.30639
G1 X135.511 Y61.917 E46.18857
G1 X135.612 Y61.815 E46.19574
G1 X138.755 Y61.815 E46.35347
G1 X138.856 Y61.917 E46.36064
G1 X138.856 Y79.435 E47.23981
G1 E43.23981 F2400.000
G92 E0
G1 Z0.450 F6600.000
G1 X183.645 Y87.597
G1 Z0.350
G1 E4.00000 F2400.000
;TYPE:External perimeter
G1 F3000.000
G1 X185.825 Y87.597 E4.10941
G1 X185.825 Y106.777 E5.07197
G1 X183.645 Y106.777 E5.18138
G1 X183.645 Y87.657 E6.14093
G1 E2.14093 F2400.000
G92 E0
G1 Z0.450 F6600.000
G1 X183.749 Y105.975
G1 Z0.350
G1 E4.00000 F2400.000
;TYPE:Solid infill
;WIDTH:0.420691
G1 F3000.000
G1 X184.292 Y106.519 E4.03864
G1 X184.781 Y106.519 E4.06322
G1 X183.904 Y105.642 E4.12558
G1 X183.904 Y105.153 E4.15015
G1 X185.270 Y106.519 E4.24727
G1 X185.567 Y106.519 E4.26221
G1 X185.567 Y106.327 E4.27184
G1 X183.904 Y104.664 E4.39009
G1 X183.904 Y104.176 E4.41466
G1 X185.567 Y105.838 E4.53291
G1 X185.567 Y105.350 E4.55748
G1 X183.904 Y103.687 E4.67573
G1 X183.904 Y103.198 E4.70030
G1 X185.567 Y104.861 E4.81855
G1 X185.567 Y104.372 E4.84312
G1 X183.904 Y102.709 E4.96137
G1 X183.904 Y102.221 E4.98594
G1 X185.567 Y103.883 E5.10419
G1 X185.567 Y103.395 E5.12876
G1 X183.904 Y101.732 E5.24700
G1 X183.904 Y101.243 E5.27158
G1 X185.567 Y102.906 E5.38982
G1 X185.567 Y102.417 E5.41440
G1 X183.904 Y100.754 E5.53264
G1 X183.904 Y100.266 E5.55722
G1 X185.567 Y101.928 E5.67546
G1 X185.567 Y101.440 E5.70004
G1 X183.904 Y99.777 E5.81828
G1 X183.904 Y99.288 E5.84286
G1 X185.567 Y100.951 E5.96110
G1 X185.567 Y100.462 E5.98568
G1 X183.904 Y98.800 E6.10392
G1 X183.904 Y98.311 E6.12850
G1 X185.567 Y99.974 E6.24674
G1 X185.567 Y99.485 E6.27132
G1 X183.904 Y97.822 E6.38956
G1 X183.904 Y97.333 E6.41414
G1 X185.567 Y98.996 E6.53238
G1 X185.567 Y98.507 E6.55696
G1 X183.904 Y96.845 E6.67520
G1 X183.904 Y96.356 E6.69978
G1 X185.567 Y98.019 E6.81802
G1 X185.567 Y97.530 E6.84259
G1 X183.904 Y95.867 E6.96084
G1 X183.904 Y95.379 E6.98541
G1 X185.567 Y97.041 E7.10366
G1 X185.567 Y96.552 E7.12823
G1 X183.904 Y94.890 E7.24648
G1 X183.904 Y94.401 E7.27105
G1 X185.567 Y96.064 E7.38930
G1 X185.567 Y95.575 E7.41387
G1 X183.904 Y93.912 E7.53212
G1 X183.904 Y93.424 E7.55669
G1 X185.567 Y95.086 E7.67494
G1 X185.567 Y94.598 E7.69951
G1 X183.904 Y92.935 E7.81775
G1 X183.904 Y92.446 E7.84233
G1 X185.567 Y94.109 E7.96057
G1 X185.567 Y93.620 E7.98515
G1 X183.904 Y91.957 E8.10339
G1 X183.904 Y91.469 E8.12797
G1 X185.567 Y93.131 E8.24621
G1 X185.567 Y92.643 E8.27079
G1 X183.904 Y90.980 E8.38903
G1 X183.904 Y90.491 E8.41361
G1 X185.567 Y92.154 E8.53185
G1 X185.567 Y91.665 E8.55643
G1 X183.904 Y90.003 E8.67467
G1 X183.904 Y89.514 E8.69925
G1 X185.567 Y91.177 E8.81749
G1 X185.567 Y90.688 E8.84207
G1 X183.904 Y89.025 E8.96031
G1 X183.904 Y88.536 E8.98489
G1 X185.567 Y90.199 E9.10313
G1 X185.567 Y89.710 E9.12771
G1 X183.904 Y88.048 E9.24595
G1 X183.904 Y87.856 E9.25559
G1 X184.201 Y87.856 E9.27053
G1 X185.567 Y89.222 E9.36765
G1 X185.567 Y88.733 E9.39223
G1 X184.690 Y87.856 E9.45459
G1 X185.178 Y87.856 E9.47917
G1 X185.722 Y88.399 E9.51782
