; generated by PrusaSlicer 2.3.1+win64 on 2021-06-01 at 00:26:16 UTC

; 

; external perimeters extrusion width = 0.45mm
; perimeters extrusion width = 0.45mm
; infill extrusion width = 0.45mm
; solid infill extrusion width = 0.45mm
; top infill extrusion width = 0.40mm
; support material extrusion width = 0.35mm
; first layer extrusion width = 0.42mm

M107
M190 S80 ; set bed temperature and wait for it to be reached
M104 S230 ; set temperature
;TYPE:Custom
G28 ; home all axes
G1 Z5 F5000 ; lift nozzle
M109 S230 ; set temperature and wait for it to be reached
G21 ; set units to millimeters
G90 ; use absolute coordinates
M82 ; use absolute distances for extrusion
G92 E0
; Filament gcode
;LAYER_CHANGE
;Z:0.35
;HEIGHT:0.35
G1 Z0.350 F6600.000
G1 E-4.00000 F2400.000
G92 E0
G1 Z0.450 F6600.000
G1 X105.721 Y60.760
G1 Z0.350
G1 E4.00000 F2400.000
;TYPE:Skirt
;WIDTH:0.42
G1 F3000.000
G1 X109.531 Y55.335 E4.33273
G1 X113.931 Y50.311 E4.66786
G1 X118.773 Y45.844 E4.99849
G1 X124.098 Y41.888 E5.33138
G1 X129.812 Y38.521 E5.66427
G1 X135.811 Y35.797 E5.99490
G1 X142.150 Y33.697 E6.33003
G1 X148.589 Y32.302 E6.66067
G1 X155.184 Y31.593 E6.99355
G1 X158.548 Y31.501 E7.16247
G1 X161.907 Y31.593 E7.33106
G1 X168.502 Y32.302 E7.66394
G1 X174.940 Y33.697 E7.99458
G1 X181.271 Y35.793 E8.32923
G1 X187.278 Y38.521 E8.66035
G1 X192.985 Y41.883 E8.99275
G1 X198.310 Y45.838 E9.32564
G1 X202.662 Y49.807 E9.62127
G1 X207.607 Y55.399 E9.99589
G1 X211.373 Y60.766 E10.32491
G1 X214.619 Y66.638 E10.66165
G1 X217.165 Y72.676 E10.99051
G1 X219.080 Y79.030 E11.32356
G1 X220.309 Y85.548 E11.65644
G1 X220.840 Y92.273 E11.99497
G1 X220.661 Y98.788 E12.32205
G1 X219.781 Y105.362 E12.65493
G1 X218.207 Y111.806 E12.98782
G1 X215.957 Y118.045 E13.32071
G1 X213.056 Y124.011 E13.65359
G1 X209.538 Y129.634 E13.98648
G1 X205.442 Y134.851 E14.31936
G1 X200.879 Y139.541 E14.64774
G1 X196.928 Y142.894 E14.90782
G1 X195.634 Y143.889 E14.98970
G1 X190.178 Y147.505 E15.31823
G1 X184.212 Y150.597 E15.65546
G1 X178.117 Y152.977 E15.98383
G1 X171.718 Y154.723 E16.31671
G1 X165.169 Y155.778 E16.64960
G1 X158.545 Y156.131 E16.98249
G1 X151.922 Y155.778 E17.31537
G1 X145.373 Y154.723 E17.64826
G1 X138.974 Y152.978 E17.98114
G1 X132.879 Y150.597 E18.30952
G1 X126.913 Y147.505 E18.64674
G1 X121.456 Y143.889 E18.97528
G1 X116.212 Y139.541 E19.31717
G1 X111.649 Y134.851 E19.64554
G1 X107.553 Y129.634 E19.97842
G1 X104.035 Y124.011 E20.31131
G1 X101.134 Y118.046 E20.64419
G1 X98.884 Y111.806 E20.97708
G1 X97.310 Y105.362 E21.30997
G1 X96.429 Y98.788 E21.64285
G1 X96.251 Y92.273 E21.96994
G1 X96.796 Y85.456 E22.31312
G1 X98.012 Y79.024 E22.64165
G1 X99.959 Y72.593 E22.97888
G1 X102.505 Y66.565 E23.30725
G1 X105.692 Y60.813 E23.63728
G1 X105.993 Y60.980 F6600.000
G1 F3000.000
G1 X109.803 Y55.548 E23.97025
G1 X114.171 Y50.560 E24.30301
G1 X118.993 Y46.109 E24.63233
G1 X124.288 Y42.176 E24.96338
G1 X129.971 Y38.827 E25.29442
G1 X135.946 Y36.114 E25.62374
G1 X142.241 Y34.029 E25.95651
G1 X148.651 Y32.642 E26.28568
G1 X155.210 Y31.936 E26.61672
G1 X158.547 Y31.846 E26.78424
G1 X161.879 Y31.936 E26.95155
G1 X168.439 Y32.642 E27.28266
G1 X174.850 Y34.029 E27.61184
G1 X181.139 Y36.112 E27.94431
G1 X187.119 Y38.827 E28.27392
G1 X192.795 Y42.171 E28.60453
G1 X198.091 Y46.104 E28.93558
G1 X202.423 Y50.055 E29.22985
G1 X207.327 Y55.601 E29.60138
G1 X211.079 Y60.946 E29.92912
G1 X214.303 Y66.776 E30.26346
G1 X216.840 Y72.793 E30.59119
G1 X218.745 Y79.109 E30.92224
G1 X219.967 Y85.591 E31.25328
G1 X220.495 Y92.272 E31.58962
G1 X220.318 Y98.761 E31.91540
G1 X219.442 Y105.301 E32.24655
G1 X217.877 Y111.706 E32.57745
G1 X215.639 Y117.911 E32.90849
G1 X212.754 Y123.844 E33.23954
G1 X209.255 Y129.436 E33.57058
G1 X205.182 Y134.624 E33.90162
G1 X200.631 Y139.300 E34.22907
G1 X196.707 Y142.629 E34.48731
G1 X195.444 Y143.601 E34.56735
G1 X190.003 Y147.208 E34.89495
G1 X184.086 Y150.276 E35.22943
G1 X178.009 Y152.650 E35.55688
G1 X171.645 Y154.386 E35.88792
G1 X165.132 Y155.435 E36.21897
G1 X158.545 Y155.786 E36.55001
G1 X151.958 Y155.435 E36.88105
G1 X145.446 Y154.386 E37.21210
G1 X139.082 Y152.650 E37.54314
G1 X133.005 Y150.276 E37.87059
G1 X127.088 Y147.208 E38.20507
G1 X121.647 Y143.601 E38.53267
G1 X116.459 Y139.300 E38.87088
G1 X111.909 Y134.624 E39.19833
G1 X107.835 Y129.436 E39.52937
G1 X104.336 Y123.844 E39.86042
G1 X101.452 Y117.911 E40.19146
G1 X99.214 Y111.706 E40.52250
G1 X97.648 Y105.298 E40.85355
G1 X96.773 Y98.760 E41.18459
G1 X96.596 Y92.271 E41.51037
G1 X97.135 Y85.520 E41.85025
G1 X98.347 Y79.106 E42.17785
G1 X100.276 Y72.727 E42.51233
G1 X102.815 Y66.716 E42.83978
G1 X105.964 Y61.032 E43.16588
G1 X104.979 Y60.256 F6600.000
G1 F3000.000
G1 X108.838 Y54.767 E43.50262
G1 X113.257 Y49.718 E43.83936
G1 X118.173 Y45.177 E44.17519
G1 X123.571 Y41.162 E44.51286
G1 X129.350 Y37.751 E44.84960
G1 X135.457 Y34.972 E45.18633
G1 X141.842 Y32.851 E45.52400
G1 X148.417 Y31.421 E45.86167
G1 X155.090 Y30.700 E46.19854
G1 X158.507 Y30.604 E46.37009
G1 X161.902 Y30.693 E46.54054
G1 X168.582 Y31.406 E46.87764
G1 X175.141 Y32.822 E47.21439
G1 X181.513 Y34.925 E47.55114
G1 X187.642 Y37.700 E47.88881
G1 X193.535 Y41.172 E48.23207
G1 X198.938 Y45.193 E48.57006
G1 X203.252 Y49.130 E48.86315
G1 X203.890 Y49.777 E48.90876
G1 X208.287 Y54.811 E49.24421
G1 X212.161 Y60.334 E49.58281
G1 X215.408 Y66.206 E49.91956
G1 X218.015 Y72.390 E50.25630
G1 X219.946 Y78.796 E50.59211
G1 X221.190 Y85.371 E50.92795
G1 X221.734 Y92.155 E51.26951
G1 X221.559 Y98.808 E51.60348
G1 X220.672 Y105.473 E51.94095
G1 X219.081 Y112.011 E52.27863
G1 X216.812 Y118.326 E52.61537
G1 X213.876 Y124.380 E52.95303
G1 X210.314 Y130.088 E53.29071
G1 X206.166 Y135.385 E53.62839
G1 X201.481 Y140.207 E53.96577
G1 X197.276 Y143.771 E54.24239
G1 X196.161 Y144.615 E54.31260
G1 X190.571 Y148.314 E54.64898
G1 X184.597 Y151.409 E54.98665
G1 X178.328 Y153.852 E55.32432
G1 X171.871 Y155.607 E55.66013
G1 X165.264 Y156.669 E55.99594
G1 X158.582 Y157.027 E56.33175
G1 X151.900 Y156.677 E56.66756
G1 X145.257 Y155.615 E57.00522
G1 X138.763 Y153.852 E57.34290
G1 X132.494 Y151.409 E57.68057
G1 X126.519 Y148.314 E58.01825
G1 X120.908 Y144.601 E58.35593
G1 X115.709 Y140.300 E58.69455
G1 X110.925 Y135.386 E59.03874
G1 X106.787 Y130.103 E59.37549
G1 X103.223 Y124.396 E59.71316
G1 X100.293 Y118.360 E60.04990
G1 X98.020 Y112.047 E60.38665
G1 X96.428 Y105.528 E60.72340
G1 X95.537 Y98.881 E61.05997
G1 X95.356 Y92.174 E61.39669
G1 X95.886 Y85.482 E61.73359
G1 X97.158 Y78.742 E62.07783
G1 X99.108 Y72.302 E62.41551
G1 X101.731 Y66.106 E62.75318
G1 X104.949 Y60.308 E63.08598
G1 X105.250 Y60.475 F6600.000
G1 F3000.000
G1 X109.103 Y54.987 E63.42251
G1 X113.498 Y49.965 E63.75742
G1 X118.400 Y45.437 E64.09232
G1 X123.770 Y41.444 E64.42815
G1 X129.517 Y38.053 E64.76305
G1 X135.591 Y35.290 E65.09795
G1 X141.942 Y33.182 E65.43377
G1 X148.481 Y31.760 E65.76961
G1 X155.121 Y31.044 E66.10475
G1 X158.512 Y30.949 E66.27503
G1 X161.887 Y31.038 E66.44443
G1 X168.536 Y31.748 E66.78003
G1 X175.059 Y33.157 E67.11494
G1 X181.396 Y35.249 E67.44985
G1 X187.492 Y38.010 E67.78568
G1 X193.337 Y41.454 E68.12615
G1 X198.711 Y45.454 E68.46239
G1 X203.016 Y49.381 E68.75482
G1 X203.633 Y50.008 E68.79896
G1 X208.010 Y55.016 E69.13277
G1 X211.864 Y60.509 E69.46952
G1 X215.094 Y66.349 E69.80443
G1 X217.693 Y72.515 E70.14025
G1 X219.613 Y78.887 E70.47423
G1 X220.850 Y85.426 E70.80823
G1 X221.389 Y92.174 E71.14794
G1 X221.215 Y98.790 E71.48008
G1 X220.332 Y105.419 E71.81571
G1 X218.748 Y111.921 E72.15155
G1 X216.490 Y118.200 E72.48645
G1 X213.570 Y124.221 E72.82227
G1 X210.027 Y129.898 E73.15811
G1 X205.900 Y135.165 E73.49394
G1 X201.240 Y139.961 E73.82953
G1 X197.057 Y143.504 E74.10465
G1 X195.966 Y144.331 E74.17333
G1 X190.404 Y148.012 E74.50805
G1 X184.463 Y151.091 E74.84388
G1 X178.228 Y153.522 E75.17971
G1 X171.807 Y155.268 E75.51369
G1 X165.237 Y156.325 E75.84766
G1 X158.573 Y156.683 E76.18255
G1 X151.928 Y156.333 E76.51653
G1 X145.320 Y155.276 E76.85235
G1 X138.862 Y153.522 E77.18818
G1 X132.627 Y151.091 E77.52402
G1 X126.686 Y148.012 E77.85985
G1 X121.106 Y144.319 E78.19569
G1 X115.936 Y140.040 E78.53246
G1 X111.191 Y135.165 E78.87387
G1 X107.075 Y129.913 E79.20878
G1 X103.530 Y124.238 E79.54460
G1 X100.615 Y118.234 E79.87951
G1 X98.353 Y111.956 E80.21441
G1 X96.769 Y105.473 E80.54933
G1 X95.880 Y98.845 E80.88498
G1 X95.701 Y92.174 E81.21986
G1 X96.229 Y85.519 E81.55492
G1 X97.490 Y78.833 E81.89637
G1 X99.429 Y72.428 E82.23221
G1 X102.037 Y66.266 E82.56804
G1 X105.221 Y60.528 E82.89737
G1 X105.523 Y60.695 F6600.000
G1 F3000.000
G1 X109.380 Y55.193 E83.23460
G1 X113.751 Y50.199 E83.56767
G1 X118.627 Y45.696 E83.90073
G1 X123.968 Y41.726 E84.23472
G1 X129.684 Y38.354 E84.56779
G1 X135.726 Y35.608 E84.90084
G1 X142.042 Y33.512 E85.23483
G1 X148.545 Y32.099 E85.56882
G1 X155.151 Y31.387 E85.90223
G1 X158.517 Y31.294 E86.07125
G1 X161.871 Y31.383 E86.23960
G1 X168.472 Y32.087 E86.57279
G1 X174.977 Y33.492 E86.90677
G1 X181.279 Y35.574 E87.23984
G1 X187.341 Y38.320 E87.57383
G1 X193.138 Y41.736 E87.91153
G1 X198.485 Y45.714 E88.24600
G1 X202.780 Y49.633 E88.53777
G1 X203.377 Y50.239 E88.58045
G1 X207.733 Y55.222 E88.91261
G1 X211.567 Y60.684 E89.24753
G1 X214.780 Y66.491 E89.58059
G1 X217.366 Y72.623 E89.91458
G1 X219.276 Y78.960 E90.24672
G1 X220.506 Y85.463 E90.57888
G1 X221.045 Y92.192 E90.91766
G1 X220.872 Y98.753 E91.24704
G1 X219.991 Y105.364 E91.58176
G1 X218.416 Y111.830 E91.91575
G1 X216.169 Y118.075 E92.24881
G1 X213.264 Y124.062 E92.58279
G1 X209.739 Y129.707 E92.91679
G1 X205.634 Y134.945 E93.25078
G1 X200.998 Y139.714 E93.58456
G1 X196.837 Y143.238 E93.85819
G1 X195.771 Y144.046 E93.92535
G1 X190.237 Y147.710 E94.25841
G1 X184.329 Y150.773 E94.59240
G1 X178.129 Y153.191 E94.92639
G1 X171.725 Y154.933 E95.25945
G1 X165.191 Y155.983 E95.59158
G1 X158.564 Y156.338 E95.92464
G1 X151.955 Y155.989 E96.25678
G1 X145.384 Y154.937 E96.59076
G1 X138.962 Y153.191 E96.92475
G1 X132.761 Y150.773 E97.25874
G1 X126.853 Y147.710 E97.59273
G1 X121.304 Y144.036 E97.92673
G1 X116.163 Y139.780 E98.26165
G1 X111.457 Y134.945 E98.60028
G1 X107.362 Y129.722 E98.93335
G1 X103.836 Y124.079 E99.26733
G1 X100.936 Y118.109 E99.60040
G1 X98.686 Y111.865 E99.93347
G1 X97.106 Y105.400 E100.26746
G1 X96.223 Y98.808 E100.60127
G1 X96.046 Y92.192 E100.93339
G1 X96.572 Y85.555 E101.26753
G1 X97.823 Y78.924 E101.60620
G1 X99.750 Y72.554 E101.94020
G1 X102.343 Y66.425 E102.27418
G1 X105.494 Y60.747 E102.60004
G1 X106.396 Y61.248 F6600.000
G1 F3000.000
G1 X110.188 Y55.839 E102.93155
G1 X114.499 Y50.914 E103.26001
G1 X119.295 Y46.487 E103.58756
G1 X124.548 Y42.583 E103.91602
G1 X130.186 Y39.260 E104.24448
G1 X136.128 Y36.561 E104.57202
G1 X142.341 Y34.503 E104.90048
G1 X148.738 Y33.116 E105.22895
G1 X155.241 Y32.418 E105.55718
G1 X158.531 Y32.329 E105.72239
G1 X161.822 Y32.416 E105.88761
G1 X168.317 Y33.110 E106.21539
G1 X174.714 Y34.493 E106.54385
G1 X180.928 Y36.548 E106.87231
G1 X186.888 Y39.251 E107.20078
G1 X192.543 Y42.583 E107.53016
G1 X197.807 Y46.496 E107.85934
G1 X202.073 Y50.388 E108.14913
G1 X202.609 Y50.932 E108.18743
G1 X206.902 Y55.839 E108.51467
G1 X210.675 Y61.210 E108.84406
G1 X213.845 Y66.935 E109.17252
G1 X216.389 Y72.966 E109.50098
G1 X218.273 Y79.214 E109.82853
G1 X219.485 Y85.628 E110.15607
G1 X220.011 Y92.247 E110.48930
G1 X219.838 Y98.698 E110.81318
G1 X218.969 Y105.200 E111.14238
G1 X217.417 Y111.558 E111.47085
G1 X215.205 Y117.698 E111.79839
G1 X212.345 Y123.585 E112.12685
G1 X208.876 Y129.135 E112.45531
G1 X204.837 Y134.285 E112.78378
G1 X200.274 Y138.975 E113.11215
G1 X196.180 Y142.439 E113.38132
G1 X195.186 Y143.193 E113.44392
G1 X189.736 Y146.804 E113.77201
G1 X183.927 Y149.820 E114.10047
G1 X177.831 Y152.200 E114.42893
G1 X171.516 Y153.919 E114.75739
G1 X165.072 Y154.956 E115.08493
G1 X158.555 Y155.303 E115.41247
G1 X152.037 Y154.958 E115.74002
G1 X145.575 Y153.919 E116.06848
G1 X139.260 Y152.200 E116.39695
G1 X133.163 Y149.820 E116.72541
G1 X127.354 Y146.804 E117.05388
G1 X121.899 Y143.189 E117.38234
G1 X116.845 Y139.001 E117.71173
G1 X112.254 Y134.285 E118.04204
G1 X108.225 Y129.150 E118.36958
G1 X104.754 Y123.602 E118.69804
G1 X101.893 Y117.715 E119.02650
G1 X99.674 Y111.558 E119.35496
G1 X98.121 Y105.200 E119.68343
G1 X97.252 Y98.698 E120.01263
G1 X97.080 Y92.247 E120.33651
G1 X97.601 Y85.665 E120.66788
G1 X98.822 Y79.197 E120.99821
G1 X100.714 Y72.931 E121.32667
G1 X103.261 Y66.902 E121.65513
G1 X106.367 Y61.300 E121.97660
G1 X106.668 Y61.467 F6600.000
G1 F3000.000
G1 X110.454 Y56.059 E122.30789
G1 X114.740 Y51.161 E122.63451
G1 X119.522 Y46.747 E122.96113
G1 X124.746 Y42.865 E123.28776
G1 X130.353 Y39.561 E123.61438
G1 X136.263 Y36.879 E123.94008
G1 X142.441 Y34.833 E124.26670
G1 X148.802 Y33.455 E124.59332
G1 X155.271 Y32.762 E124.91982
G1 X158.536 Y32.674 E125.08377
G1 X161.806 Y32.761 E125.24795
G1 X168.271 Y33.452 E125.57422
G1 X174.632 Y34.828 E125.90084
G1 X180.811 Y36.872 E126.22747
G1 X186.737 Y39.561 E126.55409
G1 X192.345 Y42.865 E126.88071
G1 X197.581 Y46.757 E127.20812
G1 X201.837 Y50.640 E127.49725
G1 X202.352 Y51.163 E127.53409
G1 X206.625 Y56.045 E127.85970
G1 X210.378 Y61.385 E128.18724
G1 X213.531 Y67.078 E128.51386
G1 X216.062 Y73.074 E128.84048
G1 X217.936 Y79.288 E129.16618
G1 X219.144 Y85.683 E129.49280
G1 X219.667 Y92.265 E129.82418
G1 X219.494 Y98.680 E130.14622
G1 X218.629 Y105.145 E130.47358
G1 X217.084 Y111.467 E130.80021
G1 X214.883 Y117.573 E131.12591
G1 X212.039 Y123.426 E131.45253
G1 X208.589 Y128.945 E131.77915
G1 X204.571 Y134.065 E132.10577
G1 X200.033 Y138.729 E132.43235
G1 X195.960 Y142.173 E132.70003
G1 X194.991 Y142.908 E132.76111
G1 X189.569 Y146.503 E133.08754
G1 X183.793 Y149.502 E133.41417
G1 X177.731 Y151.870 E133.74079
G1 X171.452 Y153.580 E134.06741
G1 X165.044 Y154.612 E134.39311
G1 X158.564 Y154.958 E134.71881
G1 X152.065 Y154.614 E135.04543
G1 X145.639 Y153.580 E135.37205
G1 X139.359 Y151.870 E135.69868
G1 X133.297 Y149.502 E136.02530
G1 X127.521 Y146.503 E136.35192
G1 X122.097 Y142.906 E136.67854
G1 X117.072 Y138.742 E137.00608
G1 X112.519 Y134.065 E137.33363
G1 X108.513 Y128.960 E137.65933
G1 X105.060 Y123.442 E137.98595
G1 X102.214 Y117.589 E138.31257
G1 X100.007 Y111.467 E138.63919
G1 X98.462 Y105.145 E138.96581
G1 X97.597 Y98.680 E139.29317
G1 X97.424 Y92.265 E139.61521
G1 X97.944 Y85.701 E139.94566
G1 X99.154 Y79.288 E140.27321
G1 X101.035 Y73.057 E140.59983
G1 X103.568 Y67.062 E140.92645
G1 X106.639 Y61.519 E141.24445
G1 X106.940 Y61.686 F6600.000
G1 F3000.000
G1 X107.010 Y61.560 E141.25169
G1 X110.731 Y56.265 E141.57647
G1 X114.993 Y51.395 E141.90125
G1 X119.749 Y47.006 E142.22603
G1 X124.944 Y43.148 E142.55081
G1 X130.520 Y39.863 E142.87559
G1 X136.397 Y37.197 E143.19945
G1 X142.541 Y35.163 E143.52423
G1 X148.866 Y33.794 E143.84901
G1 X155.300 Y33.105 E144.17379
G1 X158.541 Y33.019 E144.33647
G1 X161.790 Y33.105 E144.49960
G1 X168.225 Y33.794 E144.82438
G1 X174.550 Y35.163 E145.14916
G1 X180.694 Y37.197 E145.47394
G1 X186.587 Y39.872 E145.79872
G1 X192.162 Y43.158 E146.12350
G1 X197.355 Y47.017 E146.44822
G1 X201.601 Y50.892 E146.73669
G1 X202.103 Y51.401 E146.77259
G1 X206.360 Y56.265 E147.09696
G1 X210.080 Y61.560 E147.42174
G1 X213.217 Y67.221 E147.74652
G1 X215.734 Y73.183 E148.07130
G1 X217.603 Y79.378 E148.39608
G1 X218.803 Y85.738 E148.72085
G1 X219.322 Y92.283 E149.05038
G1 X219.149 Y98.661 E149.37058
G1 X218.288 Y105.090 E149.69611
G1 X216.751 Y111.376 E150.02089
G1 X214.562 Y117.447 E150.34475
G1 X211.733 Y123.267 E150.66953
G1 X208.301 Y128.754 E150.99431
G1 X204.306 Y133.845 E151.31908
G1 X199.792 Y138.482 E151.64386
G1 X195.741 Y141.907 E151.91006
G1 X194.795 Y142.624 E151.96963
G1 X189.402 Y146.201 E152.29441
G1 X183.659 Y149.184 E152.61919
G1 X177.632 Y151.540 E152.94397
G1 X171.388 Y153.241 E153.26875
G1 X165.017 Y154.268 E153.59261
G1 X158.554 Y154.613 E153.91739
G1 X152.092 Y154.270 E154.24216
G1 X145.703 Y153.241 E154.56694
G1 X139.459 Y151.540 E154.89172
G1 X133.431 Y149.184 E155.21650
G1 X127.689 Y146.201 E155.54128
G1 X122.295 Y142.624 E155.86606
G1 X117.299 Y138.482 E156.19176
