; generated by PrusaSlicer 2.3.1+win64 on 2021-06-04 at 20:05:59 UTC

; 

; external perimeters extrusion width = 0.45mm
; perimeters extrusion width = 0.45mm
; infill extrusion width = 0.45mm
; solid infill extrusion width = 0.45mm
; top infill extrusion width = 0.40mm
; support material extrusion width = 0.35mm
; first layer extrusion width = 0.42mm

M107
M190 S80 ; set bed temperature and wait for it to be reached
M104 S230 ; set temperature
;TYPE:Custom
G28 ; home all axes
G1 Z5 F5000 ; lift nozzle
M109 S230 ; set temperature and wait for it to be reached
G21 ; set units to millimeters
G90 ; use absolute coordinates
M82 ; use absolute distances for extrusion
G92 E0
; Filament gcode
;LAYER_CHANGE
;Z:0.35
;HEIGHT:0.35
G1 Z0.350 F6600.000
G1 E-4.00000 F2400.000
G92 E0
G1 Z0.450 F6600.000
G1 X109.606 Y87.181
G1 Z0.350
G1 E4.00000 F2400.000
;TYPE:Skirt
;WIDTH:0.42
G1 F3000.000
G1 X114.006 Y82.157 E4.33514
G1 X118.848 Y77.689 E4.66577
G1 X124.172 Y73.734 E4.99865
G1 X129.887 Y70.366 E5.33154
G1 X135.885 Y67.642 E5.66217
G1 X142.224 Y65.542 E5.99731
G1 X148.663 Y64.148 E6.32794
G1 X155.258 Y63.438 E6.66082
G1 X158.623 Y63.347 E6.82974
G1 X161.981 Y63.438 E6.99834
G1 X168.576 Y64.148 E7.33122
G1 X175.015 Y65.542 E7.66185
G1 X181.354 Y67.642 E7.99699
G1 X187.352 Y70.366 E8.32762
G1 X193.067 Y73.734 E8.66051
G1 X198.392 Y77.689 E8.99339
G1 X203.234 Y82.157 E9.32402
G1 X207.633 Y87.180 E9.65916
G1 X211.444 Y92.606 E9.99189
G1 X214.660 Y98.411 E10.32493
G1 X217.206 Y104.438 E10.65331
G1 X219.173 Y110.960 E10.99520
G1 X220.384 Y117.394 E11.32373
G1 X220.913 Y124.047 E11.65870
G1 X220.736 Y130.633 E11.98933
G1 X219.855 Y137.208 E12.32222
G1 X218.281 Y143.651 E12.65511
G1 X216.031 Y149.891 E12.98799
G1 X213.130 Y155.856 E13.32088
G1 X209.612 Y161.479 E13.65376
G1 X205.516 Y166.696 E13.98665
G1 X200.953 Y171.386 E14.31503
G1 X195.709 Y175.734 E14.65691
G1 X190.252 Y179.351 E14.98544
G1 X184.286 Y182.442 E15.32267
G1 X178.191 Y184.823 E15.65104
G1 X171.792 Y186.568 E15.98393
G1 X165.243 Y187.623 E16.31681
G1 X158.620 Y187.976 E16.64970
G1 X151.996 Y187.623 E16.98259
G1 X145.447 Y186.568 E17.31547
G1 X139.048 Y184.823 E17.64836
G1 X132.953 Y182.442 E17.97673
G1 X126.987 Y179.351 E18.31396
G1 X121.531 Y175.734 E18.64249
G1 X116.286 Y171.386 E18.98438
G1 X111.723 Y166.696 E19.31275
G1 X107.627 Y161.479 E19.64564
G1 X104.109 Y155.856 E19.97852
G1 X101.208 Y149.891 E20.31141
G1 X98.958 Y143.651 E20.64429
G1 X97.384 Y137.208 E20.97718
G1 X96.504 Y130.633 E21.31006
G1 X96.326 Y124.048 E21.64070
G1 X96.856 Y117.391 E21.97583
G1 X98.066 Y110.960 E22.30421
G1 X100.033 Y104.438 E22.64610
G1 X102.579 Y98.411 E22.97447
G1 X105.795 Y92.606 E23.30751
G1 X109.571 Y87.230 E23.63723
G1 X109.853 Y87.428 F6600.000
G1 F3000.000
G1 X114.245 Y82.405 E23.97208
G1 X119.068 Y77.955 E24.30140
G1 X124.363 Y74.021 E24.63244
G1 X130.046 Y70.672 E24.96349
G1 X136.021 Y67.960 E25.29281
G1 X142.315 Y65.875 E25.62557
G1 X148.726 Y64.487 E25.95475
G1 X155.284 Y63.782 E26.28579
G1 X158.621 Y63.691 E26.45331
G1 X161.954 Y63.782 E26.62061
G1 X168.514 Y64.487 E26.95172
G1 X174.924 Y65.875 E27.28090
G1 X181.219 Y67.960 E27.61367
G1 X187.194 Y70.672 E27.94299
G1 X192.877 Y74.021 E28.27403
G1 X198.172 Y77.955 E28.60507
G1 X202.994 Y82.405 E28.93439
G1 X207.362 Y87.393 E29.26716
G1 X211.154 Y92.791 E29.59820
G1 X214.350 Y98.562 E29.92924
G1 X216.889 Y104.572 E30.25669
G1 X218.834 Y111.024 E30.59490
G1 X220.041 Y117.436 E30.92235
G1 X220.568 Y124.049 E31.25526
G1 X220.392 Y130.606 E31.58444
G1 X219.516 Y137.144 E31.91548
G1 X217.951 Y143.552 E32.24653
G1 X215.713 Y149.757 E32.57757
G1 X212.829 Y155.689 E32.90861
G1 X209.330 Y161.281 E33.23966
G1 X205.256 Y166.469 E33.57070
G1 X200.706 Y171.145 E33.89815
G1 X195.518 Y175.446 E34.23636
G1 X190.077 Y179.053 E34.56395
G1 X184.160 Y182.121 E34.89844
G1 X178.083 Y184.495 E35.22589
G1 X171.719 Y186.231 E35.55693
G1 X165.207 Y187.280 E35.88798
G1 X158.620 Y187.631 E36.21902
G1 X152.033 Y187.280 E36.55006
G1 X145.520 Y186.231 E36.88111
G1 X139.156 Y184.495 E37.21215
G1 X133.079 Y182.121 E37.53960
G1 X127.162 Y179.053 E37.87408
G1 X121.721 Y175.446 E38.20168
G1 X116.533 Y171.145 E38.53988
G1 X111.983 Y166.469 E38.86734
G1 X107.910 Y161.281 E39.19838
G1 X104.411 Y155.689 E39.52942
G1 X101.526 Y149.757 E39.86047
G1 X99.288 Y143.552 E40.19151
G1 X97.723 Y137.144 E40.52255
G1 X96.847 Y130.606 E40.85360
G1 X96.671 Y124.046 E41.18292
G1 X97.198 Y117.436 E41.51568
G1 X98.420 Y110.957 E41.84658
G1 X100.324 Y104.641 E42.17763
G1 X102.750 Y98.887 E42.49105
G1 X106.122 Y92.736 E42.84307
G1 X109.819 Y87.477 E43.16570
G1 X108.947 Y86.568 F6600.000
G1 F3000.000
G1 X113.383 Y81.510 E43.50336
G1 X118.318 Y76.963 E43.84010
G1 X123.723 Y72.956 E44.17777
G1 X129.523 Y69.545 E44.51545
G1 X135.635 Y66.777 E44.85219
G1 X142.007 Y64.672 E45.18895
G1 X148.583 Y63.252 E45.52661
G1 X155.262 Y62.539 E45.86370
G1 X158.610 Y62.450 E46.03179
G1 X161.977 Y62.539 E46.20081
G1 X168.656 Y63.252 E46.53791
G1 X175.233 Y64.672 E46.87558
G1 X181.604 Y66.777 E47.21232
G1 X187.733 Y69.553 E47.54999
G1 X193.532 Y72.966 E47.88767
G1 X198.921 Y76.963 E48.22440
G1 X203.856 Y81.510 E48.56115
G1 X208.293 Y86.568 E48.89883
G1 X212.236 Y92.180 E49.24302
G1 X215.491 Y98.069 E49.58071
G1 X218.101 Y104.270 E49.91837
G1 X220.030 Y110.678 E50.25419
G1 X221.272 Y117.271 E50.59094
G1 X221.808 Y123.960 E50.92768
G1 X221.633 Y130.668 E51.26443
G1 X220.743 Y137.337 E51.60209
G1 X219.156 Y143.856 E51.93884
G1 X216.886 Y150.171 E52.27559
G1 X213.951 Y156.225 E52.61326
G1 X210.389 Y161.933 E52.95093
G1 X206.240 Y167.231 E53.28862
G1 X201.456 Y172.145 E53.63281
G1 X196.287 Y176.424 E53.96957
G1 X190.694 Y180.131 E54.30631
G1 X184.739 Y183.224 E54.64305
G1 X178.473 Y185.674 E54.98073
G1 X172.000 Y187.441 E55.31747
G1 X165.376 Y188.511 E55.65421
G1 X158.676 Y188.873 E55.99094
G1 X151.975 Y188.523 E56.32769
G1 X145.331 Y187.460 E56.66537
G1 X138.837 Y185.698 E57.00304
G1 X132.568 Y183.255 E57.34072
G1 X126.594 Y180.159 E57.67840
G1 X120.878 Y176.369 E58.02259
G1 X115.729 Y172.095 E58.35841
G1 X111.049 Y167.287 E58.69515
G1 X106.904 Y162.010 E59.03190
G1 X103.352 Y156.339 E59.36774
G1 X100.353 Y150.171 E59.71193
G1 X98.078 Y143.838 E60.04961
G1 X96.489 Y137.301 E60.38728
G1 X95.605 Y130.649 E60.72401
G1 X95.432 Y123.923 E61.06170
G1 X95.977 Y117.198 E61.40031
G1 X97.232 Y110.587 E61.73799
G1 X99.182 Y104.147 E62.07567
G1 X101.806 Y97.951 E62.41334
G1 X105.073 Y92.069 E62.75102
G1 X108.912 Y86.617 E63.08568
G1 X109.193 Y86.815 F6600.000
G1 F3000.000
G1 X113.624 Y81.757 E63.42313
G1 X118.531 Y77.235 E63.75803
G1 X123.906 Y73.248 E64.09386
G1 X129.673 Y69.855 E64.42969
G1 X135.752 Y67.101 E64.76460
G1 X142.088 Y65.007 E65.09952
G1 X148.629 Y63.594 E65.43534
G1 X155.278 Y62.883 E65.77093
G1 X158.606 Y62.795 E65.93799
G1 X161.961 Y62.883 E66.10643
G1 X168.610 Y63.594 E66.44203
G1 X175.151 Y65.007 E66.77786
G1 X181.487 Y67.101 E67.11277
G1 X187.582 Y69.864 E67.44860
G1 X193.349 Y73.258 E67.78443
G1 X198.708 Y77.235 E68.11933
G1 X203.615 Y81.757 E68.45423
G1 X208.027 Y86.789 E68.79007
G1 X211.938 Y92.355 E69.13148
G1 X215.177 Y98.211 E69.46732
G1 X217.774 Y104.378 E69.80314
G1 X219.692 Y110.750 E70.13713
G1 X220.929 Y117.308 E70.47204
G1 X221.463 Y123.960 E70.80694
G1 X221.289 Y130.631 E71.14185
G1 X220.406 Y137.264 E71.47767
G1 X218.823 Y143.766 E71.81350
G1 X216.565 Y150.045 E72.14840
G1 X213.645 Y156.066 E72.48423
G1 X210.101 Y161.743 E72.82007
G1 X205.974 Y167.011 E73.15590
G1 X201.229 Y171.885 E73.49731
G1 X196.089 Y176.142 E73.83223
G1 X190.527 Y179.829 E74.16713
G1 X184.605 Y182.906 E74.50204
G1 X178.373 Y185.344 E74.83787
G1 X171.918 Y187.105 E75.17370
G1 X165.330 Y188.169 E75.50859
G1 X158.666 Y188.528 E75.84349
G1 X152.002 Y188.179 E76.17840
G1 X145.394 Y187.121 E76.51423
G1 X138.937 Y185.367 E76.85007
G1 X132.702 Y182.937 E77.18590
G1 X126.761 Y179.857 E77.52174
G1 X121.091 Y176.098 E77.86314
G1 X115.970 Y171.848 E78.19713
G1 X111.314 Y167.067 E78.53204
G1 X107.192 Y161.819 E78.86694
G1 X103.649 Y156.164 E79.20186
G1 X100.675 Y150.045 E79.54326
G1 X98.411 Y143.748 E79.87910
G1 X96.830 Y137.246 E80.21492
G1 X95.950 Y130.631 E80.54982
G1 X95.777 Y123.941 E80.88566
G1 X96.318 Y117.253 E81.22243
G1 X97.565 Y110.678 E81.55827
G1 X99.503 Y104.273 E81.89410
G1 X102.112 Y98.111 E82.22994
G1 X105.360 Y92.260 E82.56577
G1 X109.159 Y86.864 E82.89696
G1 X109.440 Y87.062 F6600.000
G1 F3000.000
G1 X113.864 Y82.004 E83.23419
G1 X118.744 Y77.506 E83.56725
G1 X124.089 Y73.541 E83.90124
G1 X129.824 Y70.166 E84.23523
G1 X135.869 Y67.426 E84.56830
G1 X142.188 Y65.338 E84.90229
G1 X148.693 Y63.933 E85.23628
G1 X155.294 Y63.228 E85.56945
G1 X158.610 Y63.140 E85.73593
G1 X161.945 Y63.228 E85.90334
G1 X168.546 Y63.933 E86.23653
G1 X175.052 Y65.338 E86.57051
G1 X181.353 Y67.419 E86.90358
G1 X187.415 Y70.166 E87.23757
G1 X193.151 Y73.541 E87.57156
G1 X198.481 Y77.495 E87.90462
G1 X203.375 Y82.004 E88.23860
G1 X207.762 Y87.009 E88.57259
G1 X211.641 Y92.530 E88.91122
G1 X214.862 Y98.353 E89.24521
G1 X217.446 Y104.486 E89.57920
G1 X219.359 Y110.841 E89.91226
G1 X220.588 Y117.363 E90.24533
G1 X221.119 Y123.979 E90.57840
G1 X220.945 Y130.613 E90.91147
G1 X220.066 Y137.209 E91.24545
G1 X218.490 Y143.675 E91.57944
G1 X216.243 Y149.920 E91.91250
G1 X213.338 Y155.908 E92.24649
G1 X209.813 Y161.552 E92.58048
G1 X205.708 Y166.791 E92.91448
G1 X201.002 Y171.626 E93.25310
G1 X195.876 Y175.870 E93.58710
G1 X190.344 Y179.536 E93.92016
G1 X184.454 Y182.596 E94.25323
G1 X178.256 Y185.019 E94.58722
G1 X171.854 Y186.766 E94.92029
G1 X165.302 Y187.825 E95.25335
G1 X158.675 Y188.183 E95.58641
G1 X152.029 Y187.835 E95.92039
G1 X145.458 Y186.782 E96.25438
G1 X139.036 Y185.037 E96.58838
G1 X132.836 Y182.619 E96.92237
G1 X126.928 Y179.555 E97.25636
G1 X121.304 Y175.826 E97.59498
G1 X116.197 Y171.588 E97.92805
G1 X111.568 Y166.833 E98.26112
G1 X107.469 Y161.613 E98.59418
G1 X103.946 Y155.989 E98.92726
G1 X100.996 Y149.920 E99.26589
G1 X98.744 Y143.658 E99.59988
G1 X97.170 Y137.191 E99.93386
G1 X96.294 Y130.613 E100.26692
G1 X96.121 Y123.960 E100.60092
G1 X96.659 Y117.308 E100.93584
G1 X97.898 Y110.769 E101.26984
G1 X99.824 Y104.399 E101.60383
G1 X102.418 Y98.270 E101.93782
G1 X105.647 Y92.451 E102.27181
G1 X109.406 Y87.111 E102.59953
G1 X110.250 Y87.705 F6600.000
G1 F3000.000
G1 X114.586 Y82.746 E102.93010
G1 X119.383 Y78.321 E103.25764
G1 X124.637 Y74.418 E103.58611
G1 X130.277 Y71.097 E103.91457
G1 X136.237 Y68.393 E104.24303
G1 X142.451 Y66.338 E104.57149
G1 X148.848 Y64.956 E104.89996
G1 X155.343 Y64.262 E105.22773
G1 X158.606 Y64.174 E105.39156
G1 X161.897 Y64.262 E105.55678
G1 X168.391 Y64.956 E105.88456
G1 X174.788 Y66.338 E106.21302
G1 X181.002 Y68.393 E106.54148
G1 X186.963 Y71.097 E106.86995
G1 X192.602 Y74.418 E107.19841
G1 X197.842 Y78.309 E107.52595
G1 X202.653 Y82.746 E107.85441
G1 X206.965 Y87.670 E108.18287
G1 X210.749 Y93.055 E108.51318
G1 X213.920 Y98.781 E108.84164
G1 X216.464 Y104.811 E109.17011
G1 X218.348 Y111.060 E109.49765
G1 X219.561 Y117.491 E109.82612
G1 X220.085 Y124.015 E110.15458
G1 X219.911 Y130.558 E110.48305
G1 X219.047 Y137.027 E110.81059
G1 X217.497 Y143.386 E111.13905
G1 X215.279 Y149.544 E111.46751
G1 X212.420 Y155.431 E111.79598
G1 X208.951 Y160.981 E112.12444
G1 X204.911 Y166.130 E112.45290
G1 X200.320 Y170.847 E112.78321
G1 X195.281 Y175.023 E113.11168
G1 X189.842 Y178.631 E113.43922
G1 X184.035 Y181.650 E113.76769
G1 X177.940 Y184.034 E114.09615
G1 X171.626 Y185.757 E114.42462
G1 X165.183 Y186.797 E114.75216
G1 X158.647 Y187.148 E115.08062
G1 X152.111 Y186.803 E115.40908
G1 X145.649 Y185.765 E115.73754
G1 X139.334 Y184.046 E116.06601
G1 X133.238 Y181.665 E116.39447
G1 X127.429 Y178.650 E116.72293
G1 X121.943 Y175.012 E117.05324
G1 X116.919 Y170.847 E117.38079
G1 X112.352 Y166.158 E117.70926
G1 X108.310 Y161.011 E118.03772
G1 X104.838 Y155.463 E118.36618
G1 X101.960 Y149.544 E118.69649
G1 X99.743 Y143.386 E119.02495
G1 X98.192 Y137.027 E119.35341
G1 X97.328 Y130.558 E119.68095
G1 X97.155 Y124.015 E120.00942
G1 X97.680 Y117.473 E120.33881
G1 X98.896 Y111.042 E120.66727
G1 X100.788 Y104.777 E120.99574
G1 X103.336 Y98.748 E121.32420
G1 X106.510 Y93.024 E121.65266
G1 X110.215 Y87.754 E121.97599
G1 X110.497 Y87.951 F6600.000
G1 F3000.000
G1 X114.827 Y82.994 E122.30635
G1 X119.596 Y78.592 E122.63205
G1 X124.820 Y74.711 E122.95867
G1 X130.428 Y71.407 E123.28529
G1 X136.354 Y68.718 E123.61191
G1 X142.533 Y66.673 E123.93853
G1 X148.894 Y65.298 E124.26515
G1 X155.359 Y64.606 E124.59143
G1 X158.610 Y64.519 E124.75468
G1 X161.881 Y64.606 E124.91886
G1 X168.345 Y65.298 E125.24514
G1 X174.706 Y66.673 E125.57176
G1 X180.885 Y68.718 E125.89838
G1 X186.812 Y71.407 E126.22500
G1 X192.419 Y74.711 E126.55163
G1 X197.629 Y78.580 E126.87733
G1 X202.413 Y82.994 E127.20395
G1 X206.700 Y87.890 E127.53057
G1 X210.452 Y93.230 E127.85811
G1 X213.605 Y98.923 E128.18473
G1 X216.136 Y104.920 E128.51135
G1 X218.015 Y111.151 E128.83797
G1 X219.221 Y117.546 E129.16459
G1 X219.740 Y124.034 E129.49122
G1 X219.567 Y130.540 E129.81784
G1 X218.706 Y136.972 E130.14354
G1 X217.164 Y143.295 E130.47016
G1 X214.958 Y149.418 E130.79678
G1 X212.113 Y155.272 E131.12340
G1 X208.663 Y160.790 E131.45002
G1 X204.646 Y165.910 E131.77665
G1 X200.093 Y170.587 E132.10419
G1 X195.083 Y174.741 E132.43081
G1 X189.659 Y178.339 E132.75743
G1 X183.884 Y181.340 E133.08406
G1 X177.823 Y183.710 E133.41068
G1 X171.544 Y185.422 E133.73730
G1 X165.137 Y186.455 E134.06300
G1 X158.638 Y186.803 E134.38962
G1 X152.139 Y186.459 E134.71624
G1 X145.713 Y185.426 E135.04286
G1 X139.434 Y183.715 E135.36948
G1 X133.372 Y181.347 E135.69610
G1 X127.596 Y178.348 E136.02272
G1 X122.157 Y174.741 E136.35027
G1 X117.146 Y170.587 E136.67689
G1 X112.606 Y165.924 E137.00351
G1 X108.587 Y160.805 E137.33013
G1 X105.135 Y155.288 E137.65676
G1 X102.282 Y149.418 E137.98430
G1 X100.076 Y143.295 E138.31092
G1 X98.533 Y136.972 E138.63754
G1 X97.673 Y130.540 E138.96324
G1 X97.499 Y124.034 E139.28986
G1 X98.021 Y117.528 E139.61740
G1 X99.229 Y111.133 E139.94402
G1 X101.110 Y104.902 E140.27065
G1 X103.642 Y98.907 E140.59727
G1 X106.797 Y93.215 E140.92389
G1 X110.462 Y88.001 E141.24374
G1 X110.743 Y88.198 F6600.000
G1 F3000.000
G1 X115.067 Y83.241 E141.57388
G1 X119.823 Y78.852 E141.89866
G1 X125.019 Y74.993 E142.22344
G1 X130.595 Y71.709 E142.54822
G1 X136.471 Y69.042 E142.87208
G1 X142.615 Y67.009 E143.19686
G1 X148.940 Y65.640 E143.52164
G1 X155.375 Y64.951 E143.84641
G1 X158.615 Y64.864 E144.00909
G1 X161.865 Y64.951 E144.17223
G1 X168.299 Y65.640 E144.49701
G1 X174.624 Y67.009 E144.82179
G1 X180.768 Y69.042 E145.14657
G1 X186.661 Y71.717 E145.47134
G1 X192.236 Y75.003 E145.79612
G1 X197.416 Y78.852 E146.11998
G1 X202.172 Y83.241 E146.44476
G1 X206.434 Y88.110 E146.76954
G1 X210.155 Y93.406 E147.09432
G1 X213.291 Y99.066 E147.41910
G1 X215.809 Y105.028 E147.74388
G1 X217.678 Y111.224 E148.06866
G1 X218.878 Y117.583 E148.39344
G1 X219.396 Y124.052 E148.71914
G1 X219.222 Y130.521 E149.04391
G1 X218.366 Y136.917 E149.36777
G1 X216.831 Y143.204 E149.69255
G1 X214.636 Y149.292 E150.01733
G1 X211.807 Y155.113 E150.34211
G1 X208.375 Y160.599 E150.66689
G1 X204.380 Y165.690 E150.99167
G1 X199.866 Y170.327 E151.31645
G1 X194.870 Y174.469 E151.64215
G1 X189.476 Y178.046 E151.96693
G1 X183.733 Y181.029 E152.29170
G1 X177.706 Y183.385 E152.61648
G1 X171.462 Y185.087 E152.94126
G1 X165.091 Y186.113 E153.26512
G1 X158.629 Y186.459 E153.58990
G1 X152.166 Y186.115 E153.91468
G1 X145.777 Y185.087 E154.23946
G1 X139.533 Y183.385 E154.56424
G1 X133.506 Y181.029 E154.88902
G1 X127.763 Y178.046 E155.21380
G1 X122.370 Y174.469 E155.53858
G1 X117.373 Y170.327 E155.86427
G1 X112.859 Y165.690 E156.18905
G1 X108.864 Y160.599 E156.51383
G1 X105.432 Y155.113 E156.83861
G1 X102.603 Y149.292 E157.16339
G1 X100.408 Y143.204 E157.48817
G1 X98.874 Y136.917 E157.81295
G1 X98.017 Y130.521 E158.13681
G1 X97.844 Y124.052 E158.46159
G1 X98.362 Y117.583 E158.78729
G1 X99.562 Y111.224 E159.11206
G1 X101.431 Y105.028 E159.43684
G1 X103.948 Y99.066 E159.76162
G1 X107.085 Y93.406 E160.08640
