; generated by PrusaSlicer 2.3.1+win64 on 2021-06-09 at 20:21:02 UTC

; 

; external perimeters extrusion width = 0.45mm
; perimeters extrusion width = 0.45mm
; infill extrusion width = 0.45mm
; solid infill extrusion width = 0.45mm
; top infill extrusion width = 0.40mm
; support material extrusion width = 0.35mm
; first layer extrusion width = 0.42mm

M107
M190 S80 ; set bed temperature and wait for it to be reached
M104 S230 ; set temperature
;TYPE:Custom
G28 ; home all axes
G1 Z5 F5000 ; lift nozzle
M109 S230 ; set temperature and wait for it to be reached
G21 ; set units to millimeters
G90 ; use absolute coordinates
M82 ; use absolute distances for extrusion
G92 E0
; Filament gcode
;LAYER_CHANGE
;Z:0.35
;HEIGHT:0.35
G1 Z0.350 F6600.000
G1 E-4.00000 F2400.000
G92 E0
G1 Z0.450 F6600.000
G1 X112.991 Y72.904
G1 Z0.350
G1 E4.00000 F2400.000
;TYPE:Skirt
;WIDTH:0.42
G1 F1800.000
G1 X122.045 Y60.475 E4.77173
G1 X130.481 Y52.001 E5.37180
G1 X131.084 Y51.630 E5.40734
G1 X131.775 Y51.488 E5.44271
G1 X153.516 Y51.332 E6.53387
G1 X154.217 Y51.458 E6.56959
G1 X181.047 Y61.507 E8.00743
G1 X181.660 Y61.914 E8.04436
G1 X183.739 Y63.993 E8.19192
G1 X184.033 Y64.384 E8.21644
G1 X184.297 Y65.213 E8.26014
G1 X186.208 Y87.943 E9.40489
G1 X186.054 Y106.750 E10.34876
G1 X185.942 Y107.390 E10.38134
G1 X185.490 Y108.130 E10.42487
G1 X153.792 Y140.929 E12.71401
G1 X143.285 Y148.778 E13.37220
G1 X142.310 Y149.180 E13.42514
G1 X141.735 Y149.277 E13.45440
G1 X120.944 Y149.433 E14.49783
G1 X120.077 Y149.426 E14.54133
G1 X119.578 Y149.321 E14.56691
G1 X118.820 Y148.853 E14.61164
G1 X106.433 Y136.452 E15.49129
G1 X106.168 Y136.037 E15.51599
G1 X102.913 Y129.089 E15.90106
G1 X102.839 Y128.553 E15.92821
G1 X102.841 Y104.062 E17.15728
G1 X102.905 Y103.140 E17.20370
G1 X104.484 Y94.813 E17.62901
G1 X112.970 Y72.960 E18.80552
G1 X113.286 Y73.083 F6600.000
G1 F1800.000
G1 X122.309 Y60.698 E19.57453
G1 X130.710 Y52.259 E20.17215
G1 X131.214 Y51.949 E20.20181
G1 X131.790 Y51.833 E20.23132
G1 X153.517 Y51.677 E21.32175
G1 X154.099 Y51.782 E21.35141
G1 X180.909 Y61.824 E22.78820
G1 X181.423 Y62.164 E22.81913
G1 X183.486 Y64.227 E22.96554
G1 X183.735 Y64.557 E22.98628
G1 X183.954 Y65.250 E23.02274
G1 X185.863 Y87.959 E24.16642
G1 X185.709 Y106.743 E25.10918
G1 X185.616 Y107.279 E25.13646
G1 X185.239 Y107.893 E25.17260
G1 X153.552 Y140.681 E27.46096
G1 X143.104 Y148.485 E28.11544
G1 X142.208 Y148.850 E28.16401
G1 X141.725 Y148.932 E28.18858
G1 X120.946 Y149.088 E29.23144
G1 X120.117 Y149.083 E29.27300
G1 X119.688 Y148.994 E29.29502
G1 X119.057 Y148.602 E29.33226
G1 X106.699 Y136.233 E30.20977
G1 X103.245 Y128.994 E30.61230
G1 X103.184 Y128.550 E30.63480
G1 X103.186 Y104.081 E31.86282
G1 X103.245 Y103.199 E31.90715
G1 X104.810 Y94.924 E32.32980
G1 X113.265 Y73.139 E33.50255
G1 X113.581 Y73.262 F6600.000
G1 F1800.000
G1 X122.573 Y60.919 E34.26893
G1 X130.940 Y52.516 E34.86407
G1 X131.344 Y52.269 E34.88781
G1 X131.805 Y52.177 E34.91141
G1 X153.515 Y52.022 E36.00100
G1 X153.981 Y52.106 E36.02474
G1 X180.773 Y62.141 E37.46055
G1 X181.186 Y62.415 E37.48542
G1 X183.436 Y64.729 E37.64741
G1 X183.611 Y65.282 E37.67652
G1 X185.519 Y87.975 E38.81938
G1 X185.365 Y106.740 E39.76115
G1 X185.289 Y107.167 E39.78291
G1 X184.990 Y107.654 E39.81159
G1 X153.311 Y140.435 E42.09946
G1 X142.918 Y148.194 E42.75032
G1 X142.107 Y148.521 E42.79420
G1 X141.716 Y148.587 E42.81412
G1 X120.944 Y148.743 E43.85662
G1 X119.798 Y148.667 E43.91422
G1 X119.299 Y148.356 E43.94374
G1 X106.965 Y136.013 E44.81949
G1 X103.576 Y128.900 E45.21486
G1 X103.530 Y104.097 E46.45962
G1 X103.585 Y103.260 E46.50175
G1 X105.137 Y95.036 E46.92173
G1 X113.559 Y73.318 E48.09078
G1 E44.09078 F2400.000
G92 E0
G1 Z0.450 F6600.000
G1 X116.732 Y67.475
G1 Z0.350
G1 E4.00000 F2400.000
G1 F1800.000
G1 X116.409 Y67.475 E4.01623
G1 X114.436 Y67.908 E4.11758
G1 X113.201 Y68.661 E4.19017
G1 X111.604 Y70.256 E4.30346
G1 X111.013 Y70.877 E4.34647
G1 X110.479 Y71.647 E4.39352
G1 X109.902 Y73.592 E4.49534
G1 X109.906 Y80.374 E4.83567
G1 E0.83567 F2400.000
G92 E0
G1 Z0.450 F6600.000
G1 X109.908 Y83.211
G1 Z0.350
G1 E4.00000 F2400.000
G1 F1800.000
G1 X109.911 Y88.415 E4.26118
G1 X109.258 Y89.028 E4.30613
G1 X107.644 Y89.049 E4.38714
G1 X106.399 Y89.405 F6600.000
G1 F1800.000
G1 X105.614 Y89.658 E4.42852
G1 X104.899 Y90.181 E4.47297
G1 X102.673 Y92.383 E4.63011
G1 X101.757 Y94.080 E4.72689
G1 X101.629 Y94.678 E4.75757
G1 X101.592 Y95.321 E4.78990
G1 X101.545 Y95.683 E4.80823
G1 X101.554 Y100.105 E5.03016
G1 X100.647 Y101.170 E5.10035
G1 X100.175 Y102.424 E5.16761
G1 X100.095 Y102.980 E5.19581
G1 X100.084 Y103.384 E5.21604
G1 X100.045 Y103.693 E5.23171
G1 X100.057 Y127.274 E6.41513
G1 X100.043 Y127.463 E6.42462
G1 X100.061 Y128.932 E6.49836
G1 X100.193 Y129.792 E6.54204
G1 X101.192 Y131.692 E6.64975
G1 X103.332 Y133.832 E6.80168
G1 X103.333 Y134.269 E6.82357
G1 X103.225 Y134.813 E6.85144
G1 X103.258 Y136.004 E6.91122
G1 X103.606 Y137.198 E6.97363
G1 X104.253 Y138.232 E7.03485
G1 X107.045 Y141.024 E7.23300
G1 X107.508 Y141.349 E7.26140
G1 X107.782 Y141.766 E7.28646
G1 X110.596 Y144.580 E7.48617
G1 X110.876 Y144.771 E7.50314
G1 X111.070 Y145.054 E7.52041
G1 X113.882 Y147.866 E7.71995
G1 X114.161 Y148.056 E7.73692
G1 X114.356 Y148.340 E7.75419
G1 X117.189 Y151.173 E7.95524
G1 X118.793 Y152.023 E8.04637
G1 X119.582 Y152.160 E8.08653
G1 X121.273 Y152.178 E8.17140
G1 X121.838 Y152.066 E8.20034
G1 X122.628 Y152.060 E8.23998
G1 X142.175 Y152.071 E9.22096
G1 X143.453 Y151.792 E9.28662
G1 X144.834 Y151.130 E9.36348
G1 X145.391 Y150.695 E9.39893
G1 X146.932 Y149.155 E9.50824
G1 X147.501 Y148.532 E9.55064
G1 X147.788 Y148.073 E9.57781
G1 X148.262 Y147.775 E9.60587
G1 X148.835 Y147.252 E9.64481
G1 X150.495 Y145.571 E9.76338
G1 X150.966 Y144.882 E9.80527
G1 X151.119 Y144.561 E9.82311
G1 X151.288 Y144.281 E9.83954
G1 X152.981 Y144.259 E9.92452
G1 X154.100 Y143.981 E9.98235
G1 X155.543 Y143.131 E10.06640
G1 X157.590 Y141.058 E10.21263
G1 X158.023 Y140.424 E10.25115
G1 X158.196 Y140.065 E10.27115
G1 X158.493 Y139.545 E10.30122
G1 X158.861 Y138.102 E10.37592
G1 X158.861 Y135.933 E10.48481
G1 X159.200 Y135.582 F6600.000
G1 F1800.000
G1 X160.473 Y135.198 E10.55157
G1 X161.408 Y134.626 E10.60657
G1 X162.086 Y134.002 E10.65280
G1 X163.699 Y132.375 E10.76779
G1 X164.183 Y131.659 E10.81116
G1 X164.821 Y131.239 E10.84949
G1 X167.259 Y128.763 E11.02386
G1 X167.913 Y127.540 E11.09348
G1 X168.188 Y126.281 E11.15816
G1 X168.210 Y124.770 F6600.000
G1 F1800.000
G1 X168.210 Y123.302 E11.23183
G1 X168.317 Y122.769 E11.25910
G1 X168.317 Y121.811 E11.30720
G1 X168.213 Y121.283 E11.33420
G1 X168.212 Y119.779 E11.40970
G1 X173.033 Y119.779 E11.65165
G1 X174.472 Y119.779 F6600.000
G1 F1800.000
G1 X176.160 Y119.779 E11.73637
G1 X178.122 Y119.190 E11.83917
G1 X179.035 Y118.538 E11.89550
G1 X179.708 Y117.843 E11.94406
G1 X180.779 Y116.792 E12.01935
G1 X181.328 Y116.175 E12.06081
G1 X181.586 Y115.753 E12.08562
G1 X182.255 Y115.311 E12.12586
G1 X184.272 Y113.289 E12.26918
G1 X184.801 Y112.515 E12.31622
G1 X185.429 Y112.113 E12.35364
G1 X187.669 Y109.905 E12.51152
G1 X188.601 Y108.265 E12.60616
G1 X188.854 Y106.557 E12.69281
G1 X188.838 Y106.376 E12.70195
G1 X188.837 Y89.722 E13.53770
G1 X188.843 Y88.936 E13.57715
G1 X188.953 Y88.392 E13.60502
G1 X188.953 Y87.424 E13.65362
G1 X188.654 Y86.183 E13.71768
G1 X188.029 Y85.095 E13.78061
G1 X186.187 Y83.224 E13.91239
G1 X186.615 Y82.452 E13.95669
G1 X186.944 Y81.096 E14.02675
G1 X186.933 Y67.090 E14.72962
G1 X186.939 Y66.305 E14.76904
G1 X187.049 Y65.761 E14.79690
G1 X187.049 Y64.752 E14.84754
G1 X186.407 Y62.841 E14.94868
G1 X185.951 Y62.253 E14.98605
G1 X183.441 Y59.748 E15.16399
G1 X182.463 Y59.085 E15.22328
G1 X181.351 Y58.671 E15.28283
G1 X179.220 Y58.550 E15.38998
G1 X173.643 Y58.550 E15.66985
G1 E11.66985 F2400.000
G92 E0
G1 Z0.450 F6600.000
G1 X170.080 Y57.215
G1 Z0.350
G1 E4.00000 F2400.000
G1 F1800.000
G1 X167.767 Y54.973 E4.16168
G1 X166.713 Y54.428 E4.22123
G1 X165.343 Y54.119 E4.29173
G1 X161.830 Y54.125 E4.46803
G1 X160.663 Y53.688 F6600.000
G1 F1800.000
G1 X160.128 Y53.153 E4.50603
G1 X159.750 Y52.897 E4.52894
G1 X159.469 Y52.498 E4.55343
G1 X156.585 Y49.609 E4.75829
G1 X155.491 Y48.942 E4.82257
G1 X154.243 Y48.608 E4.88741
G1 X153.227 Y48.584 E4.93844
G1 X152.625 Y48.699 E4.96920
G1 X151.825 Y48.705 E5.00936
G1 X131.532 Y48.693 E6.02777
G1 X130.003 Y49.053 E6.10660
G1 X128.652 Y49.873 E6.18590
G1 X126.469 Y52.069 E6.34130
G1 X126.012 Y52.766 E6.38314
G1 X125.359 Y53.165 E6.42153
G1 X123.138 Y55.416 E6.58025
G1 X122.771 Y56.008 E6.61522
G1 X122.441 Y56.220 E6.63490
G1 X121.831 Y56.695 E6.67368
G1 X120.435 Y58.101 E6.77310
G1 X120.087 Y58.401 E6.79617
G1 X119.320 Y59.446 E6.86123
G1 X118.777 Y61.244 E6.95547
G1 X118.777 Y64.669 E7.12740
G1 X118.777 Y66.423 F6600.000
G1 F1800.000
G1 X118.777 Y67.475 E7.18020
G1 X118.010 Y67.475 E7.21868
G1 X117.759 Y67.820 F6600.000
G1 F1800.000
G1 X119.121 Y67.820 E7.28706
G1 X119.121 Y65.950 E7.38094
G1 X119.121 Y64.196 F6600.000
G1 F1800.000
G1 X119.121 Y61.269 E7.52784
G1 X119.616 Y59.625 E7.61396
G1 X120.328 Y58.649 E7.67461
G1 X120.671 Y58.353 E7.69734
G1 X122.067 Y56.946 E7.79685
G1 X122.645 Y56.498 E7.83355
G1 X123.024 Y56.256 E7.85608
G1 X123.398 Y55.644 E7.89208
G1 X125.589 Y53.423 E8.04865
G1 X126.258 Y53.021 E8.08781
G1 X126.726 Y52.299 E8.13101
G1 X128.882 Y50.131 E8.28446
G1 X130.109 Y49.382 E8.35661
G1 X131.552 Y49.038 E8.43103
G1 X151.826 Y49.050 E9.44849
G1 X152.660 Y49.043 E9.49038
G1 X153.238 Y48.929 E9.51993
G1 X154.215 Y48.952 E9.56897
G1 X155.334 Y49.250 E9.62710
G1 X156.356 Y49.868 E9.68700
G1 X159.213 Y52.731 E9.89002
G1 X159.504 Y53.148 E9.91555
G1 X159.869 Y53.390 E9.93750
G1 E5.93750 F2400.000
G92 E0
G1 Z0.450 F6600.000
G1 X162.746 Y54.468
G1 Z0.350
G1 E4.00000 F2400.000
G1 F1800.000
G1 X165.324 Y54.464 E4.12937
G1 X166.576 Y54.746 E4.19379
G1 X167.546 Y55.239 E4.24839
G1 X169.273 Y56.913 E4.36909
G1 E0.36909 F2400.000
G92 E0
G1 Z0.450 F6600.000
G1 X170.851 Y58.608
G1 Z0.350
G1 E4.00000 F2400.000
G1 F1800.000
G1 X171.044 Y58.895 E4.01733
G1 X171.616 Y58.895 E4.04603
G1 E0.04603 F2400.000
G92 E0
G1 Z0.450 F6600.000
G1 X174.564 Y58.895
G1 Z0.350
G1 E4.00000 F2400.000
G1 F1800.000
G1 X179.215 Y58.894 E4.23346
G1 X181.257 Y59.003 E4.33606
G1 X182.288 Y59.383 E4.39121
G1 X183.210 Y60.004 E4.44696
G1 X185.699 Y62.489 E4.62349
G1 X186.116 Y63.029 E4.65774
G1 X186.704 Y64.780 E4.75041
G1 X186.704 Y65.742 E4.79872
G1 X186.594 Y66.267 E4.82564
G1 X186.588 Y67.089 E4.86689
G1 X186.599 Y81.075 E5.56877
G1 X186.286 Y82.346 E5.63447
G1 X185.959 Y82.925 E5.66785
G1 X186.010 Y83.536 F6600.000
G1 F1800.000
G1 X187.743 Y85.288 E5.79150
G1 X188.325 Y86.290 E5.84964
G1 X188.608 Y87.445 E5.90932
G1 X188.608 Y88.374 E5.95595
G1 X188.498 Y88.899 E5.98287
G1 X188.492 Y89.721 E6.02414
G1 X188.494 Y106.390 E6.86070
G1 X188.509 Y106.566 E6.86955
G1 X188.264 Y108.181 E6.95153
G1 X187.410 Y109.675 E7.03790
G1 X185.200 Y111.854 E7.19366
G1 X184.556 Y112.262 E7.23192
G1 X184.016 Y113.057 E7.28015
G1 X182.024 Y115.054 E7.42173
G1 X181.332 Y115.508 E7.46325
G1 X181.060 Y115.958 E7.48965
G1 X180.525 Y116.559 E7.53000
G1 X179.464 Y117.599 E7.60462
G1 X178.798 Y118.286 E7.65260
G1 X177.945 Y118.893 E7.70513
G1 X176.135 Y119.434 E7.79997
G1 X174.805 Y119.434 E7.86671
G1 X173.366 Y119.434 F6600.000
G1 F1800.000
G1 X167.867 Y119.434 E8.14270
G1 X167.868 Y121.319 E8.23731
G1 X167.973 Y121.829 E8.26343
G1 X167.973 Y122.751 E8.30970
G1 X167.865 Y123.266 E8.33612
G1 X167.868 Y125.124 E8.42936
G1 X167.736 Y126.749 F6600.000
G1 F1800.000
G1 X167.597 Y127.401 E8.46282
G1 X166.995 Y128.540 E8.52745
G1 X164.589 Y130.983 E8.69957
G1 X163.935 Y131.408 E8.73867
G1 X163.442 Y132.144 E8.78313
G1 X161.843 Y133.756 E8.89708
G1 X161.187 Y134.361 E8.94190
G1 X160.352 Y134.874 E8.99106
G1 X159.691 Y135.073 E9.02571
G1 X158.516 Y136.289 F6600.000
G1 F1800.000
G1 X158.516 Y138.081 E9.11561
G1 X158.182 Y139.394 E9.18361
G1 X157.890 Y139.906 E9.21318
G1 X157.731 Y140.241 E9.23181
G1 X157.314 Y140.850 E9.26885
G1 X155.313 Y142.873 E9.41162
G1 X153.991 Y143.652 E9.48867
G1 X152.956 Y143.914 E9.54223
G1 X151.092 Y143.938 E9.63579
G1 X150.814 Y144.398 E9.66277
G1 X150.673 Y144.700 E9.67948
G1 X150.238 Y145.340 E9.71832
G1 X148.599 Y147.001 E9.83541
G1 X148.042 Y147.510 E9.87329
G1 X147.537 Y147.822 E9.90306
G1 X147.236 Y148.311 E9.93191
G1 X146.685 Y148.914 E9.97288
G1 X145.154 Y150.443 E10.08146
G1 X144.637 Y150.846 E10.11436
G1 X143.323 Y151.472 E10.18741
G1 X142.157 Y151.726 E10.24732
G1 X122.627 Y151.715 E11.22744
G1 X121.802 Y151.721 E11.26887
G1 X121.257 Y151.833 E11.29675
G1 X119.600 Y151.815 E11.37994
G1 X118.880 Y151.688 E11.41663
G1 X117.414 Y150.911 E11.49988
G1 X114.612 Y148.109 E11.69875
G1 X114.410 Y147.807 E11.71700
G1 X114.113 Y147.609 E11.73488
G1 X111.327 Y144.823 E11.93264
G1 X111.124 Y144.521 E11.95088
G1 X110.827 Y144.324 E11.96877
G1 X108.040 Y141.536 E12.16663
G1 X107.761 Y141.105 E12.19238
G1 X107.277 Y140.769 E12.22193
G1 X104.511 Y138.003 E12.41828
G1 X103.912 Y137.037 E12.47529
G1 X103.595 Y135.932 E12.53301
G1 X103.571 Y134.826 E12.58850
G1 X103.678 Y134.304 E12.61525
G1 X103.677 Y133.689 E12.64610
G1 X101.454 Y131.466 E12.80388
G1 X100.530 Y129.711 E12.90346
G1 X100.406 Y128.915 E12.94387
G1 X100.388 Y127.466 E13.01657
G1 X100.402 Y127.288 E13.02556
G1 X100.390 Y103.705 E14.20910
G1 X100.428 Y103.410 E14.22401
G1 X100.437 Y103.019 E14.24363
G1 X100.514 Y102.493 E14.27033
G1 X100.958 Y101.321 E14.33321
G1 X101.899 Y100.234 E14.40536
G1 X101.890 Y95.694 E14.63318
G1 X101.936 Y95.353 E14.65047
G1 X101.969 Y94.736 E14.68146
G1 X102.090 Y94.176 E14.71022
G1 X102.934 Y92.610 E14.79951
G1 X105.133 Y90.435 E14.95470
G1 X105.794 Y89.953 E14.99580
G1 X106.241 Y89.812 E15.01932
G1 X107.503 Y89.411 F6600.000
G1 F1800.000
G1 X107.577 Y89.387 E15.02322
G1 X109.405 Y89.372 E15.11492
G1 X109.777 Y89.000 E15.14137
G1 X110.256 Y88.572 E15.17358
G1 X110.252 Y82.323 E15.48718
G1 E11.48718 F2400.000
G92 E0
G1 Z0.450 F6600.000
G1 X110.250 Y79.487
G1 Z0.350
G1 E4.00000 F2400.000
G1 F1800.000
G1 X110.247 Y73.617 E4.29459
G1 X110.778 Y71.820 E4.38861
G1 X111.272 Y71.105 E4.43225
G1 X111.850 Y70.499 E4.47425
G1 X113.430 Y68.920 E4.58637
G1 X114.590 Y68.218 E4.65441
G1 X116.481 Y67.820 E4.75140
G1 X116.190 Y68.220 F6600.000
G1 F1800.000
G1 X114.742 Y68.529 E4.82570
G1 X113.659 Y69.179 E4.88913
G1 X112.095 Y70.741 E5.00007
G1 X111.532 Y71.333 E5.04104
G1 X111.078 Y71.993 E5.08125
G1 X110.592 Y73.641 E5.16751
G1 X110.595 Y78.600 E5.41636
G1 E1.41636 F2400.000
G92 E0
G1 Z0.450 F6600.000
G1 X110.596 Y81.435
G1 Z0.350
G1 E4.00000 F2400.000
G1 F1800.000
G1 X110.601 Y88.726 E4.36590
G1 X110.011 Y89.253 E4.40562
G1 X109.548 Y89.717 E4.43849
G1 X107.655 Y89.724 E4.53349
G1 X107.344 Y89.821 E4.54983
G1 X106.085 Y90.215 F6600.000
G1 F1800.000
G1 X105.974 Y90.249 E4.55566
G1 X105.366 Y90.690 E4.59335
G1 X103.195 Y92.837 E4.74658
G1 X102.422 Y94.272 E4.82839
G1 X102.310 Y94.795 E4.85521
G1 X102.280 Y95.386 E4.88490
G1 X102.235 Y95.706 E4.90114
G1 X102.244 Y100.365 E5.13492
G1 X101.269 Y101.474 E5.20906
G1 X100.852 Y102.561 E5.26749
G1 X100.780 Y103.058 E5.29267
G1 X100.773 Y103.437 E5.31169
G1 X100.735 Y103.717 E5.32586
G1 X100.746 Y127.302 E6.50952
G1 X100.733 Y127.471 E6.51800
G1 X100.751 Y128.898 E6.58964
G1 X100.866 Y129.629 E6.62676
G1 X101.716 Y131.241 E6.71823
G1 X104.022 Y133.546 E6.88186
G1 X104.023 Y134.341 E6.92176
G1 X103.916 Y134.841 E6.94742
G1 X103.934 Y135.861 E6.99859
G1 X104.219 Y136.878 E7.05160
G1 X104.769 Y137.773 E7.10436
G1 X107.510 Y140.513 E7.29886
G1 X108.015 Y140.860 E7.32961
G1 X108.297 Y141.306 E7.35608
G1 X111.058 Y144.066 E7.55200
G1 X111.373 Y144.271 E7.57085
G1 X111.584 Y144.592 E7.59013
G1 X114.343 Y147.352 E7.78600
G1 X114.658 Y147.557 E7.80486
G1 X114.869 Y147.878 E7.82413
G1 X117.640 Y150.649 E8.02079
G1 X118.968 Y151.354 E8.09622
G1 X119.618 Y151.470 E8.12938
G1 X121.241 Y151.488 E8.21086
G1 X121.763 Y151.377 E8.23764
G1 X122.626 Y151.370 E8.28092
G1 X142.138 Y151.382 E9.26018
G1 X143.194 Y151.152 E9.31439
G1 X144.441 Y150.562 E9.38363
G1 X144.918 Y150.191 E9.41395
