; generated by PrusaSlicer 2.3.1+win64 on 2021-06-09 at 18:14:25 UTC

; 

; external perimeters extrusion width = 0.45mm
; perimeters extrusion width = 0.45mm
; infill extrusion width = 0.45mm
; solid infill extrusion width = 0.45mm
; top infill extrusion width = 0.40mm
; support material extrusion width = 0.35mm
; first layer extrusion width = 0.42mm

M107
M190 S80 ; set bed temperature and wait for it to be reached
M104 S230 ; set temperature
;TYPE:Custom
G28 ; home all axes
G1 Z5 F5000 ; lift nozzle
M109 S230 ; set temperature and wait for it to be reached
G21 ; set units to millimeters
G90 ; use absolute coordinates
M82 ; use absolute distances for extrusion
G92 E0
; Filament gcode
;LAYER_CHANGE
;Z:0.35
;HEIGHT:0.35
G1 Z0.350 F6600.000
G1 E-4.00000 F2400.000
G92 E0
G1 Z0.450 F6600.000
G1 X62.992 Y186.945
G1 Z0.350
G1 E4.00000 F2400.000
;TYPE:Skirt
;WIDTH:0.42
G1 F3000.000
G1 X129.967 Y164.942 E7.53795
G1 X185.519 Y150.861 E10.41404
G1 X186.477 Y150.735 E10.46254
G1 X189.730 Y150.734 E10.62576
G1 X190.733 Y150.861 E10.67652
G1 X193.992 Y151.738 E10.84587
G1 X220.763 Y161.593 E12.27756
G1 X221.576 Y161.952 E12.32214
G1 X222.264 Y162.394 E12.36318
G1 X223.067 Y163.111 E12.41723
G1 X223.633 Y163.837 E12.46342
G1 X224.037 Y164.570 E12.50543
G1 X224.420 Y165.689 E12.56475
G1 X228.235 Y192.850 E13.94128
G1 X228.108 Y193.817 E13.99021
G1 X227.216 Y197.114 E14.16164
G1 X226.880 Y197.900 E14.20453
G1 X225.187 Y200.823 E14.37403
G1 X205.542 Y225.563 E15.95945
G1 X204.976 Y226.206 E16.00247
G1 X188.037 Y241.556 E17.14971
G1 X187.247 Y242.092 E17.19762
G1 X186.194 Y242.549 E17.25522
G1 X185.392 Y242.744 E17.29663
G1 X184.551 Y242.818 E17.33901
G1 X172.739 Y242.820 E17.93180
G1 X128.127 Y241.892 E20.17118
G1 X127.290 Y241.808 E20.21337
G1 X78.191 Y235.937 E22.69501
G1 X76.070 Y235.550 E22.80321
G1 X73.840 Y234.849 E22.92056
G1 X71.926 Y233.984 E23.02594
G1 X70.048 Y232.848 E23.13612
G1 X68.326 Y231.499 E23.24590
G1 X66.846 Y230.024 E23.35072
G1 X65.365 Y228.138 E23.47112
G1 X64.276 Y226.330 E23.57703
G1 X63.341 Y224.230 E23.69239
G1 X62.721 Y222.226 E23.79765
G1 X62.344 Y220.188 E23.90164
G1 X62.197 Y217.982 E24.01259
G1 X62.195 Y188.335 E25.50048
G1 X62.257 Y187.923 E25.52138
G1 X62.418 Y187.539 E25.54228
G1 X62.668 Y187.206 E25.56318
G1 X62.945 Y186.982 E25.58106
G1 X62.714 Y187.717 F6600.000
G1 F3000.000
G1 X63.176 Y187.237 E25.61450
G1 X130.062 Y165.274 E29.14761
G1 X185.599 Y151.197 E32.02289
G1 X186.490 Y151.080 E32.06800
G1 X189.729 Y151.079 E32.23058
G1 X190.656 Y151.197 E32.27747
G1 X193.879 Y152.064 E32.44493
G1 X220.644 Y161.917 E33.87629
G1 X221.414 Y162.257 E33.91856
G1 X222.075 Y162.682 E33.95798
G1 X222.814 Y163.346 E34.00785
G1 X223.346 Y164.029 E34.05129
G1 X223.730 Y164.727 E34.09129
G1 X224.080 Y165.751 E34.14558
G1 X227.891 Y192.845 E35.51873
G1 X227.773 Y193.736 E35.56384
G1 X226.893 Y196.994 E35.73317
G1 X226.578 Y197.735 E35.77360
G1 X224.902 Y200.628 E35.94135
G1 X205.277 Y225.343 E37.52520
G1 X204.743 Y225.952 E37.56582
G1 X187.805 Y241.301 E38.71298
G1 X187.062 Y241.801 E38.75793
G1 X186.100 Y242.217 E38.81053
G1 X185.337 Y242.404 E38.84997
G1 X184.531 Y242.474 E38.89056
G1 X172.740 Y242.475 E39.48232
G1 X128.134 Y241.548 E41.72137
G1 X127.328 Y241.465 E41.76203
G1 X78.232 Y235.595 E44.24351
G1 X76.147 Y235.214 E44.34992
G1 X73.981 Y234.534 E44.46382
G1 X72.088 Y233.679 E44.56808
G1 X70.245 Y232.564 E44.67618
G1 X68.552 Y231.239 E44.78407
G1 X67.090 Y229.781 E44.88769
G1 X65.656 Y227.954 E45.00424
G1 X64.583 Y226.174 E45.10856
G1 X63.695 Y224.199 E45.21722
G1 X63.056 Y222.146 E45.32514
G1 X62.661 Y219.945 E45.43733
G1 X62.539 Y217.884 E45.54096
G1 X62.539 Y188.360 E47.02266
G1 X62.698 Y187.775 E47.05309
G1 E43.05309 F2400.000
G92 E0
G1 Z0.450 F6600.000
G1 X65.943 Y185.794
G1 Z0.350
G1 E4.00000 F2400.000
G1 F3000.000
G1 X63.530 Y185.793 E4.12113
G1 X62.820 Y185.989 E4.15807
G1 X62.517 Y186.146 E4.17521
G1 X61.798 Y186.817 E4.22454
G1 X61.491 Y187.321 E4.25418
G1 X61.297 Y188.026 E4.29088
G1 X61.298 Y217.938 E5.79202
G1 X61.440 Y220.209 E5.90623
G1 X61.849 Y222.432 E6.01967
G1 X62.518 Y224.595 E6.13331
G1 X63.478 Y226.737 E6.25111
G1 X64.703 Y228.759 E6.36974
G1 X66.103 Y230.543 E6.48358
G1 X67.716 Y232.156 E6.59802
G1 X69.509 Y233.565 E6.71250
G1 X71.474 Y234.759 E6.82787
G1 X73.687 Y235.751 E6.94957
G1 X75.852 Y236.420 E7.06329
G1 X78.099 Y236.829 E7.17792
G1 X80.374 Y236.966 E7.29233
G1 X82.651 Y236.830 E7.40679
G1 X83.267 Y236.718 E7.43821
G1 E3.43821 F2400.000
G92 E0
G1 Z0.450 F6600.000
G1 X85.386 Y236.276
G1 Z0.350
G1 E4.00000 F2400.000
G1 F3000.000
G1 X87.145 Y235.729 E4.09247
G1 X89.223 Y234.796 E4.20675
G1 X91.184 Y233.617 E4.32159
G1 X93.000 Y232.200 E4.43718
G1 X94.658 Y230.550 E4.55461
G1 X95.923 Y228.934 E4.65758
G1 X97.855 Y233.472 E4.90510
G1 X98.199 Y233.954 E4.93479
G1 X98.869 Y234.491 E4.97790
G1 X101.091 Y235.467 E5.09969
G1 X103.169 Y236.189 E5.21011
G1 X105.254 Y236.729 E5.31816
G1 X107.381 Y237.097 E5.42650
G1 X109.532 Y237.290 E5.53488
G1 X111.730 Y237.311 E5.64519
G1 X113.948 Y237.164 E5.75679
G1 X116.257 Y236.845 E5.87376
G1 X118.608 Y236.363 E5.99417
G1 X121.110 Y235.697 E6.12411
G1 X121.726 Y235.500 E6.15661
G1 X121.671 Y236.337 E6.19874
G1 X121.769 Y237.368 E6.25070
G1 X122.031 Y238.369 E6.30266
G1 X122.523 Y239.454 E6.36245
G1 X123.147 Y240.366 E6.41785
G1 X123.614 Y240.847 E6.45154
G1 X124.601 Y241.660 F6600.000
G1 F3000.000
G1 X124.878 Y241.861 E6.46871
G1 X125.894 Y242.354 E6.52538
G1 X126.979 Y242.666 E6.58203
G1 X128.133 Y242.789 E6.64027
G1 X129.203 Y242.721 E6.69407
G1 X130.250 Y242.480 E6.74800
G1 X131.077 Y242.126 E6.79312
G1 X132.216 Y241.460 F6600.000
G1 F3000.000
G1 X132.380 Y241.354 E6.80289
G1 X132.522 Y241.305 E6.81045
G1 X132.690 Y241.291 E6.81890
G1 X154.814 Y241.291 E7.92921
G1 X154.981 Y241.305 E7.93765
G1 X155.125 Y241.355 E7.94532
G1 X156.057 Y241.956 E8.00093
G1 E4.00093 F2400.000
G92 E0
G1 Z0.450 F6600.000
G1 X158.195 Y242.690
G1 Z0.350
G1 E4.00000 F2400.000
G1 F3000.000
G1 X158.400 Y242.735 E4.01055
G1 X159.432 Y242.788 E4.06242
G1 X159.997 Y242.728 E4.09093
G1 E0.09093 F2400.000
G92 E0
G1 Z0.450 F6600.000
G1 X162.169 Y242.083
G1 Z0.350
G1 E4.00000 F2400.000
G1 F3000.000
G1 X162.568 Y241.894 E4.02216
G1 X163.516 Y241.223 E4.08047
G1 X164.313 Y240.418 E4.13730
G1 X164.945 Y239.515 E4.19260
G1 X165.557 Y238.218 E4.26460
G1 X167.305 Y240.838 E4.42264
G1 X167.942 Y241.633 E4.47377
G1 X168.592 Y242.216 E4.51762
G1 X169.641 Y242.928 F6600.000
G1 F3000.000
G1 X169.730 Y242.984 E4.52293
G1 X170.696 Y243.389 E4.57546
G1 X171.678 Y243.629 E4.62622
G1 X172.684 Y243.716 E4.67689
G1 X184.549 Y243.716 E5.27233
G1 X185.605 Y243.618 E5.32556
G1 X186.614 Y243.357 E5.37788
G1 X187.623 Y242.911 E5.43320
G1 X188.498 Y242.339 E5.48567
G1 X189.251 Y241.657 E5.53667
G1 X189.892 Y240.864 E5.58785
G1 X191.166 Y238.953 E5.70310
G1 E1.70310 F2400.000
G92 E0
G1 Z0.450 F6600.000
G1 X192.735 Y236.601
G1 Z0.350
G1 E4.00000 F2400.000
G1 F3000.000
G1 X197.514 Y229.435 E4.43227
G1 X197.722 Y229.171 E4.44915
G1 X197.893 Y229.017 E4.46068
G1 X198.086 Y228.892 E4.47221
G1 X198.296 Y228.800 E4.48375
G1 X198.519 Y228.745 E4.49528
G1 X198.855 Y228.717 E4.51219
G1 X201.119 Y228.715 E4.62579
G1 X201.474 Y228.682 E4.64368
G1 X202.740 Y228.465 F6600.000
G1 F3000.000
G1 X203.086 Y228.378 E4.66160
G1 X204.002 Y227.997 E4.71138
G1 X204.853 Y227.478 E4.76140
G1 X205.639 Y226.813 E4.81306
G1 X206.296 Y226.056 E4.86341
G1 X206.833 Y225.203 E4.91398
G1 X207.298 Y224.083 E4.97484
G1 X207.448 Y223.440 E5.00795
G1 X207.593 Y222.148 F6600.000
G1 F3000.000
G1 X207.593 Y210.052 E5.61499
G1 X207.503 Y209.041 E5.66593
G1 X207.279 Y208.118 E5.71363
G1 X206.991 Y207.408 E5.75209
G1 X207.532 Y207.298 E5.77979
G1 X207.724 Y207.221 E5.79019
G1 X207.901 Y207.445 E5.80450
G1 X208.375 Y207.840 E5.83551
G1 X209.084 Y208.163 E5.87457
G1 X210.395 Y208.342 E5.94099
G1 X211.118 Y208.244 E5.97763
G1 X211.792 Y207.945 E6.01462
G1 X212.006 Y207.777 E6.02825
G1 X212.251 Y207.959 E6.04355
G1 X212.809 Y208.216 E6.07438
G1 X213.578 Y208.342 E6.11350
G1 X214.941 Y208.161 E6.18248
G1 X215.660 Y207.829 E6.22223
G1 X216.175 Y207.384 E6.25637
G1 X216.304 Y207.222 E6.26679
G1 X216.542 Y207.314 E6.27960
G1 X217.302 Y207.432 E6.31824
G1 X218.067 Y207.322 E6.35700
G1 X219.231 Y206.823 E6.42059
G1 X219.835 Y206.321 E6.45999
G1 X220.197 Y205.800 E6.49182
G1 X220.296 Y205.566 E6.50459
G1 X220.493 Y205.591 E6.51456
G1 X220.756 Y205.572 E6.52780
G1 X221.858 Y205.292 F6600.000
G1 F3000.000
G1 X221.929 Y205.266 E6.53157
G1 X223.021 Y204.428 E6.60066
G1 X223.475 Y203.793 E6.63982
G1 X223.690 Y203.204 E6.67129
G1 X223.725 Y202.941 E6.68463
G1 X223.737 Y202.926 F6600.000
G1 F3000.000
G1 X223.988 Y202.891 E6.69735
G1 X224.585 Y202.676 E6.72917
G1 X225.228 Y202.221 E6.76873
G1 X226.039 Y201.177 E6.83509
G1 X226.330 Y200.452 E6.87431
G1 X226.396 Y199.745 E6.90990
G1 X226.367 Y199.487 E6.92295
G1 X226.615 Y199.387 E6.93639
G1 X227.211 Y198.952 E6.97340
G1 X227.635 Y198.414 E7.00779
G1 X228.143 Y197.204 E7.07368
G1 X228.234 Y196.403 E7.11413
G1 X228.150 Y195.849 E7.14223
G1 X228.016 Y195.497 E7.16117
G1 X228.254 Y195.308 E7.17643
G1 X228.684 Y194.777 E7.21071
G1 X228.971 Y194.112 E7.24705
G1 X229.145 Y192.852 E7.31089
G1 X229.081 Y192.215 E7.34303
G1 X228.773 Y191.463 E7.38380
G1 X228.211 Y190.807 E7.42715
G1 X228.114 Y190.745 E7.43295
G1 X227.352 Y190.252 F6600.000
G1 F3000.000
G1 X227.054 Y190.059 E7.45073
G1 X226.618 Y189.863 E7.47476
G1 X226.363 Y188.131 E7.56260
G1 X225.823 Y186.239 E7.66134
G1 X225.067 Y184.499 E7.75657
G1 X224.118 Y182.907 E7.84955
G1 X222.915 Y181.380 E7.94714
G1 X221.600 Y180.093 E8.03944
G1 X219.996 Y178.889 E8.14010
G1 X218.401 Y177.991 E8.23197
G1 X216.621 Y177.269 E8.32840
G1 X214.828 Y176.799 E8.42140
G1 X212.993 Y176.559 E8.51428
G1 X211.095 Y176.554 E8.60953
G1 X209.164 Y176.804 E8.70723
G1 X207.283 Y177.307 E8.80496
G1 X205.507 Y178.045 E8.90149
G1 X203.862 Y178.994 E8.99681
G1 X202.353 Y180.149 E9.09213
G1 X200.995 Y181.501 E9.18835
G1 X199.855 Y182.961 E9.28130
G1 X190.481 Y181.727 E9.75580
G1 X190.480 Y181.425 E9.77094
G1 X191.031 Y181.350 E9.79884
G1 X192.844 Y180.862 E9.89305
G1 X194.578 Y180.147 E9.98718
G1 X196.206 Y179.217 E10.08129
G1 X197.703 Y178.087 E10.17539
G1 X199.059 Y176.758 E10.27068
G1 X200.233 Y175.265 E10.36603
G1 X201.254 Y173.548 E10.46628
G1 X218.926 Y173.548 E11.35315
G1 X219.871 Y173.473 E11.40073
G1 X221.045 Y173.180 E11.46145
G1 X222.038 Y172.740 E11.51595
G1 X222.921 Y172.160 E11.56897
G1 X223.745 Y171.398 E11.62527
G1 X224.406 Y170.541 E11.67963
G1 X224.544 Y170.285 E11.69422
G1 X225.075 Y169.117 F6600.000
G1 F3000.000
G1 X225.271 Y168.544 E11.72457
G1 X225.449 Y167.405 E11.78242
G1 X225.436 Y166.359 E11.83492
G1 X225.264 Y165.351 E11.88625
G1 X224.911 Y164.319 E11.94099
G1 X224.391 Y163.359 E11.99577
G1 X223.724 Y162.501 E12.05033
G1 X222.942 Y161.779 E12.10373
G1 X221.975 Y161.149 E12.16166
G1 X220.892 Y160.690 E12.22067
G1 X219.928 Y160.459 E12.27045
G1 X218.957 Y160.376 E12.31935
G1 X217.955 Y160.376 E12.36965
G1 X215.958 Y160.376 F6600.000
G1 F3000.000
G1 X204.024 Y160.375 E12.96857
G1 X203.785 Y159.806 E12.99951
G1 X203.339 Y159.224 E13.03632
G1 X202.752 Y158.790 E13.07292
G1 X202.478 Y158.673 E13.08790
G1 X202.517 Y158.334 E13.10501
G1 X202.459 Y157.763 E13.13380
G1 X202.187 Y157.039 E13.17265
G1 X201.387 Y155.985 E13.23907
G1 X200.806 Y155.543 E13.27570
G1 X200.118 Y155.278 E13.31269
G1 X199.850 Y155.246 E13.32623
G1 X199.790 Y154.892 E13.34425
G1 X199.578 Y154.345 E13.37365
G1 X198.438 Y153.191 F6600.000
G1 F3000.000
G1 X198.084 Y152.920 E13.39601
G1 X197.349 Y152.635 E13.43557
G1 X196.810 Y152.591 E13.46274
G1 X196.328 Y152.414 F6600.000
G1 F3000.000
G1 X196.276 Y152.295 E13.46925
G1 X195.940 Y151.830 E13.49805
G1 X195.342 Y151.338 E13.53690
G1 X194.122 Y150.826 E13.60331
G1 X193.398 Y150.734 E13.63995
G1 X192.670 Y150.848 E13.67692
G1 X192.419 Y150.954 E13.69058
G1 X192.231 Y150.717 E13.70580
G1 X191.719 Y150.298 E13.73901
G1 X191.011 Y149.992 E13.77769
G1 X189.562 Y149.827 E13.85092
G1 X188.893 Y149.963 E13.88514
G1 X188.106 Y150.364 E13.92950
G1 X187.948 Y150.246 E13.93940
G1 X187.344 Y149.956 E13.97299
G1 X186.680 Y149.827 E14.00696
G1 X185.206 Y150.003 E14.08144
G1 X184.483 Y150.333 E14.12135
G1 X183.957 Y150.787 E14.15622
G1 X183.834 Y150.945 E14.16626
G1 X183.602 Y150.854 E14.17879
G1 X182.906 Y150.735 E14.21424
G1 X182.131 Y150.826 E14.25341
G1 X180.910 Y151.340 E14.31988
G1 X180.302 Y151.845 E14.35953
G1 X180.166 Y152.040 E14.37148
G1 E10.37148 F2400.000
G92 E0
G1 Z0.450 F6600.000
G1 X177.516 Y153.424
G1 Z0.350
G1 E4.00000 F2400.000
G1 F3000.000
G1 X177.110 Y153.743 E4.02593
G1 X176.677 Y154.345 E4.06316
G1 X176.426 Y155.047 E4.10057
G1 X176.398 Y155.234 E4.11004
G1 X176.215 Y155.260 E4.11932
G1 X175.559 Y155.487 E4.15418
G1 X174.871 Y155.982 E4.19671
G1 X174.043 Y157.084 E4.26588
G1 X173.794 Y157.774 E4.30270
G1 X173.741 Y158.447 E4.33659
G1 X173.768 Y158.666 E4.34763
G1 X173.588 Y158.744 E4.35749
G1 X172.978 Y159.166 E4.39471
G1 X172.508 Y159.740 E4.43194
G1 X172.009 Y160.906 E4.49557
G1 X171.902 Y161.773 E4.53944
G1 X171.993 Y162.340 E4.56823
G1 X172.117 Y162.675 E4.58617
G1 X171.892 Y162.848 E4.60043
G1 X171.484 Y163.338 E4.63241
G1 X171.181 Y164.001 E4.66898
G1 X170.991 Y165.346 E4.73719
G1 X171.120 Y166.172 E4.77915
G1 X171.420 Y166.794 E4.81378
G1 X171.935 Y167.366 E4.85241
G1 X173.084 Y168.107 E4.92103
G1 X173.519 Y168.304 E4.94498
G1 X173.774 Y170.035 E5.03284
G1 X174.291 Y171.862 E5.12808
G1 X175.051 Y173.631 E5.22472
G1 X176.023 Y175.266 E5.32018
G1 X177.181 Y176.742 E5.41434
G1 X178.552 Y178.087 E5.51070
G1 X180.086 Y179.242 E5.60709
G1 X181.721 Y180.168 E5.70139
G1 X182.193 Y180.362 E5.72699
G1 X182.131 Y180.645 E5.74150
G1 X181.250 Y180.611 E5.78578
G1 X180.096 Y180.762 E5.84419
G1 X179.045 Y181.093 E5.89948
G1 X178.159 Y181.528 E5.94900
G1 X177.194 Y182.204 E6.00812
G1 X177.180 Y177.898 E6.22419
G1 X176.999 Y177.285 E6.25629
G1 X176.840 Y176.981 E6.27347
G1 X176.127 Y176.227 E6.32557
G1 X175.660 Y175.955 E6.35270
G1 X174.961 Y175.763 E6.38905
G1 X169.162 Y175.763 E6.68009
G1 X169.032 Y175.586 E6.69113
G1 X168.281 Y174.819 E6.74502
G1 X167.558 Y174.289 E6.79000
G1 X167.959 Y173.690 E6.82616
G1 X168.400 Y172.719 E6.87971
G1 X168.688 Y171.633 E6.93609
G1 X168.787 Y170.535 E6.99140
G1 X168.696 Y169.401 E7.04852
G1 X168.401 Y168.271 E7.10711
G1 X167.930 Y167.243 E7.16387
G1 X167.288 Y166.310 E7.22071
G1 X166.449 Y165.459 E7.28070
G1 X165.575 Y164.836 E7.33452
G1 X164.614 Y164.364 E7.38827
G1 X163.440 Y164.024 E7.44961
G1 X162.343 Y163.908 E7.50497
G1 X161.215 Y163.980 E7.56169
G1 X160.112 Y164.246 E7.61864
G1 X159.044 Y164.712 E7.67712
G1 X158.073 Y165.342 E7.73521
G1 X157.931 Y165.392 E7.74277
G1 X157.763 Y165.406 E7.75122
G1 X135.639 Y165.406 E8.86153
G1 X135.471 Y165.392 E8.86997
G1 X135.328 Y165.342 E8.87759
G1 X134.384 Y164.726 E8.93415
G1 X133.852 Y164.491 E8.96333
G1 X132.632 Y164.089 F6600.000
G1 F3000.000
G1 X132.193 Y163.981 E8.98604
G1 X131.031 Y163.908 E9.04446
G1 X129.934 Y164.029 E9.09986
G1 X128.839 Y164.345 E9.15705
G1 X127.761 Y164.876 E9.21735
G1 X126.896 Y165.508 E9.27112
G1 X126.520 Y165.893 E9.29812
G1 X125.724 Y166.880 F6600.000
G1 F3000.000
G1 X125.453 Y167.277 E9.32226
G1 X124.996 Y168.284 E9.37776
G1 X124.714 Y169.354 E9.43329
G1 X124.619 Y170.506 E9.49130
G1 X124.712 Y171.621 E9.54745
G1 X125.011 Y172.742 E9.60564
G1 X125.473 Y173.743 E9.66096
G1 X126.114 Y174.676 E9.71779
G1 X126.859 Y175.445 E9.77154
G1 X127.607 Y175.996 E9.81817
G1 X127.219 Y176.577 E9.85326
G1 X126.753 Y177.609 E9.91009
G1 X126.464 Y178.751 E9.96918
G1 X126.386 Y179.931 E10.02856
G1 X126.489 Y180.988 E10.08185
G1 X126.756 Y181.988 E10.13377
G1 X127.223 Y183.018 E10.19054
G1 X127.735 Y183.773 E10.23632
G1 X126.871 Y184.357 E10.28867
G1 X125.920 Y185.266 E10.35470
G1 X125.190 Y186.247 E10.41605
G1 X124.607 Y187.380 E10.48000
G1 X124.242 Y188.504 E10.53931
G1 X124.200 Y188.742 E10.55147
G1 X123.348 Y189.603 E10.61221
G1 X122.152 Y190.617 E10.69091
G1 X121.028 Y191.385 E10.75923
G1 X119.965 Y191.946 E10.81956
G1 X118.952 Y192.333 E10.87399
