; generated by PrusaSlicer 2.3.1+win64 on 2021-06-09 at 20:21:30 UTC

; 

; external perimeters extrusion width = 0.45mm
; perimeters extrusion width = 0.45mm
; infill extrusion width = 0.45mm
; solid infill extrusion width = 0.45mm
; top infill extrusion width = 0.40mm
; support material extrusion width = 0.35mm
; first layer extrusion width = 0.42mm

M107
M190 S80 ; set bed temperature and wait for it to be reached
M104 S230 ; set temperature
;TYPE:Custom
G28 ; home all axes
G1 Z5 F5000 ; lift nozzle
M109 S230 ; set temperature and wait for it to be reached
G21 ; set units to millimeters
G90 ; use absolute coordinates
M82 ; use absolute distances for extrusion
G92 E0
; Filament gcode
;LAYER_CHANGE
;Z:0.35
;HEIGHT:0.35
G1 Z0.350 F6600.000
G1 E-4.00000 F2400.000
G92 E0
G1 Z0.450 F6600.000
G1 X91.529 Y69.834
G1 Z0.350
G1 E4.00000 F2400.000
;TYPE:Skirt
;WIDTH:0.42
G1 F1800.000
G1 X105.261 Y51.836 E5.13612
G1 X106.898 Y50.148 E5.25412
G1 X107.723 Y49.587 E5.30422
G1 X120.893 Y42.798 E6.04778
G1 X121.583 Y42.587 E6.08402
G1 X169.907 Y42.572 E8.50917
G1 X170.640 Y42.710 E8.54662
G1 X171.274 Y43.104 E8.58408
G1 X173.668 Y45.503 E8.75417
G1 X173.950 Y45.931 E8.77992
G1 X174.117 Y46.417 E8.80567
G1 X173.972 Y62.359 E9.60579
G1 X170.990 Y76.307 E10.32158
G1 X162.968 Y105.524 E11.84217
G1 X162.679 Y106.290 E11.88322
G1 X162.367 Y106.753 E11.91125
G1 X157.676 Y111.444 E12.24418
G1 X157.281 Y111.720 E12.26835
G1 X156.453 Y112.097 E12.31402
G1 X123.791 Y121.959 E14.02630
G1 X123.338 Y122.040 E14.04942
G1 X94.450 Y122.171 E15.49920
G1 X93.895 Y121.991 E15.52845
G1 X93.414 Y121.661 E15.55771
G1 X87.709 Y115.954 E15.96269
G1 X77.544 Y102.408 E16.81266
G1 X77.272 Y101.912 E16.84104
G1 X77.141 Y101.177 E16.87850
G1 X77.297 Y89.139 E17.48266
G1 X77.377 Y88.608 E17.50964
G1 X77.710 Y87.947 E17.54674
G1 X91.493 Y69.882 E18.68713
G1 X91.767 Y70.091 F6600.000
G1 F1800.000
G1 X105.535 Y52.046 E19.82622
G1 X107.130 Y50.403 E19.94112
G1 X107.896 Y49.886 E19.98752
G1 X121.062 Y43.099 E20.73091
G1 X121.625 Y42.929 E20.76042
G1 X169.906 Y42.917 E23.18345
G1 X170.521 Y43.034 E23.21485
G1 X171.051 Y43.367 E23.24626
G1 X173.400 Y45.720 E23.41312
G1 X173.643 Y46.089 E23.43529
G1 X173.784 Y46.511 E23.45763
G1 X173.631 Y62.307 E24.25038
G1 X170.656 Y76.221 E24.96449
G1 X162.641 Y105.415 E26.48382
G1 X162.374 Y106.128 E26.52203
G1 X162.107 Y106.527 E26.54613
G1 X157.444 Y111.189 E26.87700
G1 X156.349 Y111.768 E26.93920
G1 X123.316 Y121.696 E28.67024
G1 X94.512 Y121.831 E30.11582
G1 X94.046 Y121.681 E30.14039
G1 X93.641 Y121.401 E30.16512
G1 X87.965 Y115.722 E30.56806
G1 X77.820 Y102.201 E31.41637
G1 X77.596 Y101.791 E31.43983
G1 X77.486 Y101.178 E31.47108
G1 X77.642 Y89.145 E32.07505
G1 X77.710 Y88.699 E32.09770
G1 X77.985 Y88.154 E32.12832
G1 X91.731 Y70.139 E33.26555
G1 X92.005 Y70.348 F6600.000
G1 F1800.000
G1 X105.809 Y52.256 E34.40762
G1 X107.362 Y50.659 E34.51941
G1 X108.054 Y50.192 E34.56130
G1 X121.217 Y43.407 E35.30448
G1 X121.667 Y43.271 E35.32808
G1 X169.906 Y43.262 E37.74900
G1 X170.398 Y43.356 E37.77416
G1 X170.824 Y43.627 E37.79946
G1 X173.132 Y45.937 E37.96337
G1 X173.336 Y46.244 E37.98186
G1 X173.448 Y46.592 E38.00021
G1 X173.291 Y62.249 E38.78601
G1 X170.322 Y76.134 E39.49857
G1 X162.313 Y105.307 E41.01680
G1 X162.069 Y105.968 E41.05219
G1 X161.847 Y106.300 E41.07224
G1 X157.212 Y110.933 E41.40111
G1 X156.249 Y111.439 E41.45573
G1 X123.294 Y121.352 E43.18280
G1 X94.571 Y121.492 E44.62431
G1 X94.194 Y121.369 E44.64422
G1 X93.871 Y121.144 E44.66399
G1 X88.220 Y115.490 E45.06513
G1 X78.098 Y101.997 E45.91164
G1 X77.919 Y101.672 E45.93027
G1 X77.831 Y101.179 E45.95543
G1 X78.041 Y88.795 E46.57701
G1 X78.260 Y88.362 E46.60132
G1 X91.969 Y70.396 E47.73548
G1 E43.73548 F2400.000
G92 E0
G1 Z0.450 F6600.000
G1 X83.979 Y79.446
G1 Z0.350
G1 E4.00000 F2400.000
G1 F1800.000
G1 X83.563 Y79.454 E4.02087
G1 X82.426 Y79.772 E4.08016
G1 X81.400 Y80.351 E4.13928
G1 X80.512 Y81.165 E4.19974
G1 X78.910 Y82.781 E4.31395
G1 X78.456 Y83.473 E4.35548
G1 X77.819 Y83.860 E4.39288
G1 X75.654 Y86.024 E4.54649
G1 X74.686 Y87.815 E4.64866
G1 X74.525 Y88.704 E4.69401
G1 X74.499 Y89.651 E4.74154
G1 X74.515 Y89.876 E4.75288
G1 X74.506 Y100.298 E5.27591
G1 X74.398 Y100.834 E5.30333
G1 X74.398 Y101.828 E5.35323
G1 X74.848 Y103.383 E5.43444
G1 X75.479 Y104.325 E5.49134
G1 X78.120 Y106.961 E5.67862
G1 X78.639 Y107.316 E5.71020
G1 X78.961 Y107.807 E5.73962
G1 X81.654 Y110.491 E5.93044
G1 X82.386 Y111.002 E5.97527
G1 X83.870 Y111.500 E6.05384
G1 X84.160 Y111.511 E6.06837
G1 X84.556 Y112.040 F6600.000
G1 F1800.000
G1 X84.557 Y113.707 E6.15204
G1 X84.450 Y114.240 E6.17934
G1 X84.457 Y115.286 E6.23182
G1 X84.928 Y116.846 E6.31359
G1 X85.533 Y117.734 E6.36752
G1 X88.172 Y120.368 E6.55465
G1 X88.691 Y120.723 E6.58623
G1 X89.013 Y121.213 E6.61562
G1 X91.738 Y123.938 E6.80903
G1 X93.126 Y124.713 E6.88881
G1 X93.993 Y124.913 E6.93348
G1 X95.821 Y124.945 E7.02525
G1 X96.389 Y124.833 E7.05429
G1 X97.179 Y124.827 E7.09394
G1 X122.373 Y124.839 E8.35833
G1 X124.388 Y124.735 E8.45958
G1 X125.539 Y124.290 E8.52148
G1 X126.440 Y123.661 E8.57667
G1 X126.877 Y123.189 E8.60895
G1 X128.290 Y121.788 E8.70878
G1 X128.479 Y121.542 E8.72433
G1 X130.610 Y121.496 E8.83133
G1 X131.687 Y121.167 E8.88784
G1 X132.650 Y120.596 E8.94401
G1 X134.437 Y118.925 E9.06681
G1 E5.06681 F2400.000
G92 E0
G1 Z0.450 F6600.000
G1 X136.614 Y118.267
G1 Z0.350
G1 E4.00000 F2400.000
G1 F1800.000
G1 X140.174 Y118.267 E4.17867
G1 X141.658 Y117.870 E4.25574
G1 X142.983 Y116.979 E4.33591
G1 X143.306 Y116.616 E4.36028
G1 X143.841 Y116.085 E4.39810
G1 E0.39810 F2400.000
G92 E0
G1 Z0.450 F6600.000
G1 X147.496 Y114.982
G1 Z0.350
G1 E4.00000 F2400.000
G1 F1800.000
G1 X156.361 Y114.982 E4.44487
G1 X157.929 Y114.571 E4.52623
G1 X158.351 Y114.311 E4.55107
G1 X158.833 Y114.073 E4.57809
G1 X159.495 Y113.581 E4.61949
G1 X161.038 Y112.040 E4.72892
G1 X161.522 Y111.518 E4.76461
G1 X161.886 Y110.952 E4.79839
G1 X162.504 Y110.561 E4.83510
G1 X164.622 Y108.441 E4.98549
G1 X165.270 Y107.372 E5.04825
G1 X165.424 Y106.974 E5.06963
G1 X165.593 Y106.629 E5.08890
G1 X165.865 Y105.369 E5.15361
G1 X165.857 Y95.653 E5.64121
G1 E1.64121 F2400.000
G92 E0
G1 Z0.450 F6600.000
G1 X165.854 Y91.759
G1 Z0.350
G1 E4.00000 F2400.000
G1 F1800.000
G1 X165.859 Y90.596 E4.05837
G1 X165.976 Y89.957 E4.09097
G1 X165.917 Y88.729 E4.15263
G1 X165.571 Y87.626 E4.21068
G1 X164.969 Y86.675 E4.26715
G1 X162.416 Y84.126 E4.44819
G1 X162.525 Y83.651 E4.47267
G1 X162.529 Y82.315 E4.53974
G1 X166.389 Y82.320 E4.73345
G1 X168.485 Y82.174 E4.83891
G1 X169.690 Y81.691 F6600.000
G1 F1800.000
G1 X170.207 Y81.346 E4.87009
G1 X170.420 Y81.165 E4.88411
G1 X170.700 Y80.968 E4.90130
G1 X172.710 Y78.985 E5.04300
G1 X173.508 Y77.706 E5.11867
G1 X173.847 Y76.311 E5.19070
G1 X173.847 Y66.974 E5.65932
G1 X175.745 Y65.083 E5.79376
G1 X176.429 Y63.969 E5.85934
G1 X176.774 Y62.715 E5.92464
G1 X176.786 Y48.517 E6.63718
G1 X176.792 Y47.731 E6.67662
G1 X176.902 Y47.176 E6.70499
G1 X176.865 Y45.955 E6.76629
G1 X176.368 Y44.472 E6.84480
G1 X175.875 Y43.762 E6.88819
G1 X173.041 Y40.924 E7.08946
G1 X171.726 Y40.134 E7.16648
G1 X170.243 Y39.783 E7.24295
G1 X121.259 Y39.782 E9.70123
G1 X119.682 Y40.228 E9.78351
G1 X118.848 Y40.747 E9.83280
G1 X118.256 Y41.207 E9.87039
G1 X116.834 Y42.641 E9.97178
G1 X116.369 Y43.071 E10.00355
G1 X115.610 Y44.237 E10.07335
G1 X115.244 Y45.448 E10.13685
G1 X115.243 Y45.517 E10.14031
G1 E6.14031 F2400.000
G92 E0
G1 Z0.450 F6600.000
G1 X113.221 Y46.559
G1 Z0.350
G1 E4.00000 F2400.000
G1 F1800.000
G1 X109.503 Y46.559 E4.18660
G1 X107.500 Y46.660 E4.28725
G1 X106.273 Y47.140 E4.35335
G1 X105.683 Y47.534 E4.38896
G1 X105.102 Y47.988 E4.42598
G1 X103.705 Y49.396 E4.52552
G1 X103.318 Y49.738 E4.55140
G1 X102.641 Y50.645 E4.60825
G1 X102.080 Y52.306 E4.69620
G1 X102.070 Y55.734 E4.86827
G1 X102.066 Y57.446 F6600.000
G1 F1800.000
G1 X102.047 Y64.165 E5.20548
G1 X101.406 Y65.151 E5.26452
G1 X100.954 Y66.678 E5.34439
G1 X100.940 Y71.773 E5.60010
G1 X100.486 Y72.064 E5.62718
G1 X99.742 Y72.767 E5.67853
G1 X98.144 Y74.366 E5.79198
G1 X97.384 Y75.647 E5.86673
G1 X97.237 Y76.124 E5.89178
G1 X91.310 Y76.130 E6.18925
G1 X91.048 Y76.117 E6.20240
G1 X89.866 Y76.219 E6.26198
G1 X88.764 Y76.591 E6.32034
G1 X87.774 Y77.213 E6.37903
G1 X85.588 Y79.415 E6.53473
G1 X85.300 Y79.420 E6.54918
G1 X85.034 Y79.769 F6600.000
G1 F1800.000
G1 X85.734 Y79.757 E6.58431
G1 X87.974 Y77.495 E6.74411
G1 X88.930 Y76.894 E6.80075
G1 X89.955 Y76.552 E6.85498
G1 X91.042 Y76.462 E6.90974
G1 X91.302 Y76.475 E6.92278
G1 X97.498 Y76.469 E7.23375
G1 X97.692 Y75.802 E7.26860
G1 X98.404 Y74.594 E7.33895
G1 X99.984 Y73.012 E7.45116
G1 X100.710 Y72.327 E7.50127
G1 X101.285 Y71.964 E7.53538
G1 X101.292 Y66.752 E7.79695
G1 X101.729 Y65.274 E7.87428
G1 X102.287 Y64.428 E7.92514
G1 X102.392 Y64.313 E7.93294
G1 X102.406 Y56.999 E8.30000
G1 X102.410 Y55.289 F6600.000
G1 F1800.000
G1 X102.416 Y52.388 E8.44561
G1 X102.934 Y50.829 E8.52804
G1 X103.583 Y49.959 E8.58253
G1 X103.940 Y49.648 E8.60629
G1 X105.335 Y48.242 E8.70567
G1 X105.684 Y47.987 E8.72738
G1 X105.887 Y47.813 E8.74077
G1 X106.450 Y47.437 E8.77476
G1 X107.546 Y47.003 E8.83391
G1 X109.507 Y46.904 E8.93247
G1 X112.552 Y46.904 E9.08528
G1 E5.08528 F2400.000
G92 E0
G1 Z0.450 F6600.000
G1 X114.810 Y46.904
G1 Z0.350
G1 E4.00000 F2400.000
G1 F1800.000
G1 X115.558 Y46.904 E4.03757
G1 X115.565 Y46.515 E4.05711
G1 X115.647 Y45.309 F6600.000
G1 F1800.000
G1 X115.933 Y44.360 E4.10683
G1 X116.619 Y43.310 E4.16978
G1 X117.073 Y42.889 E4.20086
G1 X118.490 Y41.461 E4.30181
G1 X119.046 Y41.029 E4.33713
G1 X119.801 Y40.553 E4.38196
G1 X121.284 Y40.127 E4.45937
G1 X170.222 Y40.127 E6.91539
G1 X171.619 Y40.463 E6.98747
G1 X172.812 Y41.183 E7.05740
G1 X175.602 Y43.973 E7.25546
G1 X176.049 Y44.607 E7.29435
G1 X176.530 Y46.040 E7.37023
G1 X176.557 Y47.164 E7.42664
G1 X176.447 Y47.694 E7.45379
G1 X176.441 Y48.515 E7.49504
G1 X176.435 Y62.646 E8.20417
G1 X176.103 Y63.853 E8.26704
G1 X175.463 Y64.883 E8.32788
G1 X173.502 Y66.830 E8.46655
G1 X173.502 Y76.291 E8.94136
G1 X173.201 Y77.547 E9.00619
G1 X172.430 Y78.782 E9.07922
G1 X171.961 Y79.222 E9.11152
G1 X170.489 Y80.695 E9.21604
G1 X169.830 Y81.183 E9.25719
G1 X168.585 Y81.809 F6600.000
G1 F1800.000
G1 X168.523 Y81.835 E9.26060
G1 X166.384 Y81.975 E9.36819
G1 X162.185 Y81.969 E9.57890
G1 X162.180 Y83.629 E9.66219
G1 X162.034 Y84.233 E9.69340
G1 X164.689 Y86.877 E9.88143
G1 X165.250 Y87.752 E9.93359
G1 X165.573 Y88.769 E9.98712
G1 X165.630 Y89.952 E10.04658
G1 X165.515 Y90.562 E10.07770
G1 X165.510 Y93.011 E10.20065
G1 E6.20065 F2400.000
G92 E0
G1 Z0.450 F6600.000
G1 X165.513 Y96.905
G1 Z0.350
G1 E4.00000 F2400.000
G1 F1800.000
G1 X165.520 Y105.351 E4.42385
G1 X165.273 Y106.497 E4.48268
G1 X165.107 Y106.838 E4.50170
G1 X164.967 Y107.207 E4.52151
G1 X164.338 Y108.244 E4.58240
G1 X162.275 Y110.303 E4.72866
G1 X161.637 Y110.701 E4.76639
G1 X161.258 Y111.295 E4.80179
G1 X160.792 Y111.798 E4.83618
G1 X159.261 Y113.327 E4.94479
G1 X158.641 Y113.786 E4.98346
G1 X158.185 Y114.009 E5.00896
G1 X157.770 Y114.263 E5.03338
G1 X156.339 Y114.637 E5.10762
G1 X148.639 Y114.637 E5.49406
G1 E1.49406 F2400.000
G92 E0
G1 Z0.450 F6600.000
G1 X145.018 Y114.637
G1 Z0.350
G1 E4.00000 F2400.000
G1 F1800.000
G1 X144.728 Y114.637 E4.01454
G1 X144.641 Y114.750 E4.02171
G1 E0.02171 F2400.000
G92 E0
G1 Z0.450 F6600.000
G1 X143.136 Y116.298
G1 Z0.350
G1 E4.00000 F2400.000
G1 F1800.000
G1 X142.770 Y116.707 E4.02756
G1 X141.539 Y117.545 E4.10229
G1 X140.151 Y117.922 E4.17447
G1 X137.756 Y117.922 E4.29464
G1 E0.29464 F2400.000
G92 E0
G1 Z0.450 F6600.000
G1 X133.698 Y119.148
G1 Z0.350
G1 E4.00000 F2400.000
G1 F1800.000
G1 X132.458 Y120.309 E4.08527
G1 X131.529 Y120.859 E4.13943
G1 X130.534 Y121.159 E4.19159
G1 X128.304 Y121.200 E4.30352
G1 X128.038 Y121.552 E4.32566
G1 X126.628 Y122.950 E4.42529
G1 X126.226 Y123.390 E4.45521
G1 X125.392 Y123.977 E4.50640
G1 X124.342 Y124.392 E4.56306
G1 X122.369 Y124.494 E4.66220
G1 X97.178 Y124.482 E5.92643
G1 X96.352 Y124.489 E5.96787
G1 X95.807 Y124.600 E5.99578
G1 X94.050 Y124.572 E6.08399
G1 X93.270 Y124.399 E6.12409
G1 X91.964 Y123.677 E6.19897
G1 X89.270 Y120.983 E6.39021
G1 X88.943 Y120.477 E6.42040
G1 X88.404 Y120.112 E6.45309
G1 X85.788 Y117.501 E6.63861
G1 X85.250 Y116.720 E6.68615
G1 X84.795 Y115.211 E6.76527
G1 X84.795 Y114.259 E6.81304
G1 X84.902 Y113.743 E6.83949
G1 X84.902 Y112.500 E6.90189
G1 X83.881 Y111.140 F6600.000
G1 F1800.000
G1 X82.520 Y110.684 E6.97395
G1 X81.887 Y110.237 E7.01282
G1 X79.218 Y107.576 E7.20198
G1 X78.891 Y107.070 E7.23219
G1 X78.352 Y106.705 E7.26488
G1 X75.734 Y104.092 E7.45050
G1 X75.171 Y103.259 E7.50095
G1 X74.743 Y101.803 E7.57711
G1 X74.743 Y100.852 E7.62483
G1 X74.851 Y100.335 E7.65137
G1 X74.860 Y89.864 E8.17686
G1 X74.844 Y89.651 E8.18758
G1 X74.867 Y88.753 E8.23266
G1 X75.021 Y87.904 E8.27596
G1 X75.916 Y86.251 E8.37031
G1 X78.047 Y84.120 E8.52156
G1 X78.701 Y83.729 E8.55982
G1 X79.167 Y83.011 E8.60275
G1 X80.754 Y81.411 E8.71587
G1 X81.587 Y80.641 E8.77276
G1 X82.576 Y80.083 E8.82978
G1 X83.633 Y79.792 E8.88480
G1 X83.716 Y79.791 E8.88894
G1 X83.391 Y80.216 F6600.000
G1 F1800.000
G1 X82.689 Y80.410 E8.92547
G1 X81.776 Y80.931 E8.97825
G1 X80.997 Y81.656 E9.03164
G1 X79.425 Y83.241 E9.14368
G1 X78.947 Y83.985 E9.18806
G1 X78.275 Y84.379 E9.22717
G1 X76.177 Y86.477 E9.37604
G1 X75.355 Y87.993 E9.46261
G1 X75.211 Y88.775 E9.50251
G1 X75.189 Y89.650 E9.54644
G1 X75.205 Y89.850 E9.55651
G1 X75.196 Y100.372 E10.08458
G1 X75.088 Y100.871 E10.11020
G1 X75.088 Y101.778 E10.15568
G1 X75.494 Y103.134 E10.22673
G1 X75.989 Y103.859 E10.27080
G1 X78.583 Y106.449 E10.45476
G1 X79.144 Y106.824 E10.48860
G1 X79.475 Y107.346 E10.51963
G1 X82.101 Y109.966 E10.70576
G1 X82.655 Y110.365 E10.74007
G1 X83.516 Y110.654 E10.78566
G1 X84.948 Y110.841 F6600.000
G1 F1800.000
G1 X85.246 Y110.845 E10.80060
G1 X85.246 Y111.238 E10.82033
G1 X85.247 Y112.960 F6600.000
G1 F1800.000
G1 X85.247 Y113.781 E10.86153
G1 X85.140 Y114.278 E10.88708
G1 X85.140 Y115.185 E10.93258
G1 X85.571 Y116.593 E11.00648
G1 X86.042 Y117.267 E11.04773
G1 X88.636 Y119.856 E11.23164
G1 X89.196 Y120.231 E11.26548
G1 X89.527 Y120.752 E11.29650
G1 X92.190 Y123.415 E11.48550
G1 X93.412 Y124.084 E11.55540
G1 X94.104 Y124.231 E11.59091
G1 X95.792 Y124.255 E11.67562
G1 X96.314 Y124.144 E11.70241
G1 X97.177 Y124.137 E11.74569
G1 X122.365 Y124.149 E13.00977
G1 X124.294 Y124.049 E13.10675
G1 X125.243 Y123.666 E13.15810
G1 X126.010 Y123.121 E13.20531
G1 X126.378 Y122.713 E13.23290
G1 X127.785 Y121.316 E13.33239
G1 X128.129 Y120.858 E13.36115
G1 X130.458 Y120.822 E13.47801
G1 X131.409 Y120.535 E13.52787
G1 X132.264 Y120.023 E13.57790
G1 X132.958 Y119.371 E13.62565
G1 E9.62565 F2400.000
G92 E0
G1 Z0.450 F6600.000
G1 X134.581 Y117.776
G1 Z0.350
G1 E4.00000 F2400.000
G1 F1800.000
G1 X134.772 Y117.578 E4.01381
G1 X135.243 Y117.578 E4.03745
G1 E0.03745 F2400.000
G92 E0
G1 Z0.450 F6600.000
G1 X138.899 Y117.578
G1 Z0.350
G1 E4.00000 F2400.000
G1 F1800.000
G1 X140.127 Y117.578 E4.06166
G1 X141.418 Y117.221 E4.12888
G1 X142.459 Y116.503 E4.19235
G1 E0.19235 F2400.000
G92 E0
G1 Z0.450 F6600.000
G1 X144.020 Y114.937
G1 Z0.350
G1 E4.00000 F2400.000
G1 F1800.000
G1 X144.208 Y114.751 E4.01325
G1 X144.557 Y114.292 E4.04221
G1 X146.165 Y114.292 E4.12290
G1 E0.12290 F2400.000
G92 E0
G1 Z0.450 F6600.000
G1 X149.781 Y114.292
G1 Z0.350
G1 E4.00000 F2400.000
G1 F1800.000
G1 X156.317 Y114.292 E4.32802
G1 X157.612 Y113.956 E4.39514
G1 X158.020 Y113.705 E4.41917
G1 X158.450 Y113.498 E4.44317
G1 X159.026 Y113.074 E4.47906
G1 X160.546 Y111.557 E4.58683
G1 X160.994 Y111.073 E4.61990
G1 X161.389 Y110.449 E4.65698
G1 X162.047 Y110.044 E4.69575
G1 X164.054 Y108.047 E4.83784
G1 X164.663 Y107.042 E4.89681
G1 X164.790 Y106.702 E4.91502
G1 X164.954 Y106.365 E4.93387
G1 X165.175 Y105.333 E4.98682
G1 X165.169 Y98.158 E5.34692
G1 E1.34692 F2400.000
G92 E0
G1 Z0.450 F6600.000
G1 X165.166 Y94.264
G1 Z0.350
G1 E4.00000 F2400.000
G1 F1800.000
G1 X165.170 Y90.526 E4.18760
G1 X165.285 Y89.947 E4.21721
G1 X165.230 Y88.809 E4.27440
G1 X164.929 Y87.881 E4.32334
