; generated by PrusaSlicer 2.3.1+win64 on 2021-06-04 at 20:04:52 UTC

; 

; external perimeters extrusion width = 0.45mm
; perimeters extrusion width = 0.45mm
; infill extrusion width = 0.45mm
; solid infill extrusion width = 0.45mm
; top infill extrusion width = 0.40mm
; support material extrusion width = 0.35mm
; first layer extrusion width = 0.42mm

M107
M190 S80 ; set bed temperature and wait for it to be reached
M104 S230 ; set temperature
;TYPE:Custom
G28 ; home all axes
G1 Z5 F5000 ; lift nozzle
M109 S230 ; set temperature and wait for it to be reached
G21 ; set units to millimeters
G90 ; use absolute coordinates
M82 ; use absolute distances for extrusion
G92 E0
; Filament gcode
;LAYER_CHANGE
;Z:0.35
;HEIGHT:0.35
G1 Z0.350 F6600.000
G1 E-4.00000 F2400.000
G92 E0
G1 Z0.450 F6600.000
G1 X117.806 Y74.354
G1 Z0.350
G1 E4.00000 F2400.000
;TYPE:Skirt
;WIDTH:0.42
G1 F3000.000
G1 X128.253 Y63.825 E4.74435
G1 X132.368 Y61.059 E4.99319
G1 X137.942 Y58.328 E5.30472
G1 X146.310 Y55.729 E5.74446
G1 X152.244 Y54.409 E6.04956
G1 X170.898 Y54.384 E6.98572
G1 X178.286 Y55.754 E7.36283
G1 X186.117 Y58.369 E7.77714
G1 X191.049 Y61.033 E8.05845
G1 X195.471 Y63.808 E8.32048
G1 X198.234 Y66.446 E8.51218
G1 X206.191 Y74.467 E9.07919
G1 X211.103 Y83.750 E9.60625
G1 X213.907 Y91.596 E10.02443
G1 X215.333 Y98.233 E10.36509
G1 X215.352 Y117.531 E11.33360
G1 X214.113 Y124.116 E11.66984
G1 X211.430 Y132.151 E12.09499
G1 X208.790 Y137.426 E12.39105
G1 X206.054 Y141.444 E12.63496
G1 X195.607 Y151.972 E13.37932
G1 X191.399 Y154.789 E13.63346
G1 X185.917 Y157.468 E13.93968
G1 X177.552 Y160.066 E14.37925
G1 X171.523 Y161.400 E14.68918
G1 X152.877 Y161.409 E15.62490
G1 X145.712 Y160.079 E15.99065
G1 X137.678 Y157.396 E16.41574
G1 X132.800 Y154.753 E16.69416
G1 X128.420 Y152.012 E16.95347
G1 X125.631 Y149.351 E17.14694
G1 X117.780 Y141.483 E17.70475
G1 X112.840 Y132.223 E18.23144
G1 X109.956 Y124.198 E18.65941
G1 X108.513 Y117.425 E19.00697
G1 X108.510 Y98.264 E19.96859
G1 X109.749 Y91.679 E20.30483
G1 X112.432 Y83.644 E20.72998
G1 X115.073 Y78.369 E21.02604
G1 X117.772 Y74.403 E21.26678
G1 X118.057 Y74.597 F6600.000
G1 F3000.000
G1 X128.484 Y64.080 E22.01002
G1 X132.548 Y61.353 E22.25565
G1 X138.052 Y58.655 E22.56329
G1 X146.401 Y56.062 E23.00201
G1 X152.302 Y54.749 E23.30542
G1 X170.898 Y54.729 E24.23867
G1 X178.180 Y56.082 E24.61038
G1 X185.985 Y58.688 E25.02333
G1 X190.878 Y61.333 E25.30250
G1 X195.242 Y64.066 E25.56087
G1 X197.989 Y66.690 E25.75155
G1 X205.900 Y74.651 E26.31480
G1 X210.781 Y83.873 E26.83843
G1 X213.576 Y91.694 E27.25525
G1 X214.993 Y98.287 E27.59368
G1 X215.008 Y117.514 E28.55859
G1 X213.777 Y124.037 E28.89174
G1 X211.118 Y132.004 E29.31324
G1 X208.490 Y137.255 E29.60791
G1 X205.779 Y141.237 E29.84968
G1 X195.376 Y151.716 E30.59074
G1 X191.239 Y154.484 E30.84052
G1 X185.807 Y157.141 E31.14400
G1 X177.461 Y159.733 E31.58258
G1 X171.483 Y161.057 E31.88986
G1 X152.895 Y161.064 E32.82272
G1 X145.792 Y159.744 E33.18529
G1 X137.822 Y157.083 E33.60700
G1 X132.974 Y154.456 E33.88373
G1 X128.642 Y151.748 E34.14010
G1 X125.875 Y149.107 E34.33207
G1 X118.049 Y141.268 E34.88796
G1 X113.146 Y132.062 E35.41141
G1 X110.286 Y124.101 E35.83597
G1 X108.857 Y117.397 E36.17998
G1 X108.855 Y98.278 E37.13947
G1 X110.085 Y91.758 E37.47247
G1 X112.744 Y83.791 E37.89398
G1 X115.372 Y78.540 E38.18864
G1 X118.023 Y74.647 E38.42504
G1 E34.42504 F2400.000
G92 E0
G1 Z0.450 F6600.000
G1 X108.817 Y119.681
G1 Z0.350
G1 E4.00000 F2400.000
G1 F3000.000
G1 X108.550 Y119.530 E4.01541
G1 X107.891 Y118.840 E4.06329
G1 X107.584 Y118.236 E4.09730
G1 X107.443 Y117.597 E4.13011
G1 X107.445 Y97.944 E5.11645
G1 X107.630 Y97.290 E5.15055
G1 X107.875 Y96.861 E5.17532
G1 X108.634 Y96.107 E5.22901
G1 X108.634 Y91.827 E5.44384
G1 X108.708 Y91.350 E5.46804
G1 X109.164 Y90.420 E5.52003
G1 X109.767 Y89.819 E5.56277
G1 X109.924 Y89.723 E5.57201
G1 X109.952 Y87.679 E5.67457
G1 X110.095 Y87.202 E5.69957
G1 X110.428 Y86.592 E5.73444
G1 X111.205 Y85.839 E5.78875
G1 X111.205 Y84.092 E5.87643
G1 X111.387 Y83.328 E5.91582
G1 X111.829 Y82.585 E5.95922
G1 X112.352 Y82.094 E5.99522
G1 X112.491 Y82.008 E6.00340
G1 X112.503 Y81.387 E6.03457
G1 X112.701 Y80.691 E6.07090
G1 X113.004 Y80.156 E6.10175
G1 X113.564 Y79.582 E6.14201
G1 X113.782 Y79.447 E6.15489
G1 X113.808 Y78.699 E6.19243
G1 X113.994 Y78.100 E6.22390
G1 X114.180 Y77.737 E6.24442
G1 X114.899 Y76.975 E6.29698
G1 X115.330 Y76.740 E6.32160
G1 X115.574 Y76.301 E6.34679
G1 X116.074 Y75.778 E6.38311
G1 X116.412 Y75.545 E6.40374
G1 X116.437 Y74.844 E6.43894
G1 X116.619 Y74.254 E6.46989
G1 X116.884 Y73.774 E6.49746
G1 X117.523 Y73.122 E6.54323
G1 X118.098 Y72.803 E6.57624
G1 X118.288 Y72.458 E6.59601
G1 X118.856 Y71.871 E6.63699
G1 X119.468 Y71.535 E6.67203
G1 X119.675 Y71.161 E6.69349
G1 X120.277 Y70.552 E6.73648
G1 X120.816 Y70.279 E6.76681
G1 X120.887 Y70.129 E6.77512
G1 X121.137 Y69.772 E6.79702
G1 X121.671 Y69.257 E6.83425
G1 X122.241 Y68.955 E6.86659
G1 X122.503 Y68.500 E6.89295
G1 X123.021 Y67.999 E6.92913
G1 X123.378 Y67.760 E6.95070
G1 X123.615 Y67.666 E6.96347
G1 X123.809 Y67.309 E6.98387
G1 X124.314 Y66.774 E7.02075
G1 X124.982 Y66.398 E7.05926
G1 X125.152 Y66.077 E7.07747
G1 X125.396 Y65.815 E7.09543
G1 X125.441 Y65.581 E7.10742
G1 X125.875 Y64.708 E7.15631
G1 X126.496 Y64.098 E7.19998
G1 X126.900 Y63.884 E7.22297
G1 X127.140 Y63.451 E7.24779
G1 X127.640 Y62.926 E7.28419
G1 X128.230 Y62.551 E7.31925
G1 X128.875 Y62.346 E7.35324
G1 X129.619 Y62.316 E7.39062
G1 X129.812 Y62.040 E7.40751
G1 X130.335 Y61.540 E7.44384
G1 X130.771 Y61.298 E7.46887
G1 X130.976 Y60.907 E7.49102
G1 X131.439 Y60.407 E7.52523
G1 X131.809 Y60.121 E7.54871
G1 X132.763 Y59.771 E7.59967
G1 X133.468 Y59.752 E7.63508
G1 X133.567 Y59.592 E7.64454
G1 X134.155 Y58.997 E7.68650
G1 X134.906 Y58.593 E7.72930
G1 X135.373 Y58.480 E7.75342
G1 X136.142 Y58.466 E7.79205
G1 X136.299 Y58.214 E7.80696
G1 X136.857 Y57.676 E7.84585
G1 X137.740 Y57.253 E7.89498
G1 X137.941 Y57.210 E7.90531
G1 X139.413 Y57.170 E7.97919
G1 X139.544 Y57.184 E7.98585
G1 X140.269 Y57.177 E8.02219
G1 X140.366 Y57.018 E8.03153
G1 X140.919 Y56.450 E8.07133
G1 X141.841 Y55.977 E8.12330
G1 X142.372 Y55.886 E8.15034
G1 X144.406 Y55.888 E8.25243
G1 X144.493 Y55.748 E8.26068
G1 X145.031 Y55.187 E8.29974
G1 X146.005 Y54.679 E8.35481
G1 X146.397 Y54.614 E8.37476
G1 X150.155 Y54.605 E8.56340
G1 X150.832 Y53.885 E8.61300
G1 X151.407 Y53.536 E8.64676
G1 X152.050 Y53.341 E8.68047
G1 X153.246 Y53.317 E8.74051
G1 X168.563 Y53.314 E9.50920
G1 X171.269 Y53.329 E9.64502
G1 X171.828 Y53.455 E9.67376
G1 X172.482 Y53.795 E9.71078
G1 X173.132 Y54.426 E9.75623
G1 X173.242 Y54.602 E9.76666
G1 X176.853 Y54.599 E9.94790
G1 X178.124 Y54.615 E10.01165
G1 X178.510 Y54.680 E10.03130
G1 X179.482 Y55.187 E10.08635
G1 X180.021 Y55.748 E10.12540
G1 X180.110 Y55.892 E10.13390
G1 X181.870 Y55.886 E10.22221
G1 X182.372 Y55.969 E10.24777
G1 X183.339 Y56.472 E10.30247
G1 X183.878 Y57.034 E10.34154
G1 X183.965 Y57.173 E10.34979
G1 X185.011 Y57.184 E10.40231
G1 X185.165 Y57.170 E10.41008
G1 X186.106 Y57.228 E10.45737
G1 X186.990 Y57.606 E10.50566
G1 X187.648 Y58.210 E10.55047
G1 X187.814 Y58.479 E10.56630
G1 X188.041 Y58.502 E10.57776
G1 X188.581 Y58.679 E10.60630
G1 X189.049 Y58.946 E10.63332
G1 X189.625 Y59.495 E10.67326
G1 X189.802 Y59.744 E10.68860
G1 X190.639 Y59.761 E10.73059
G1 X191.650 Y60.120 E10.78446
G1 X192.021 Y60.407 E10.80800
G1 X192.483 Y60.906 E10.84210
G1 X192.668 Y61.246 E10.86156
G1 X193.216 Y61.537 E10.89265
G1 X193.743 Y62.040 E10.92922
G1 X193.938 Y62.320 E10.94637
G1 X194.866 Y62.345 E10.99297
G1 X195.510 Y62.550 E11.02690
G1 X196.066 Y62.896 E11.05974
G1 X196.602 Y63.450 E11.09846
G1 X196.800 Y63.808 E11.11898
G1 X197.052 Y63.915 E11.13270
G1 X197.489 Y64.217 E11.15940
G1 X197.985 Y64.739 E11.19553
G1 X198.205 Y65.150 E11.21892
G1 X198.792 Y65.489 E11.25293
G1 X199.293 Y66.021 E11.28960
G1 X199.540 Y66.467 E11.31520
G1 X200.076 Y66.774 E11.34619
G1 X200.579 Y67.307 E11.38295
G1 X200.817 Y67.737 E11.40767
G1 X201.366 Y68.064 E11.43974
G1 X201.864 Y68.592 E11.47616
G1 X202.103 Y69.023 E11.50088
G1 X202.638 Y69.338 E11.53204
G1 X203.124 Y69.844 E11.56724
G1 X203.346 Y70.185 E11.58767
G1 X203.406 Y70.319 E11.59501
G1 X203.924 Y70.623 E11.62516
G1 X204.409 Y71.130 E11.66037
G1 X204.632 Y71.471 E11.68080
G1 X204.692 Y71.604 E11.68814
G1 X205.209 Y71.909 E11.71829
G1 X205.695 Y72.415 E11.75350
G1 X205.918 Y72.756 E11.77393
G1 X205.980 Y72.898 E11.78169
G1 X206.406 Y73.124 E11.80588
G1 X206.861 Y73.560 E11.83751
G1 X207.138 Y73.921 E11.86034
G1 X207.506 Y74.987 E11.91694
G1 X207.515 Y76.188 E11.97723
G1 X207.720 Y76.419 E11.99270
G1 X207.869 Y76.684 E12.00795
G1 X208.362 Y76.943 E12.03594
G1 X208.862 Y77.406 E12.07008
G1 X209.148 Y77.776 E12.09356
G1 X209.497 Y78.727 E12.14441
G1 X209.523 Y79.392 E12.17784
G1 X209.760 Y79.529 E12.19160
G1 X210.449 Y80.230 E12.24089
G1 X210.682 Y80.655 E12.26521
G1 X210.859 Y81.188 E12.29340
G1 X210.891 Y81.960 E12.33222
G1 X211.139 Y82.096 E12.34640
G1 X211.661 Y82.585 E12.38226
G1 X212.141 Y83.424 E12.43079
G1 X212.285 Y84.091 E12.46503
G1 X212.285 Y85.823 E12.55196
G1 X212.527 Y85.962 E12.56597
G1 X213.149 Y86.589 E12.61029
G1 X213.422 Y87.037 E12.63664
G1 X213.631 Y87.690 E12.67103
G1 X213.661 Y89.681 E12.77096
G1 X213.912 Y89.820 E12.78537
G1 X214.480 Y90.373 E12.82511
G1 X214.985 Y91.401 E12.88260
G1 X215.044 Y91.825 E12.90410
G1 X215.044 Y96.068 E13.11701
G1 X215.055 Y96.120 F6600.000
G1 F3000.000
G1 X215.311 Y96.264 E13.13176
G1 X215.940 Y96.911 E13.17704
G1 X216.257 Y97.506 E13.21086
G1 X216.392 Y97.968 E13.23500
G1 X216.417 Y117.851 E14.23284
G1 X216.232 Y118.505 E14.26696
G1 X215.988 Y118.934 E14.29174
G1 X215.229 Y119.687 E14.34543
G1 X215.229 Y123.968 E14.56026
G1 X215.154 Y124.445 E14.58446
G1 X214.699 Y125.375 E14.63645
G1 X214.095 Y125.976 E14.67919
G1 X213.938 Y126.072 E14.68843
G1 X213.910 Y128.116 E14.79099
G1 X213.768 Y128.593 E14.81599
G1 X213.434 Y129.203 E14.85086
G1 X212.657 Y129.956 E14.90517
G1 X212.657 Y131.703 E14.99285
G1 X212.475 Y132.466 E15.03224
G1 X212.033 Y133.210 E15.07564
G1 X211.510 Y133.701 E15.11164
G1 X211.372 Y133.787 E15.11982
G1 X211.359 Y134.408 E15.15099
G1 X211.162 Y135.104 E15.18733
G1 X210.858 Y135.638 E15.21817
G1 X210.298 Y136.213 E15.25843
G1 X210.080 Y136.348 E15.27131
G1 X210.055 Y137.096 E15.30885
G1 X209.869 Y137.695 E15.34032
G1 X209.682 Y138.058 E15.36084
G1 X208.963 Y138.820 E15.41340
G1 X208.532 Y139.055 E15.43802
G1 X208.289 Y139.494 E15.46321
G1 X207.789 Y140.017 E15.49953
G1 X207.450 Y140.250 E15.52016
G1 X207.425 Y140.951 E15.55536
G1 X207.244 Y141.541 E15.58632
G1 X206.955 Y142.052 E15.61580
G1 X206.360 Y142.658 E15.65838
G1 X206.001 Y142.891 E15.67991
G1 X205.806 Y142.970 E15.69047
G1 X205.474 Y143.463 E15.72028
G1 X204.924 Y143.986 E15.75837
G1 X204.392 Y144.266 E15.78853
G1 X204.187 Y144.634 E15.80967
G1 X203.586 Y145.243 E15.85261
G1 X203.023 Y145.528 E15.88429
G1 X202.807 Y145.920 E15.90676
G1 X202.242 Y146.498 E15.94728
G1 X201.822 Y146.768 E15.97238
G1 X201.626 Y146.849 E15.98301
G1 X201.433 Y147.200 E16.00313
G1 X200.965 Y147.697 E16.03740
G1 X200.500 Y148.023 E16.06589
G1 X200.249 Y148.130 E16.07958
G1 X200.053 Y148.486 E16.09997
G1 X199.585 Y148.983 E16.13424
G1 X199.120 Y149.309 E16.16273
G1 X198.873 Y149.414 E16.17622
G1 X198.710 Y149.718 E16.19355
G1 X198.467 Y149.980 E16.21148
G1 X198.421 Y150.214 E16.22346
G1 X197.988 Y151.087 E16.27236
G1 X197.367 Y151.697 E16.31603
G1 X196.962 Y151.911 E16.33902
G1 X196.723 Y152.344 E16.36384
G1 X196.222 Y152.869 E16.40023
G1 X195.633 Y153.244 E16.43530
G1 X194.987 Y153.449 E16.46929
G1 X194.243 Y153.478 E16.50667
G1 X194.051 Y153.755 E16.52356
G1 X193.528 Y154.255 E16.55989
G1 X193.089 Y154.499 E16.58509
G1 X192.852 Y154.929 E16.60971
G1 X192.043 Y155.679 E16.66508
G1 X191.579 Y155.898 E16.69085
G1 X191.085 Y156.028 E16.71650
G1 X190.394 Y156.047 E16.75119
G1 X190.306 Y156.190 E16.75961
G1 X189.770 Y156.750 E16.79850
G1 X188.950 Y157.204 E16.84551
G1 X188.442 Y157.320 E16.87170
G1 X187.736 Y157.330 E16.90712
G1 X187.647 Y157.476 E16.91568
G1 X187.108 Y158.037 E16.95475
G1 X186.185 Y158.527 E17.00719
G1 X185.742 Y158.609 E17.02978
G1 X183.578 Y158.620 E17.13839
G1 X183.415 Y158.876 E17.15362
G1 X182.624 Y159.561 E17.20613
G1 X181.707 Y159.887 E17.25496
G1 X179.455 Y159.904 E17.36801
G1 X179.356 Y160.064 E17.37744
G1 X178.756 Y160.666 E17.42009
G1 X178.297 Y160.945 E17.44702
G1 X177.789 Y161.131 E17.47419
G1 X176.167 Y161.196 E17.55567
G1 X173.675 Y161.190 E17.68075
G1 X173.564 Y161.369 E17.69132
G1 X172.873 Y162.029 E17.73928
G1 X172.300 Y162.324 E17.77161
G1 X171.744 Y162.461 E17.80038
G1 X169.252 Y162.481 E17.92542
G1 X152.615 Y162.475 E18.76040
G1 X151.865 Y162.269 E18.79939
G1 X151.306 Y161.944 E18.83185
G1 X150.589 Y161.193 E18.88398
G1 X145.738 Y161.180 E19.12741
G1 X145.353 Y161.115 E19.14703
G1 X144.380 Y160.608 E19.20207
G1 X143.841 Y160.047 E19.24112
G1 X143.753 Y159.904 E19.24955
G1 X142.853 Y159.911 E19.29471
G1 X141.691 Y159.871 E19.35307
G1 X141.269 Y159.749 E19.37513
G1 X140.660 Y159.426 E19.40970
G1 X140.013 Y158.796 E19.45503
G1 X139.905 Y158.622 E19.46531
G1 X138.003 Y158.608 E19.56075
G1 X137.370 Y158.445 E19.59359
G1 X136.619 Y158.000 E19.63736
G1 X136.129 Y157.477 E19.67332
G1 X136.033 Y157.316 E19.68274
G1 X135.822 Y157.293 E19.69343
G1 X135.277 Y157.115 E19.72218
G1 X134.770 Y156.816 E19.75172
G1 X134.200 Y156.258 E19.79179
G1 X134.071 Y156.050 E19.80406
G1 X133.196 Y156.031 E19.84796
G1 X132.544 Y155.838 E19.88209
G1 X132.173 Y155.649 E19.90302
G1 X131.412 Y154.931 E19.95551
G1 X131.197 Y154.550 E19.97744
G1 X130.652 Y154.262 E20.00840
G1 X130.116 Y153.757 E20.04536
G1 X129.941 Y153.475 E20.06199
G1 X128.997 Y153.450 E20.10940
G1 X128.314 Y153.227 E20.14546
G1 X127.765 Y152.874 E20.17819
G1 X127.260 Y152.345 E20.21488
G1 X127.063 Y151.986 E20.23544
G1 X126.811 Y151.880 E20.24913
G1 X126.346 Y151.554 E20.27762
G1 X125.880 Y151.059 E20.31176
G1 X125.662 Y150.668 E20.33423
G1 X125.500 Y150.595 E20.34318
G1 X125.035 Y150.269 E20.37168
G1 X124.569 Y149.773 E20.40581
G1 X124.332 Y149.346 E20.43030
G1 X123.841 Y149.064 E20.45873
G1 X123.328 Y148.547 E20.49528
G1 X123.050 Y148.063 E20.52329
G1 X122.567 Y147.786 E20.55123
G1 X122.045 Y147.266 E20.58825
G1 X121.778 Y146.784 E20.61587
G1 X121.269 Y146.492 E20.64533
G1 X120.750 Y145.968 E20.68236
G1 X120.493 Y145.502 E20.70903
G1 X120.054 Y145.258 E20.73426
G1 X119.509 Y144.734 E20.77223
G1 X119.232 Y144.326 E20.79696
G1 X119.173 Y144.198 E20.80399
G1 X118.769 Y143.974 E20.82720
G1 X118.241 Y143.476 E20.86362
G1 X117.909 Y142.917 E20.89626
G1 X117.483 Y142.688 E20.92052
G1 X116.888 Y142.104 E20.96233
G1 X116.527 Y141.460 E20.99941
G1 X116.373 Y140.915 E21.02780
G1 X116.350 Y139.610 E21.09332
G1 X116.143 Y139.376 E21.10903
G1 X115.993 Y139.108 E21.12443
G1 X115.443 Y138.807 E21.15590
G1 X114.708 Y138.005 E21.21047
G1 X114.491 Y137.545 E21.23600
G1 X114.360 Y137.051 E21.26167
G1 X114.343 Y136.396 E21.29453
G1 X114.057 Y136.234 E21.31098
G1 X113.467 Y135.634 E21.35322
G1 X113.081 Y134.886 E21.39548
G1 X112.964 Y134.345 E21.42325
G1 X112.957 Y133.843 E21.44843
G1 X112.731 Y133.698 E21.46193
G1 X112.021 Y132.970 E21.51292
G1 X111.732 Y132.404 E21.54483
G1 X111.581 Y131.738 E21.57909
G1 X111.578 Y129.970 E21.66781
G1 X111.326 Y129.827 E21.68233
G1 X110.720 Y129.224 E21.72523
G1 X110.258 Y128.246 E21.77950
G1 X110.221 Y128.017 E21.79115
G1 X110.206 Y126.116 E21.88656
G1 X109.950 Y125.974 E21.90123
G1 X109.382 Y125.422 E21.94098
G1 X108.877 Y124.394 E21.99847
G1 X108.818 Y123.970 E22.01997
G1 X108.818 Y119.686 E22.23497
G1 X108.716 Y119.206 F6600.000
G1 F3000.000
G1 X108.185 Y118.658 E22.27324
G1 X107.915 Y118.136 E22.30272
G1 X107.787 Y117.577 E22.33150
G1 X107.784 Y98.015 E23.31327
G1 X107.956 Y97.406 E23.34504
G1 X108.160 Y97.055 E23.36540
G1 X108.654 Y96.566 E23.40028
G1 X108.979 Y94.841 F6600.000
G1 F3000.000
G1 X108.979 Y91.838 E23.55101
G1 X109.030 Y91.477 E23.56932
G1 X109.460 Y90.599 E23.61835
G1 X109.986 Y90.088 E23.65515
G1 X110.123 Y90.014 E23.66299
G1 X110.271 Y89.572 F6600.000
