; generated by PrusaSlicer 2.3.1+win64 on 2021-05-27 at 00:01:53 UTC

; 

; external perimeters extrusion width = 0.45mm
; perimeters extrusion width = 0.45mm
; infill extrusion width = 0.45mm
; solid infill extrusion width = 0.45mm
; top infill extrusion width = 0.40mm
; support material extrusion width = 0.35mm
; first layer extrusion width = 0.42mm

M107
M190 S80 ; set bed temperature and wait for it to be reached
M104 S230 ; set temperature
;TYPE:Custom
G28 ; home all axes
G1 Z5 F5000 ; lift nozzle
M109 S230 ; set temperature and wait for it to be reached
G21 ; set units to millimeters
G90 ; use absolute coordinates
M82 ; use absolute distances for extrusion
G92 E0
; Filament gcode
;LAYER_CHANGE
;Z:0.35
;HEIGHT:0.35
G1 Z0.350 F6600.000
G1 E-4.00000 F2400.000
G92 E0
G1 Z0.450 F6600.000
G1 X200.611 Y50.971
G1 Z0.350
G1 E4.00000 F2400.000
;TYPE:Skirt
;WIDTH:0.42
G1 F3000.000
G1 X201.144 Y51.310 E4.03172
G1 X229.088 Y78.159 E5.97651
G1 X231.618 Y80.823 E6.16093
G1 X233.683 Y83.886 E6.34630
G1 X235.331 Y87.507 E6.54597
G1 X236.291 Y91.216 E6.73822
G1 X236.608 Y95.182 E6.93788
G1 X236.258 Y98.999 E7.13025
G1 X235.329 Y102.557 E7.31479
G1 X233.832 Y105.899 E7.49855
G1 X231.626 Y109.225 E7.69887
G1 X228.978 Y112.006 E7.89157
G1 X225.904 Y114.299 E8.08403
G1 X222.482 Y116.043 E8.27680
G1 X218.951 Y117.152 E8.46252
G1 X158.754 Y134.932 E11.61263
G1 X158.322 Y134.993 E11.63449
G1 X154.152 Y134.987 E11.84378
G1 X88.937 Y117.162 E15.23672
G1 X85.382 Y116.049 E15.42364
G1 X81.943 Y114.297 E15.61738
G1 X78.749 Y111.887 E15.81818
G1 X76.231 Y109.234 E16.00173
G1 X74.173 Y106.181 E16.18651
G1 X72.560 Y102.658 E16.38094
G1 X71.538 Y98.675 E16.58730
G1 X71.236 Y95.022 E16.77130
G1 X71.560 Y91.213 E16.96313
G1 X72.584 Y87.344 E17.16399
G1 X74.097 Y83.999 E17.34825
G1 X76.218 Y80.841 E17.53916
G1 X78.955 Y77.982 E17.73781
G1 X112.508 Y51.552 E19.88133
G1 X112.915 Y51.316 E19.90494
G1 X113.541 Y51.192 E19.93698
G1 X199.990 Y50.852 E24.27553
G1 X200.552 Y50.960 E24.30424
G1 X200.485 Y51.292 F6600.000
G1 F3000.000
G1 X200.910 Y51.563 E24.32954
G1 X228.841 Y78.399 E26.27346
G1 X231.349 Y81.039 E26.45617
G1 X233.397 Y84.078 E26.64009
G1 X235.005 Y87.620 E26.83533
G1 X235.950 Y91.271 E27.02461
G1 X236.264 Y95.154 E27.22011
G1 X235.924 Y98.912 E27.40948
G1 X235.002 Y102.445 E27.59269
G1 X233.518 Y105.757 E27.77485
G1 X231.355 Y109.012 E27.97096
G1 X228.747 Y111.750 E28.16076
G1 X225.721 Y114.007 E28.35020
G1 X222.349 Y115.725 E28.54012
G1 X218.854 Y116.821 E28.72395
G1 X158.662 Y134.600 E31.87376
G1 X154.185 Y134.644 E32.09842
G1 X89.028 Y116.830 E35.48840
G1 X85.509 Y115.728 E35.67348
G1 X82.129 Y114.006 E35.86387
G1 X78.997 Y111.647 E36.06063
G1 X76.500 Y109.019 E36.24255
G1 X74.459 Y105.989 E36.42590
G1 X72.878 Y102.526 E36.61697
G1 X71.882 Y98.646 E36.81799
G1 X71.581 Y95.025 E37.00031
G1 X71.900 Y91.271 E37.18939
G1 X72.898 Y87.485 E37.38589
G1 X74.397 Y84.169 E37.56854
G1 X76.491 Y81.051 E37.75702
G1 X79.171 Y78.251 E37.95157
G1 X112.721 Y51.824 E40.09490
G1 X113.047 Y51.635 E40.11382
G1 X113.545 Y51.537 E40.13929
G1 X199.990 Y51.197 E44.47761
G1 X200.426 Y51.281 E44.49990
G1 E40.49990 F2400.000
G92 E0
G1 Z0.450 F6600.000
G1 X84.303 Y73.550
G1 Z0.350
G1 E4.00000 F2400.000
G1 F3000.000
G1 X81.388 Y75.051 E4.16458
G1 X78.209 Y77.443 E4.36424
G1 X75.468 Y80.343 E4.56449
G1 X73.259 Y83.663 E4.76460
G1 X71.641 Y87.303 E4.96453
G1 X70.659 Y91.165 E5.16453
G1 X70.340 Y95.131 E5.36420
G1 X70.695 Y99.104 E5.56441
G1 X71.727 Y102.995 E5.76643
G1 X73.348 Y106.554 E5.96270
G1 X75.523 Y109.785 E6.15815
G1 X78.221 Y112.627 E6.35477
G1 X81.332 Y114.969 E6.55022
G1 X85.143 Y116.919 E6.76505
G1 X88.821 Y118.057 E6.95827
G1 X92.631 Y118.578 E7.15128
G1 X93.369 Y118.552 E7.18832
G1 E3.18832 F2400.000
G92 E0
G1 Z0.450 F6600.000
G1 X95.684 Y118.471
G1 Z0.350
G1 E4.00000 F2400.000
G1 F3000.000
G1 X96.884 Y118.428 E4.06022
G1 X100.526 Y117.671 E4.24695
G1 X106.505 Y116.114 E4.55699
G1 X112.724 Y114.893 E4.87507
G1 X119.864 Y113.869 E5.23704
G1 X128.033 Y113.050 E5.64908
G1 X139.876 Y112.286 E6.24465
G1 X151.716 Y111.918 E6.83916
G1 X151.716 Y133.664 E7.93049
G1 X151.763 Y133.802 E7.93782
G1 X152.025 Y134.584 F6600.000
G1 F3000.000
G1 X152.258 Y134.917 E7.95824
G1 X152.698 Y135.357 E7.98944
G1 X153.244 Y135.697 E8.02170
G1 X153.954 Y135.891 E8.05864
G1 X158.962 Y135.839 E8.30998
G1 X159.475 Y135.645 E8.33753
G1 X159.912 Y135.352 E8.36394
G1 X160.488 Y134.735 E8.40631
G1 X160.560 Y134.579 E8.41492
G1 X160.867 Y133.769 F6600.000
G1 F3000.000
G1 X160.889 Y133.608 E8.42305
G1 X160.889 Y111.925 E9.51127
G1 X163.015 Y111.931 E9.61794
G1 X173.077 Y112.325 E10.12330
G1 X182.209 Y113.040 E10.58302
G1 X190.360 Y114.041 E10.99514
G1 X197.663 Y115.296 E11.36701
G1 X204.029 Y116.755 E11.69480
G1 X207.365 Y117.681 E11.86855
G1 X211.203 Y118.457 E12.06506
G1 X212.550 Y118.503 E12.13267
G1 E8.13267 F2400.000
G92 E0
G1 Z0.450 F6600.000
G1 X214.733 Y118.577
G1 Z0.350
G1 E4.00000 F2400.000
G1 F3000.000
G1 X215.049 Y118.588 E4.01586
G1 X218.873 Y118.090 E4.20939
G1 X222.821 Y116.873 E4.41671
G1 X226.409 Y115.040 E4.61893
G1 X229.647 Y112.610 E4.82212
G1 X232.384 Y109.712 E5.02218
G1 X234.616 Y106.344 E5.22495
G1 X236.179 Y102.842 E5.41742
G1 X237.148 Y99.138 E5.60955
G1 X237.508 Y95.179 E5.80905
G1 X237.191 Y91.167 E6.01104
G1 X236.207 Y87.297 E6.21141
G1 X234.480 Y83.463 E6.42245
G1 X232.322 Y80.268 E6.61593
G1 X229.684 Y77.484 E6.80842
G1 X226.406 Y75.016 E7.01433
G1 X225.686 Y74.651 E7.05486
G1 E3.05486 F2400.000
G92 E0
G1 Z0.450 F6600.000
G1 X223.575 Y73.579
G1 Z0.350
G1 E4.00000 F2400.000
G1 F3000.000
G1 X222.734 Y73.152 E4.04736
G1 X219.032 Y72.004 E4.24186
G1 X215.168 Y71.476 E4.43757
G1 X211.179 Y71.605 E4.63788
G1 X207.367 Y72.377 E4.83310
G1 X204.051 Y73.300 E5.00579
G1 X202.573 Y73.638 E5.08188
G1 X202.573 Y53.401 E6.09747
G1 X202.573 Y52.445 F6600.000
G1 F3000.000
G1 X202.573 Y52.188 E6.11035
G1 X202.380 Y51.482 E6.14710
G1 X202.019 Y50.914 E6.18086
G1 X201.309 Y50.281 E6.22859
G1 X200.894 Y50.085 E6.25165
G1 X200.465 Y49.973 E6.27386
G1 X195.412 Y49.990 E6.52747
G1 X194.831 Y50.192 E6.55832
G1 X194.378 Y50.493 E6.58563
G1 X194.182 Y50.702 E6.60002
G1 X193.672 Y51.394 F6600.000
G1 F3000.000
G1 X193.452 Y51.874 E6.62653
G1 X193.400 Y52.237 E6.64491
G1 X193.400 Y75.495 E7.81214
G1 X190.398 Y76.012 E7.96501
G1 X182.228 Y77.014 E8.37809
G1 X173.076 Y77.735 E8.83884
G1 X163.015 Y78.128 E9.34416
G1 X152.120 Y78.158 E9.89093
G1 X139.910 Y77.774 E10.50397
G1 X128.098 Y77.012 E11.09801
G1 X120.138 Y76.208 E11.49956
G1 X120.138 Y52.579 E12.68539
G1 X120.072 Y52.169 E12.70624
G1 X119.846 Y51.685 E12.73305
G1 X119.313 Y50.997 F6600.000
G1 F3000.000
G1 X119.160 Y50.833 E12.74431
G1 X118.706 Y50.532 E12.77162
G1 X118.126 Y50.330 E12.80246
G1 X113.236 Y50.295 E13.04787
G1 X112.608 Y50.440 E13.08023
G1 X111.973 Y50.802 E13.11692
G1 X111.474 Y51.306 E13.15250
G1 X111.158 Y51.822 E13.18284
G1 X110.964 Y52.549 E13.22060
G1 X110.964 Y53.427 F6600.000
G1 F3000.000
G1 X110.964 Y74.816 E14.29402
G1 X106.507 Y73.945 E14.52194
G1 X100.526 Y72.388 E14.83209
G1 X96.896 Y71.632 E15.01819
G1 X92.931 Y71.463 E15.21735
G1 X88.660 Y72.043 E15.43367
G1 X86.432 Y72.751 E15.55098
G1 X85.667 Y73.354 F6600.000
G1 F3000.000
G1 X88.750 Y72.376 E15.71331
G1 X92.932 Y71.809 E15.92511
G1 X96.840 Y71.972 E16.12140
G1 X100.444 Y72.722 E16.30614
G1 X106.431 Y74.281 E16.61661
G1 X111.309 Y75.235 E16.86608
G1 X111.309 Y53.155 E17.97416
G1 X111.410 Y52.198 F6600.000
G1 F3000.000
G1 X111.482 Y51.941 E17.98756
G1 X111.755 Y51.507 E18.01326
G1 X112.199 Y51.064 E18.04475
G1 X112.754 Y50.754 E18.07665
G1 X113.254 Y50.640 E18.10239
G1 X118.042 Y50.666 E18.34272
G1 X118.538 Y50.834 E18.36896
G1 X118.791 Y50.999 E18.38416
G1 X119.466 Y51.686 F6600.000
G1 F3000.000
G1 X119.749 Y52.291 E18.41766
G1 X119.793 Y52.590 E18.43285
G1 X119.793 Y76.519 E19.63375
G1 X128.070 Y77.356 E20.05126
G1 X139.894 Y78.119 E20.64589
G1 X152.115 Y78.503 E21.25952
G1 X163.022 Y78.473 E21.80690
G1 X173.096 Y78.080 E22.31288
G1 X182.263 Y77.357 E22.77434
G1 X190.449 Y76.353 E23.18822
G1 X193.745 Y75.786 E23.35609
G1 X193.745 Y52.250 E24.53725
G1 X193.789 Y51.951 E24.55244
G1 X194.050 Y51.393 E24.58336
G1 X194.683 Y50.700 F6600.000
G1 F3000.000
G1 X195.000 Y50.494 E24.60237
G1 X195.495 Y50.326 E24.62862
G1 X200.402 Y50.313 E24.87487
G1 X200.762 Y50.404 E24.89349
G1 X201.138 Y50.582 E24.91437
G1 X201.770 Y51.154 E24.95716
G1 X202.055 Y51.601 E24.98377
G1 X202.190 Y52.076 E25.00856
G1 X202.229 Y53.070 F6600.000
G1 F3000.000
G1 X202.229 Y74.070 E26.06249
G1 X204.136 Y73.634 E26.16070
G1 X207.441 Y72.714 E26.33287
G1 X211.233 Y71.946 E26.52704
G1 X215.165 Y71.821 E26.72444
G1 X218.944 Y72.338 E26.91586
G1 X222.591 Y73.466 E27.10746
G1 X224.426 Y74.396 E27.21069
G1 E23.21069 F2400.000
G92 E0
G1 Z0.450 F6600.000
G1 X226.910 Y75.826
G1 Z0.350
G1 E4.00000 F2400.000
G1 F3000.000
G1 X229.444 Y77.732 E4.15913
G1 X232.062 Y80.495 E4.35017
G1 X234.186 Y83.644 E4.54078
G1 X235.877 Y87.397 E4.74737
G1 X236.849 Y91.209 E4.94479
G1 X237.164 Y95.163 E5.14384
G1 X236.811 Y99.065 E5.34046
G1 X235.849 Y102.741 E5.53115
G1 X234.307 Y106.190 E5.72077
G1 X232.105 Y109.509 E5.92066
G1 X229.407 Y112.363 E6.11775
G1 X226.214 Y114.755 E6.31799
G1 X222.677 Y116.559 E6.51724
G1 X218.813 Y117.750 E6.72015
G1 X216.517 Y118.050 E6.83636
G1 E2.83636 F2400.000
G92 E0
G1 Z0.450 F6600.000
G1 X213.597 Y118.194
G1 Z0.350
G1 E4.00000 F2400.000
G1 F3000.000
G1 X211.229 Y118.113 E4.11890
G1 X207.440 Y117.344 E4.31294
G1 X204.114 Y116.420 E4.48618
G1 X197.731 Y114.958 E4.81484
G1 X190.410 Y113.700 E5.18760
G1 X182.244 Y112.697 E5.60052
G1 X173.097 Y111.981 E6.06096
G1 X163.022 Y111.586 E6.56697
G1 X160.545 Y111.579 E6.69131
G1 X160.545 Y133.595 E7.79623
G1 X160.503 Y133.876 E7.81047
G1 X160.021 Y134.738 F6600.000
G1 F3000.000
G1 X159.677 Y135.099 E7.83553
G1 X159.303 Y135.346 E7.85800
G1 X158.871 Y135.505 E7.88111
G1 X153.976 Y135.546 E8.12678
G1 X153.362 Y135.372 E8.15880
G1 X152.928 Y135.100 E8.18450
G1 X152.559 Y134.730 E8.21074
G1 X152.153 Y133.909 F6600.000
G1 F3000.000
G1 X152.061 Y133.636 E8.22521
G1 X152.061 Y111.562 E9.33298
G1 X139.859 Y111.941 E9.94564
G1 X128.005 Y112.707 E10.54181
G1 X119.822 Y113.526 E10.95452
G1 X112.666 Y114.553 E11.31731
G1 X106.428 Y115.778 E11.63635
G1 X100.444 Y117.336 E11.94670
G1 X96.828 Y118.088 E12.13206
G1 X94.574 Y118.167 E12.24521
G1 E8.24521 F2400.000
G92 E0
G1 Z0.450 F6600.000
G1 X91.748 Y118.109
G1 Z0.350
G1 E4.00000 F2400.000
G1 F3000.000
G1 X88.882 Y117.717 E4.14521
G1 X85.259 Y116.594 E4.33555
G1 X81.527 Y114.684 E4.54593
G1 X78.461 Y112.378 E4.73848
G1 X75.801 Y109.580 E4.93222
G1 X73.642 Y106.374 E5.12622
G1 X72.047 Y102.866 E5.31961
G1 X71.032 Y99.031 E5.51871
G1 X70.685 Y95.115 E5.71598
G1 X71.001 Y91.208 E5.91273
G1 X71.972 Y87.402 E6.10981
G1 X73.568 Y83.816 E6.30681
G1 X75.747 Y80.546 E6.50400
G1 X78.449 Y77.690 E6.70132
G1 X81.583 Y75.336 E6.89806
G1 X82.887 Y74.665 E6.97162
G1 X84.681 Y74.130 F6600.000
G1 F3000.000
G1 X85.213 Y73.857 E7.00163
G1 X88.840 Y72.709 E7.19253
G1 X92.933 Y72.154 E7.39983
G1 X96.783 Y72.313 E7.59323
G1 X100.361 Y73.057 E7.77661
G1 X106.354 Y74.618 E8.08740
G1 X111.654 Y75.653 E8.35843
G1 X111.654 Y52.883 E9.50116
G1 X112.081 Y51.669 F6600.000
G1 F3000.000
G1 X112.424 Y51.326 E9.52551
G1 X112.896 Y51.069 E9.55248
G1 X113.272 Y50.985 E9.57178
G1 X117.962 Y51.002 E9.80716
G1 X119.030 Y51.688 F6600.000
G1 F3000.000
G1 X119.139 Y51.799 E9.81498
G1 X119.412 Y52.370 E9.84671
G1 X119.448 Y52.604 E9.85860
G1 X119.448 Y76.831 E11.07447
G1 X128.041 Y77.700 E11.50794
G1 X139.877 Y78.463 E12.10317
G1 X152.110 Y78.847 E12.71738
G1 X163.029 Y78.817 E13.26537
G1 X173.117 Y78.424 E13.77200
G1 X182.298 Y77.700 E14.23419
G1 X190.499 Y76.695 E14.64886
G1 X194.090 Y76.076 E14.83173
G1 X194.090 Y52.264 E16.02679
G1 X194.126 Y52.029 E16.03868
G1 X194.399 Y51.459 E16.07041
G1 X194.466 Y51.391 E16.07520
G1 X195.469 Y50.697 F6600.000
G1 F3000.000
G1 X195.576 Y50.662 E16.08086
G1 X200.341 Y50.653 E16.31999
G1 X200.631 Y50.723 E16.33496
G1 X200.966 Y50.882 E16.35358
G1 X201.520 Y51.392 E16.39135
G1 X201.587 Y51.497 E16.39760
G1 X201.884 Y52.738 F6600.000
G1 F3000.000
G1 X201.884 Y74.503 E17.48987
G1 X204.221 Y73.969 E17.61019
G1 X207.516 Y73.051 E17.78184
G1 X211.287 Y72.287 E17.97497
G1 X215.161 Y72.167 E18.16946
G1 X218.883 Y72.677 E18.35799
G1 X222.475 Y73.791 E18.54674
G1 X225.271 Y75.209 E18.70407
G1 E14.70407 F2400.000
G92 E0
G1 Z0.450 F6600.000
G1 X228.961 Y77.797
G1 Z0.350
G1 E4.00000 F2400.000
G1 F3000.000
G1 X229.204 Y77.980 E4.01525
G1 X231.784 Y80.700 E4.20342
G1 X233.892 Y83.825 E4.39257
G1 X235.546 Y87.497 E4.59472
G1 X236.506 Y91.251 E4.78919
G1 X236.819 Y95.147 E4.98530
G1 X236.474 Y98.991 E5.17903
G1 X235.528 Y102.613 E5.36687
G1 X233.998 Y106.036 E5.55505
G1 X231.826 Y109.306 E5.75204
G1 X229.167 Y112.115 E5.94617
G1 X226.019 Y114.470 E6.14346
G1 X222.534 Y116.245 E6.33975
G1 X218.754 Y117.410 E6.53824
G1 X218.633 Y117.425 E6.54438
G1 E2.54438 F2400.000
G92 E0
G1 Z0.450 F6600.000
G1 X214.638 Y117.886
G1 Z0.350
G1 E4.00000 F2400.000
G1 F3000.000
G1 X211.256 Y117.769 E4.16986
G1 X207.515 Y117.007 E4.36145
G1 X204.199 Y116.086 E4.53418
G1 X197.798 Y114.619 E4.86371
G1 X190.461 Y113.358 E5.23736
G1 X182.278 Y112.354 E5.65107
G1 X173.117 Y111.636 E6.11223
G1 X163.029 Y111.241 E6.61890
G1 X160.200 Y111.233 E6.76091
G1 X160.200 Y133.582 E7.88250
G1 X160.164 Y133.816 E7.89439
G1 X160.074 Y134.003 E7.90479
G1 X159.262 Y134.962 F6600.000
G1 F3000.000
G1 X159.134 Y135.044 E7.91242
G1 X158.783 Y135.170 E7.93113
G1 X154.000 Y135.201 E8.17117
G1 X153.484 Y135.049 E8.19819
G1 X153.301 Y134.933 E8.20904
G1 X152.544 Y134.016 F6600.000
G1 F3000.000
G1 X152.406 Y133.608 E8.23066
G1 X152.406 Y111.207 E9.35488
G1 X139.843 Y111.597 E9.98567
G1 X127.976 Y112.363 E10.58244
G1 X119.780 Y113.184 E10.99583
G1 X112.609 Y114.213 E11.35943
G1 X106.351 Y115.441 E11.67944
G1 X100.361 Y117.001 E11.99011
G1 X96.772 Y117.747 E12.17408
G1 X93.465 Y117.864 E12.34016
G1 E8.34016 F2400.000
G92 E0
G1 Z0.450 F6600.000
G1 X89.214 Y117.417
G1 Z0.350
G1 E4.00000 F2400.000
G1 F3000.000
G1 X88.970 Y117.383 E4.01235
G1 X85.375 Y116.269 E4.20122
G1 X81.723 Y114.400 E4.40714
G1 X78.679 Y112.111 E4.59823
G1 X76.062 Y109.353 E4.78907
G1 X73.937 Y106.193 E4.98019
G1 X72.367 Y102.737 E5.17070
G1 X71.369 Y98.957 E5.36689
G1 X71.030 Y95.100 E5.56122
G1 X71.344 Y91.250 E5.75504
G1 X72.302 Y87.502 E5.94921
G1 X73.877 Y83.970 E6.14328
G1 X76.025 Y80.750 E6.33754
G1 X78.689 Y77.938 E6.53193
G1 X79.586 Y77.266 E6.58817
G1 E2.58817 F2400.000
G92 E0
G1 Z0.450 F6600.000
G1 X83.274 Y75.239
G1 Z0.350
G1 E4.00000 F2400.000
G1 F3000.000
G1 X85.358 Y74.170 E4.11753
G1 X88.930 Y73.043 E4.30551
G1 X92.934 Y72.499 E4.50833
G1 X96.727 Y72.654 E4.69884
G1 X100.278 Y73.392 E4.88087
G1 X106.277 Y74.954 E5.19198
G1 X111.999 Y76.072 E5.48456
G1 X111.999 Y52.612 E6.66194
G1 E2.66194 F2400.000
G92 E0
G1 Z0.450 F6600.000
G1 X118.554 Y51.690
G1 Z0.350
G1 E4.00000 F2400.000
G1 F3000.000
G1 X118.843 Y51.979 E4.02054
G1 X119.076 Y52.452 E4.04698
G1 X119.103 Y52.618 E4.05546
G1 X119.103 Y77.124 E5.28529
G1 X119.738 Y77.215 E5.31748
G1 X128.013 Y78.044 E5.73485
G1 X139.861 Y78.808 E6.33068
G1 X152.105 Y79.192 E6.94547
G1 X163.036 Y79.162 E7.49407
G1 X173.137 Y78.768 E8.00136
G1 X182.332 Y78.044 E8.46426
G1 X190.549 Y77.036 E8.87972
G1 X194.435 Y76.367 E9.07760
G1 X194.435 Y52.278 E10.28651
G1 X194.462 Y52.111 E10.29499
G1 X194.695 Y51.639 E10.32143
G1 X194.945 Y51.389 E10.33917
G1 E6.33917 F2400.000
G92 E0
G1 Z0.450 F6600.000
G1 X201.539 Y52.407
G1 Z0.350
G1 E4.00000 F2400.000
G1 F3000.000
G1 X201.539 Y74.936 E5.13062
G1 X204.306 Y74.303 E5.27306
G1 X207.591 Y73.388 E5.44419
G1 X211.313 Y72.631 E5.63482
G1 X215.128 Y72.510 E5.82640
G1 X218.822 Y73.017 E6.01349
G1 X222.359 Y74.116 E6.19937
G1 X225.847 Y75.887 E6.39568
G1 X226.444 Y76.336 E6.43320
G1 E2.43320 F2400.000
G92 E0
G1 Z0.450 F6600.000
G1 X216.365 Y117.376
G1 Z0.350
G1 E4.00000 F2400.000
G1 F3000.000
G1 X215.013 Y117.554 E4.06842
G1 X211.282 Y117.425 E4.25578
G1 X207.590 Y116.670 E4.44490
