; generated by PrusaSlicer 2.3.1+win64 on 2021-05-27 at 00:03:36 UTC

; 

; external perimeters extrusion width = 0.45mm
; perimeters extrusion width = 0.45mm
; infill extrusion width = 0.45mm
; solid infill extrusion width = 0.45mm
; top infill extrusion width = 0.40mm
; support material extrusion width = 0.35mm
; first layer extrusion width = 0.42mm

M107
M190 S80 ; set bed temperature and wait for it to be reached
M104 S230 ; set temperature
;TYPE:Custom
G28 ; home all axes
G1 Z5 F5000 ; lift nozzle
M109 S230 ; set temperature and wait for it to be reached
G21 ; set units to millimeters
G90 ; use absolute coordinates
M82 ; use absolute distances for extrusion
G92 E0
; Filament gcode
;LAYER_CHANGE
;Z:0.35
;HEIGHT:0.35
G1 Z0.350 F6600.000
G1 E-4.00000 F2400.000
G92 E0
G1 Z0.450 F6600.000
G1 X148.954 Y173.668
G1 Z0.350
G1 E4.00000 F2400.000
;TYPE:Skirt
;WIDTH:0.42
G1 F3000.000
G1 X148.385 Y173.163 E4.03819
G1 X114.125 Y123.667 E7.05919
G1 X84.702 Y78.735 E9.75463
G1 X84.512 Y78.339 E9.77665
G1 X84.430 Y77.905 E9.79882
G1 X84.429 Y73.731 E10.00828
G1 X84.513 Y73.281 E10.03125
G1 X84.712 Y72.873 E10.05407
G1 X85.013 Y72.532 E10.07689
G1 X85.394 Y72.284 E10.09970
G1 X134.673 Y49.909 E12.81578
G1 X139.639 Y47.933 E13.08400
G1 X144.875 Y46.479 E13.35673
G1 X150.238 Y45.600 E13.62946
G1 X155.664 Y45.306 E13.90219
G1 X161.088 Y45.600 E14.17477
G1 X166.365 Y46.463 E14.44315
G1 X171.774 Y47.965 E14.72488
G1 X176.738 Y49.946 E14.99310
G1 X181.540 Y52.491 E15.26583
G1 X186.035 Y55.539 E15.53840
G1 X190.170 Y59.051 E15.81065
G1 X193.971 Y63.073 E16.08836
G1 X226.574 Y106.716 E18.82231
G1 X226.783 Y107.126 E18.84545
G1 X226.874 Y107.582 E18.86874
G1 X226.875 Y111.762 E19.07853
G1 X226.706 Y112.423 E19.11278
G1 X226.286 Y112.965 E19.14719
G1 X154.824 Y173.501 E23.84740
G1 X154.384 Y173.757 E23.87293
G1 X153.885 Y173.871 E23.89862
G1 X149.684 Y173.873 E24.10947
G1 X149.012 Y173.685 E24.14450
G1 X149.116 Y173.364 F6600.000
G1 F3000.000
G1 X148.665 Y172.961 E24.17486
G1 X114.409 Y123.472 E27.19545
G1 X84.990 Y78.546 E29.89048
G1 X84.774 Y77.872 E29.92600
G1 X84.774 Y73.749 E30.13294
G1 X85.001 Y73.061 E30.16930
G1 X85.552 Y72.591 E30.20565
G1 X134.747 Y50.252 E32.91717
G1 X139.681 Y48.284 E33.18375
G1 X145.017 Y46.803 E33.46163
G1 X150.275 Y45.943 E33.72904
G1 X155.664 Y45.651 E33.99990
G1 X161.051 Y45.943 E34.27061
G1 X166.306 Y46.803 E34.53788
G1 X171.647 Y48.285 E34.81602
G1 X176.593 Y50.259 E35.08331
G1 X181.362 Y52.787 E35.35417
G1 X185.827 Y55.814 E35.62488
G1 X189.934 Y59.302 E35.89531
G1 X193.697 Y63.282 E36.17018
G1 X226.290 Y106.912 E38.90334
G1 X226.460 Y107.246 E38.92212
G1 X226.530 Y107.614 E38.94089
G1 X226.531 Y111.745 E39.14822
G1 X226.395 Y112.274 E39.17563
G1 X226.062 Y112.703 E39.20290
G1 X154.607 Y173.233 E43.90265
G1 X154.248 Y173.440 E43.92342
G1 X153.844 Y173.528 E43.94419
G1 X149.701 Y173.529 E44.15210
G1 X149.174 Y173.380 E44.17960
G1 E40.17960 F2400.000
G92 E0
G1 Z0.450 F6600.000
G1 X87.310 Y71.225
G1 Z0.350
G1 E4.00000 F2400.000
G1 F3000.000
G1 X85.757 Y71.225 E4.07794
G1 X84.797 Y71.547 E4.12878
G1 X84.503 Y71.767 E4.14718
G1 X84.064 Y72.207 E4.17838
G1 X83.724 Y72.753 E4.21064
G1 X83.530 Y73.463 E4.24758
G1 X83.582 Y78.470 E4.49891
G1 X83.776 Y78.984 E4.52647
G1 X84.069 Y79.421 E4.55287
G1 X84.687 Y79.998 E4.59529
G1 X85.404 Y80.333 E4.63501
G1 X85.558 Y80.358 E4.64286
G1 X86.409 Y80.398 F6600.000
G1 F3000.000
G1 X106.919 Y80.398 E5.67218
G1 X106.418 Y81.903 E5.75175
G1 X105.237 Y87.306 E6.02931
G1 X104.651 Y92.730 E6.30312
G1 X104.647 Y98.186 E6.57694
G1 X105.236 Y103.680 E6.85426
G1 X105.324 Y104.119 E6.87669
G1 X106.459 Y109.237 E7.13977
G1 X107.707 Y112.922 E7.33503
G1 E3.33503 F2400.000
G92 E0
G1 Z0.450 F6600.000
G1 X109.045 Y116.225
G1 Z0.350
G1 E4.00000 F2400.000
G1 F3000.000
G1 X110.563 Y119.492 E4.18080
G1 X113.379 Y124.165 E4.45461
G1 X116.678 Y128.511 E4.72842
G1 X118.888 Y130.851 E4.88997
G1 E0.88997 F2400.000
G92 E0
G1 Z0.450 F6600.000
G1 X121.487 Y133.394
G1 Z0.350
G1 E4.00000 F2400.000
G1 F3000.000
G1 X124.686 Y136.119 E4.21093
G1 X129.325 Y139.270 E4.49235
G1 X134.281 Y141.893 E4.77377
G1 X139.422 Y143.932 E5.05132
G1 X144.607 Y145.372 E5.32140
G1 X147.177 Y145.800 E5.45216
G1 X147.177 Y170.508 E6.69219
G1 X147.177 Y171.720 F6600.000
G1 F3000.000
G1 X147.177 Y172.545 E6.73361
G1 X147.500 Y173.506 E6.78444
G1 X147.720 Y173.799 E6.80284
G1 X148.159 Y174.239 E6.83404
G1 X148.705 Y174.579 E6.86631
G1 X149.415 Y174.772 E6.90324
G1 X154.422 Y174.721 E7.15454
G1 X154.857 Y174.565 E7.17772
G1 X155.197 Y174.374 E7.19730
G1 X155.808 Y173.800 E7.23935
G1 X156.105 Y173.359 E7.26607
G1 X156.299 Y172.843 E7.29371
G1 X156.300 Y172.477 E7.31209
G1 X156.302 Y171.572 F6600.000
G1 F3000.000
G1 X156.350 Y146.549 E8.56790
G1 X161.261 Y146.275 E8.81478
G1 X166.627 Y145.392 E9.08768
G1 X171.975 Y143.908 E9.36621
G1 X177.182 Y141.829 E9.64759
G1 X182.017 Y139.260 E9.92235
G1 X186.534 Y136.200 E10.19619
G1 X190.836 Y132.546 E10.47944
G1 X194.599 Y128.569 E10.75422
G1 X197.915 Y124.212 E11.02900
G1 X200.824 Y119.376 E11.31224
G1 X203.178 Y114.268 E11.59446
G1 X223.947 Y114.268 E12.63681
G1 X225.015 Y114.268 F6600.000
G1 F3000.000
G1 X225.547 Y114.268 E12.66354
G1 X226.508 Y113.946 E12.71438
G1 X226.801 Y113.726 E12.73278
G1 X227.240 Y113.286 E12.76398
G1 X227.580 Y112.741 E12.79624
G1 X227.774 Y112.031 E12.83318
G1 X227.722 Y107.023 E13.08451
G1 X227.528 Y106.509 E13.11207
G1 X227.236 Y106.072 E13.13847
G1 X226.618 Y105.496 E13.18088
G1 X225.900 Y105.160 E13.22061
G1 X225.590 Y105.111 E13.23639
G1 X224.717 Y105.095 F6600.000
G1 F3000.000
G1 X205.783 Y105.095 E14.18661
G1 X206.088 Y103.686 E14.25897
G1 X206.674 Y98.261 E14.53281
G1 X206.673 Y92.710 E14.81136
G1 X206.070 Y87.193 E15.08990
G1 X204.872 Y81.774 E15.36844
G1 X203.093 Y76.516 E15.64698
G1 X202.641 Y75.543 E15.70084
G1 E11.70084 F2400.000
G92 E0
G1 Z0.450 F6600.000
G1 X201.230 Y72.501
G1 Z0.350
G1 E4.00000 F2400.000
G1 F3000.000
G1 X200.780 Y71.533 E4.05356
G1 X197.946 Y66.826 E4.32929
G1 X194.598 Y62.423 E4.60689
G1 X190.794 Y58.407 E4.88449
G1 X186.534 Y54.792 E5.16492
G1 X181.968 Y51.703 E5.44159
G1 X177.079 Y49.115 E5.71918
G1 X171.956 Y47.078 E5.99585
G1 X166.644 Y45.604 E6.27252
G1 X161.129 Y44.703 E6.55295
G1 X155.605 Y44.410 E6.83057
G1 X150.083 Y44.715 E7.10814
G1 X144.663 Y45.608 E7.38383
G1 X139.387 Y47.072 E7.65860
G1 X134.247 Y49.115 E7.93618
G1 X129.341 Y51.712 E8.21476
G1 X127.431 Y53.008 E8.33060
G1 E4.33060 F2400.000
G92 E0
G1 Z0.450 F6600.000
G1 X124.349 Y55.163
G1 Z0.350
G1 E4.00000 F2400.000
G1 F3000.000
G1 X120.530 Y58.408 E4.25148
G1 X116.726 Y62.423 E4.52908
G1 X113.368 Y66.843 E4.80761
G1 X110.728 Y71.225 E5.06439
G1 X88.978 Y71.225 E6.15595
G1 X88.218 Y71.570 F6600.000
G1 F3000.000
G1 X110.923 Y71.570 E7.29541
G1 X113.649 Y67.044 E7.56056
G1 X116.995 Y62.640 E7.83817
G1 X120.761 Y58.665 E8.11295
G1 X124.932 Y55.118 E8.38774
G1 X125.917 Y54.451 E8.44740
G1 E4.44740 F2400.000
G92 E0
G1 Z0.450 F6600.000
G1 X129.292 Y52.163
G1 Z0.350
G1 E4.00000 F2400.000
G1 F3000.000
G1 X129.527 Y52.003 E4.01428
G1 X134.400 Y49.424 E4.29098
G1 X139.488 Y47.401 E4.56576
G1 X144.746 Y45.943 E4.83959
G1 X150.130 Y45.057 E5.11341
G1 X155.615 Y44.754 E5.38912
G1 X161.102 Y45.047 E5.66486
G1 X166.561 Y45.939 E5.94248
G1 X171.855 Y47.407 E6.21821
G1 X176.943 Y49.432 E6.49300
G1 X181.798 Y52.003 E6.76873
G1 X186.332 Y55.072 E7.04352
G1 X190.551 Y58.651 E7.32113
G1 X194.330 Y62.639 E7.59686
G1 X197.655 Y67.012 E7.87259
G1 X199.843 Y70.645 E8.08541
G1 E4.08541 F2400.000
G92 E0
G1 Z0.450 F6600.000
G1 X201.639 Y74.202
G1 Z0.350
G1 E4.00000 F2400.000
G1 F3000.000
G1 X202.776 Y76.653 E4.13562
G1 X204.542 Y81.875 E4.41229
G1 X205.728 Y87.240 E4.68802
G1 X206.328 Y92.720 E4.96468
G1 X206.330 Y98.233 E5.24135
G1 X205.746 Y103.640 E5.51427
G1 X205.355 Y105.440 E5.60672
G1 X224.975 Y105.440 E6.59136
G1 X225.917 Y105.549 F6600.000
G1 F3000.000
G1 X226.445 Y105.796 E6.62061
G1 X226.983 Y106.307 E6.65783
G1 X227.229 Y106.681 E6.68030
G1 X227.388 Y107.113 E6.70341
G1 X227.429 Y112.008 E6.94908
G1 X227.256 Y112.622 E6.98110
G1 X226.983 Y113.056 E7.00680
G1 X226.566 Y113.473 E7.03640
G1 X226.324 Y113.653 E7.05154
G1 X225.519 Y113.923 E7.09415
G1 X225.422 Y113.923 E7.09904
G1 X224.355 Y113.923 F6600.000
G1 F3000.000
G1 X202.920 Y113.923 E8.17476
G1 X202.776 Y114.339 E8.19683
G1 X200.524 Y119.206 E8.46596
G1 X197.635 Y124.010 E8.74732
G1 X194.342 Y128.338 E9.02024
G1 X190.592 Y132.302 E9.29409
G1 X186.333 Y135.919 E9.57451
G1 X181.831 Y138.969 E9.84742
G1 X177.028 Y141.520 E10.12032
G1 X171.856 Y143.584 E10.39982
G1 X166.562 Y145.053 E10.67554
G1 X161.215 Y145.933 E10.94750
G1 X156.005 Y146.222 E11.20934
G1 X155.966 Y171.856 E12.49578
G1 X155.961 Y172.764 F6600.000
G1 F3000.000
G1 X155.806 Y173.186 E12.51835
G1 X155.555 Y173.565 E12.54113
G1 X155.007 Y174.085 E12.57907
G1 X154.726 Y174.246 E12.59531
G1 X154.333 Y174.386 E12.61626
G1 X149.437 Y174.427 E12.86196
G1 X148.823 Y174.254 E12.89398
G1 X148.390 Y173.981 E12.91969
G1 X147.973 Y173.564 E12.94928
G1 X147.793 Y173.322 E12.96442
G1 X147.522 Y172.517 E13.00703
G1 X147.522 Y172.218 E13.02204
G1 X147.522 Y171.007 F6600.000
G1 F3000.000
G1 X147.522 Y145.507 E14.30175
G1 X144.691 Y145.037 E14.44580
G1 X139.523 Y143.602 E14.71495
G1 X134.417 Y141.576 E14.99064
G1 X129.511 Y138.979 E15.26923
G1 X124.902 Y135.851 E15.54876
G1 X120.724 Y132.292 E15.82417
G1 E11.82417 F2400.000
G92 E0
G1 Z0.450 F6600.000
G1 X117.589 Y128.975
G1 Z0.350
G1 E4.00000 F2400.000
G1 F3000.000
G1 X116.947 Y128.295 E4.04695
G1 X113.670 Y123.979 E4.31891
G1 X110.863 Y119.322 E4.59179
G1 X110.350 Y118.218 E4.65289
G1 E0.65289 F2400.000
G92 E0
G1 Z0.450 F6600.000
G1 X108.459 Y114.070
G1 Z0.350
G1 E4.00000 F2400.000
G1 F3000.000
G1 X106.789 Y109.135 E4.26147
G1 X105.661 Y104.046 E4.52307
G1 X105.578 Y103.636 E4.54406
G1 X104.992 Y98.177 E4.81958
G1 X104.996 Y92.740 E5.09246
G1 X105.579 Y87.352 E5.36442
G1 X106.753 Y81.985 E5.64012
G1 X107.399 Y80.053 E5.74234
G1 X86.184 Y80.053 E6.80704
G1 X85.244 Y79.877 F6600.000
G1 F3000.000
G1 X84.859 Y79.697 E6.82836
G1 X84.321 Y79.186 E6.86558
G1 X84.075 Y78.812 E6.88805
G1 X83.916 Y78.380 E6.91117
G1 X83.875 Y73.485 E7.15683
G1 X84.048 Y72.871 E7.18885
G1 X84.321 Y72.437 E7.21456
G1 X84.738 Y72.020 E7.24416
G1 X84.980 Y71.840 E7.25929
G1 X85.785 Y71.570 E7.30190
G1 X86.550 Y71.570 E7.34032
G1 X85.727 Y71.944 F6600.000
G1 F3000.000
G1 X85.162 Y72.134 E7.37020
G1 X84.972 Y72.274 E7.38204
G1 X84.578 Y72.668 E7.41002
G1 X84.372 Y72.993 E7.42931
G1 X84.220 Y73.509 E7.45633
G1 X84.251 Y78.292 E7.69637
G1 X84.376 Y78.643 E7.71508
G1 X84.577 Y78.954 E7.73366
G1 X84.748 Y79.121 E7.74563
G1 X85.958 Y79.709 F6600.000
G1 F3000.000
G1 X107.878 Y79.709 E8.84572
G1 X107.088 Y82.068 E8.97060
G1 X105.921 Y87.398 E9.24444
G1 X105.340 Y92.767 E9.51546
G1 X105.337 Y98.168 E9.78648
G1 X105.920 Y103.591 E10.06019
G1 X107.118 Y109.033 E10.33988
G1 X108.866 Y114.202 E10.61373
G1 X109.647 Y115.885 E10.70684
G1 E6.70684 F2400.000
G92 E0
G1 Z0.450 F6600.000
G1 X113.475 Y122.990
G1 Z0.350
G1 E4.00000 F2400.000
G1 F3000.000
G1 X113.950 Y123.778 E4.04614
G1 X114.423 Y124.401 E4.08539
G1 E0.08539 F2400.000
G92 E0
G1 Z0.450 F6600.000
G1 X119.428 Y130.420
G1 Z0.350
G1 E4.00000 F2400.000
G1 F3000.000
G1 X120.964 Y132.045 E4.11218
G1 X125.119 Y135.582 E4.38604
G1 X129.680 Y138.679 E4.66274
G1 X134.553 Y141.259 E4.93944
G1 X139.624 Y143.272 E5.21327
G1 X144.774 Y144.702 E5.48149
G1 X147.867 Y145.215 E5.63884
G1 X147.867 Y171.505 E6.95824
G1 X148.017 Y172.933 F6600.000
G1 F3000.000
G1 X148.087 Y173.140 E6.96921
G1 X148.226 Y173.330 E6.98104
G1 X148.620 Y173.724 E7.00903
G1 X148.945 Y173.930 E7.02832
G1 X149.461 Y174.082 E7.05534
G1 X154.244 Y174.052 E7.29538
G1 X154.594 Y173.926 E7.31402
G1 X154.815 Y173.798 E7.32684
G1 X155.312 Y173.314 E7.36167
G1 X155.631 Y172.140 F6600.000
G1 F3000.000
G1 X155.661 Y145.896 E8.67875
G1 X161.168 Y145.591 E8.95555
G1 X166.497 Y144.714 E9.22658
G1 X171.737 Y143.260 E9.49950
G1 X176.875 Y141.211 E9.77711
G1 X181.645 Y138.679 E10.04815
G1 X186.132 Y135.639 E10.32012
G1 X190.348 Y132.058 E10.59773
G1 X194.073 Y128.122 E10.86971
G1 X197.354 Y123.809 E11.14169
G1 X200.215 Y119.053 E11.42023
G1 X202.459 Y114.202 E11.68845
G1 X202.673 Y113.578 E11.72155
G1 X224.762 Y113.578 E12.83007
G1 X226.053 Y113.389 F6600.000
G1 F3000.000
G1 X226.142 Y113.359 E12.83480
G1 X226.332 Y113.219 E12.84663
G1 X226.726 Y112.825 E12.87462
G1 X226.932 Y112.501 E12.89391
G1 X227.084 Y111.984 E12.92093
G1 X227.053 Y107.201 E13.16097
G1 X226.928 Y106.850 E13.17968
G1 X226.727 Y106.539 E13.19825
G1 X226.471 Y106.289 E13.21622
G1 X225.233 Y105.785 F6600.000
G1 F3000.000
G1 X204.927 Y105.785 E14.23528
G1 X205.405 Y103.593 E14.34784
G1 X205.986 Y98.205 E14.61981
G1 X205.983 Y92.729 E14.89462
G1 X205.389 Y87.305 E15.16847
G1 X204.212 Y81.977 E15.44232
G1 X202.459 Y76.790 E15.71711
G1 X200.636 Y72.859 E15.93454
G1 E11.93454 F2400.000
G92 E0
G1 Z0.450 F6600.000
G1 X197.767 Y67.867
G1 Z0.350
G1 E4.00000 F2400.000
G1 F3000.000
G1 X197.365 Y67.198 E4.03916
G1 X194.061 Y62.855 E4.31302
G1 X190.307 Y58.895 E4.58687
G1 X186.131 Y55.353 E4.86167
G1 X181.628 Y52.303 E5.13459
G1 X176.806 Y49.749 E5.40844
G1 X171.736 Y47.731 E5.68230
G1 X166.478 Y46.273 E5.95615
G1 X161.074 Y45.391 E6.23095
G1 X155.606 Y45.099 E6.50575
G1 X150.176 Y45.399 E6.77866
G1 X144.829 Y46.278 E7.05062
G1 X139.589 Y47.731 E7.32352
G1 X134.553 Y49.733 E7.59550
G1 X134.016 Y50.017 E7.62598
G1 E3.62598 F2400.000
G92 E0
G1 Z0.450 F6600.000
G1 X127.777 Y53.606
G1 Z0.350
G1 E4.00000 F2400.000
G1 F3000.000
G1 X125.134 Y55.398 E4.16029
G1 X120.991 Y58.921 E4.43320
G1 X117.264 Y62.856 E4.70518
G1 X113.929 Y67.245 E4.98184
G1 X111.118 Y71.915 E5.25538
G1 X87.459 Y71.915 E6.44275
G1 X86.699 Y72.260 F6600.000
G1 F3000.000
G1 X111.344 Y72.260 E7.67957
G1 X111.463 Y72.010 E7.69347
G1 X114.209 Y67.446 E7.96075
G1 X117.533 Y63.072 E8.23648
G1 X121.235 Y59.165 E8.50658
G1 X125.335 Y55.679 E8.77669
G1 X129.633 Y52.763 E9.03732
G1 E5.03732 F2400.000
G92 E0
G1 Z0.450 F6600.000
G1 X85.717 Y79.342
G1 Z0.350
G1 E4.00000 F2400.000
G1 F3000.000
G1 X85.854 Y79.364 E4.00692
G1 X108.357 Y79.364 E5.13630
G1 X107.423 Y82.151 E5.28384
G1 X106.263 Y87.445 E5.55581
G1 X105.685 Y92.777 E5.82498
G1 X105.682 Y98.159 E6.09507
G1 X106.262 Y103.545 E6.36696
G1 X107.448 Y108.932 E6.64375
G1 X109.183 Y114.066 E6.91574
G1 X110.949 Y117.873 E7.12637
G1 E3.12637 F2400.000
G92 E0
G1 Z0.450 F6600.000
G1 X118.133 Y128.548
G1 Z0.350
G1 E4.00000 F2400.000
G1 F3000.000
G1 X121.208 Y131.801 E4.22464
G1 X125.335 Y135.313 E4.49663
G1 X129.866 Y138.388 E4.77144
G1 X134.689 Y140.941 E5.04532
G1 X139.725 Y142.943 E5.31728
G1 X144.857 Y144.367 E5.58457
G1 X148.212 Y144.922 E5.75522
G1 X148.212 Y172.003 E7.11431
G1 E3.11431 F2400.000
G92 E0
G1 Z0.450 F6600.000
G1 X155.296 Y172.424
G1 Z0.350
G1 E4.00000 F2400.000
G1 F3000.000
G1 X155.316 Y145.530 E5.34970
G1 X155.710 Y145.548 E5.36949
G1 X161.121 Y145.249 E5.64147
G1 X166.432 Y144.375 E5.91157
G1 X171.618 Y142.937 E6.18167
G1 X176.722 Y140.902 E6.45741
G1 X181.475 Y138.378 E6.72751
G1 X185.930 Y135.359 E6.99762
G1 X190.104 Y131.814 E7.27241
G1 X193.804 Y127.906 E7.54252
G1 X197.074 Y123.608 E7.81356
G1 X199.906 Y118.899 E8.08929
G1 X202.142 Y114.066 E8.35658
G1 X202.427 Y113.234 E8.40071
G1 X225.169 Y113.234 E9.54205
G1 E5.54205 F2400.000
G92 E0
G1 Z0.450 F6600.000
G1 X225.496 Y106.137
G1 Z0.350
G1 E4.00000 F2400.000
G1 F3000.000
G1 X204.499 Y106.130 E5.05377
G1 X205.063 Y103.547 E5.18643
G1 X205.643 Y98.177 E5.45747
G1 X205.638 Y92.739 E5.73040
G1 X205.047 Y87.352 E6.00238
G1 X203.882 Y82.078 E6.27342
G1 X202.142 Y76.926 E6.54634
G1 X199.871 Y72.026 E6.81737
G1 X199.274 Y71.036 E6.87539
G1 E2.87539 F2400.000
G92 E0
G1 Z0.450 F6600.000
G1 X197.199 Y68.259
G1 Z0.350
G1 E4.00000 F2400.000
G1 F3000.000
G1 X199.571 Y72.196 E4.23069
G1 X201.825 Y77.063 E4.49985
G1 X203.553 Y82.180 E4.77090
G1 X204.709 Y87.417 E5.04007
G1 X205.295 Y92.767 E5.31017
G1 X205.298 Y98.168 E5.58122
G1 X204.721 Y103.501 E5.85039
G1 X204.070 Y106.474 E6.00317
G1 X225.435 Y106.474 E7.07537
