; generated by PrusaSlicer 2.3.1+win64 on 2021-07-09 at 18:21:17 UTC

; 

; external perimeters extrusion width = 0.45mm
; perimeters extrusion width = 0.45mm
; infill extrusion width = 0.45mm
; solid infill extrusion width = 0.45mm
; top infill extrusion width = 0.40mm
; support material extrusion width = 0.35mm
; first layer extrusion width = 0.42mm

M107
M190 S80 ; set bed temperature and wait for it to be reached
M104 S230 ; set temperature
;TYPE:Custom
G28 ; home all axes
G1 Z5 F5000 ; lift nozzle
M109 S230 ; set temperature and wait for it to be reached
G21 ; set units to millimeters
G90 ; use absolute coordinates
M82 ; use absolute distances for extrusion
G92 E0
; Filament gcode
;LAYER_CHANGE
;Z:0.35
;HEIGHT:0.35
G1 Z0.350 F6600.000
G1 E-4.00000 F2400.000
G92 E0
G1 Z0.450 F6600.000
G1 X131.158 Y53.878
G1 Z0.350
G1 E4.00000 F2400.000
;TYPE:Skirt
;WIDTH:0.42
G1 X131.513 Y53.351 E4.03188
G1 X133.339 Y51.532 E4.16124
G1 X133.871 Y51.205 E4.19260
G1 X134.478 Y51.054 E4.22395
G1 X162.653 Y51.046 E5.63795
G1 X163.416 Y51.196 E5.67697
G1 X164.067 Y51.621 E5.71599
G1 X166.406 Y53.979 E5.88264
G1 X166.711 Y54.512 E5.91347
G1 X166.842 Y55.112 E5.94430
G1 X166.691 Y108.806 E8.63899
G1 X166.501 Y109.652 E8.68251
G1 X166.146 Y110.179 E8.71439
G1 X164.315 Y112.002 E8.84411
G1 X163.775 Y112.331 E8.87581
G1 X163.164 Y112.477 E8.90734
G1 X134.996 Y112.484 E10.32099
G1 X134.153 Y112.295 E10.36434
G1 X133.615 Y111.931 E10.39692
G1 X131.301 Y109.609 E10.56146
G1 X130.956 Y109.038 E10.59491
G1 X130.815 Y108.390 E10.62819
G1 X130.968 Y54.724 E13.32146
G1 X131.145 Y53.937 E13.36197
G1 X131.472 Y54.021 F6600.000
G1 F2400.000
G1 X131.770 Y53.581 E13.38862
G1 X133.556 Y51.801 E13.51515
G1 X134.004 Y51.523 E13.54163
G1 X134.517 Y51.397 E13.56812
G1 X162.652 Y51.391 E14.98013
G1 X163.285 Y51.515 E15.01249
G1 X163.828 Y51.870 E15.04500
G1 X166.121 Y54.175 E15.20820
G1 X166.386 Y54.628 E15.23453
G1 X166.499 Y55.140 E15.26085
G1 X166.347 Y108.804 E17.95403
G1 X166.187 Y109.510 E17.99034
G1 X165.889 Y109.949 E18.01698
G1 X164.101 Y111.731 E18.14367
G1 X163.649 Y112.010 E18.17032
G1 X163.133 Y112.134 E18.19696
G1 X135.000 Y112.139 E19.60881
G1 X134.295 Y111.980 E19.64512
G1 X133.846 Y111.674 E19.67240
G1 X131.571 Y109.394 E19.83399
G1 X131.278 Y108.914 E19.86223
G1 X131.159 Y108.367 E19.89030
G1 X131.313 Y54.726 E22.58236
G1 X131.459 Y54.079 E22.61565
G1 X131.785 Y54.165 F6600.000
G1 F2400.000
G1 X132.027 Y53.812 E22.63712
G1 X133.773 Y52.069 E22.76091
G1 X134.138 Y51.841 E22.78252
G1 X134.554 Y51.740 E22.80400
G1 X162.652 Y51.736 E24.21414
G1 X163.158 Y51.836 E24.24001
G1 X163.591 Y52.121 E24.26601
G1 X165.842 Y54.379 E24.42607
G1 X166.063 Y54.750 E24.44769
G1 X166.155 Y55.170 E24.46931
G1 X166.002 Y108.800 E27.16076
G1 X165.874 Y109.365 E27.18986
G1 X165.632 Y109.719 E27.21133
G1 X163.885 Y111.463 E27.33526
G1 X163.519 Y111.690 E27.35688
G1 X163.100 Y111.790 E27.37849
G1 X135.004 Y111.794 E28.78849
G1 X134.436 Y111.665 E28.81773
G1 X134.079 Y111.420 E28.83949
G1 X131.839 Y109.177 E28.99856
G1 X131.601 Y108.791 E29.02131
G1 X131.504 Y108.348 E29.04406
G1 X131.658 Y54.731 E31.73493
G1 X131.772 Y54.224 E31.76102
G1 E27.76102
G92 E0
G1 Z0.450 F6600.000
G1 X132.847 Y108.286
G1 Z0.350
G1 E4.00000 F2400.000
;TYPE:Support material
G1 X135.010 Y110.449 E4.15350
G1 X135.707 Y110.449 E4.18847
G1 X133.002 Y107.745 E4.38041
G1 X133.002 Y107.048 E4.41538
G1 X136.404 Y110.449 E4.65677
G1 X137.100 Y110.449 E4.69174
G1 X133.002 Y106.351 E4.98259
G1 X133.002 Y105.654 E5.01756
G1 X137.797 Y110.449 E5.35786
G1 X138.494 Y110.449 E5.39282
G1 X133.002 Y104.958 E5.78258
G1 X133.002 Y104.261 E5.81755
G1 X139.191 Y110.449 E6.25675
G1 X139.887 Y110.449 E6.29172
G1 X133.002 Y103.564 E6.78038
G1 X133.002 Y102.867 E6.81535
G1 X140.584 Y110.449 E7.35346
G1 X141.281 Y110.449 E7.38843
G1 X133.002 Y102.171 E7.97599
G1 X133.002 Y101.474 E8.01096
G1 X141.978 Y110.449 E8.64798
G1 X142.675 Y110.449 E8.68295
G1 X133.002 Y100.777 E9.36942
G1 X133.002 Y100.080 E9.40439
G1 X143.371 Y110.449 E10.14031
G1 X144.068 Y110.449 E10.17528
G1 X133.002 Y99.383 E10.96066
G1 X133.002 Y98.687 E10.99563
G1 X144.765 Y110.449 E11.83046
G1 X145.462 Y110.449 E11.86543
G1 X133.002 Y97.990 E12.74971
G1 X133.002 Y97.293 E12.78468
G1 X146.158 Y110.449 E13.71842
G1 X146.855 Y110.449 E13.75338
G1 X133.002 Y96.596 E14.73657
G1 X133.002 Y95.900 E14.77154
G1 X147.552 Y110.449 E15.80419
G1 X148.249 Y110.449 E15.83915
G1 X133.002 Y95.203 E16.92125
G1 X133.002 Y94.506 E16.95622
G1 X148.946 Y110.449 E18.08777
G1 X149.642 Y110.449 E18.12274
G1 X133.002 Y93.809 E19.30374
G1 X133.002 Y93.112 E19.33871
G1 X150.339 Y110.449 E20.56916
G1 X151.036 Y110.449 E20.60413
G1 X133.002 Y92.416 E21.88404
G1 X133.002 Y91.719 E21.91901
G1 X151.733 Y110.449 E23.24837
G1 X152.430 Y110.449 E23.28334
G1 X133.002 Y91.022 E24.66215
G1 X133.002 Y90.325 E24.69712
G1 X153.126 Y110.449 E26.12539
G1 X153.823 Y110.449 E26.16036
G1 X133.002 Y89.628 E27.63808
G1 X133.002 Y88.932 E27.67305
G1 X154.520 Y110.449 E29.20022
G1 X155.217 Y110.449 E29.23519
G1 X133.002 Y88.235 E30.81182
G1 X133.002 Y87.538 E30.84679
G1 X155.913 Y110.449 E32.47287
G1 X156.610 Y110.449 E32.50783
G1 X133.002 Y86.841 E34.18337
G1 X133.002 Y86.145 E34.21834
G1 X157.307 Y110.449 E35.94332
G1 X158.004 Y110.449 E35.97829
G1 X133.002 Y85.448 E37.75273
G1 X133.002 Y84.751 E37.78770
G1 X158.701 Y110.449 E39.61159
G1 X159.397 Y110.449 E39.64656
G1 X133.002 Y84.054 E41.51991
G1 X133.002 Y83.357 E41.55487
G1 X160.094 Y110.449 E43.47767
G1 X160.791 Y110.449 E43.51264
G1 X133.002 Y82.661 E45.48489
G1 X133.002 Y81.964 E45.51986
G1 X161.488 Y110.449 E47.54157
G1 X162.184 Y110.449 E47.57654
G1 X133.002 Y81.267 E49.64769
G1 X133.002 Y80.570 E49.68266
G1 X162.881 Y110.449 E51.80327
G1 X163.001 Y110.449 E51.80926
G1 X163.289 Y110.160 E51.82975
G1 X133.002 Y79.873 E53.97932
G1 X133.002 Y79.177 E54.01429
G1 X163.638 Y109.812 E56.18859
G1 X163.986 Y109.464 E56.21332
G1 X133.002 Y78.480 E58.41234
G1 X133.002 Y77.783 E58.44731
G1 X164.334 Y109.115 E60.67106
G1 X164.657 Y108.793 E60.69395
G1 X164.657 Y108.741 E60.69655
G1 X133.002 Y77.086 E62.94319
G1 X133.002 Y76.390 E62.97816
G1 X164.657 Y108.044 E65.22479
G1 X164.657 Y107.347 E65.25976
G1 X133.002 Y75.693 E67.50639
G1 X133.002 Y74.996 E67.54136
G1 X164.657 Y106.651 E69.78800
G1 X164.657 Y105.954 E69.82297
G1 X133.002 Y74.299 E72.06960
G1 X133.002 Y73.602 E72.10457
G1 X164.657 Y105.257 E74.35120
G1 X164.657 Y104.560 E74.38617
G1 X133.002 Y72.906 E76.63281
G1 X133.002 Y72.209 E76.66778
G1 X164.657 Y103.863 E78.91441
G1 X164.657 Y103.167 E78.94938
G1 X133.002 Y71.512 E81.19601
G1 X133.002 Y70.815 E81.23098
G1 X164.657 Y102.470 E83.47762
G1 X164.657 Y101.773 E83.51259
G1 X133.002 Y70.119 E85.75922
G1 X133.002 Y69.422 E85.79419
G1 X164.657 Y101.076 E88.04082
G1 X164.657 Y100.380 E88.07579
G1 X133.002 Y68.725 E90.32243
G1 X133.002 Y68.028 E90.35740
G1 X164.657 Y99.683 E92.60403
G1 X164.657 Y98.986 E92.63900
G1 X133.002 Y67.331 E94.88563
G1 X133.002 Y66.635 E94.92060
G1 X164.657 Y98.289 E97.16724
G1 X164.657 Y97.592 E97.20221
G1 X133.002 Y65.938 E99.44884
G1 X133.002 Y65.241 E99.48381
G1 X164.657 Y96.896 E101.73045
G1 X164.657 Y96.199 E101.76541
G1 X133.002 Y64.544 E104.01205
G1 X133.002 Y63.847 E104.04702
G1 X164.657 Y95.502 E106.29365
G1 X164.657 Y94.805 E106.32862
G1 X133.002 Y63.151 E108.57526
G1 X133.002 Y62.454 E108.61022
G1 X164.657 Y94.108 E110.85686
G1 X164.657 Y93.412 E110.89183
G1 X133.002 Y61.757 E113.13846
G1 X133.002 Y61.060 E113.17343
G1 X164.657 Y92.715 E115.42007
G1 X164.657 Y92.018 E115.45503
G1 X133.002 Y60.364 E117.70167
G1 X133.002 Y59.667 E117.73664
G1 X164.657 Y91.321 E119.98327
G1 X164.657 Y90.625 E120.01824
G1 X133.002 Y58.970 E122.26488
G1 X133.002 Y58.273 E122.29985
G1 X164.657 Y89.928 E124.54648
G1 X164.657 Y89.231 E124.58145
G1 X133.002 Y57.576 E126.82808
G1 X133.002 Y56.880 E126.86305
G1 X164.657 Y88.534 E129.10969
G1 X164.657 Y87.837 E129.14466
G1 X133.002 Y56.183 E131.39129
G1 X133.002 Y55.486 E131.42626
G1 X164.657 Y87.141 E133.67289
G1 X164.657 Y86.444 E133.70786
G1 X133.002 Y54.789 E135.95450
G1 X133.002 Y54.737 E135.95710
G1 X133.325 Y54.415 E135.97999
G1 X164.657 Y85.747 E138.20374
G1 X164.657 Y85.050 E138.23871
G1 X133.673 Y54.067 E140.43773
G1 X134.022 Y53.718 E140.46246
G1 X164.657 Y84.354 E142.63676
G1 X164.657 Y83.657 E142.67172
G1 X134.370 Y53.370 E144.82130
G1 X134.659 Y53.081 E144.84179
G1 X134.778 Y53.081 E144.84778
G1 X164.657 Y82.960 E146.96839
G1 X164.657 Y82.263 E147.00336
G1 X135.475 Y53.081 E149.07451
G1 X136.172 Y53.081 E149.10948
G1 X164.657 Y81.566 E151.13119
G1 X164.657 Y80.870 E151.16615
G1 X136.868 Y53.081 E153.13841
G1 X137.565 Y53.081 E153.17338
G1 X164.657 Y80.173 E155.09617
G1 X164.657 Y79.476 E155.13114
G1 X138.262 Y53.081 E157.00449
G1 X138.959 Y53.081 E157.03946
G1 X164.657 Y78.779 E158.86335
G1 X164.657 Y78.082 E158.89832
G1 X139.656 Y53.081 E160.67276
G1 X140.352 Y53.081 E160.70773
G1 X164.657 Y77.386 E162.43271
G1 X164.657 Y76.689 E162.46768
G1 X141.049 Y53.081 E164.14321
G1 X141.746 Y53.081 E164.17818
G1 X164.657 Y75.992 E165.80426
G1 X164.657 Y75.295 E165.83923
G1 X142.443 Y53.081 E167.41586
G1 X143.139 Y53.081 E167.45083
G1 X164.657 Y74.599 E168.97800
G1 X164.657 Y73.902 E169.01297
G1 X143.836 Y53.081 E170.49069
G1 X144.533 Y53.081 E170.52566
G1 X164.657 Y73.205 E171.95393
G1 X164.657 Y72.508 E171.98890
G1 X145.230 Y53.081 E173.36771
G1 X145.927 Y53.081 E173.40268
G1 X164.657 Y71.811 E174.73204
G1 X164.657 Y71.115 E174.76701
G1 X146.623 Y53.081 E176.04692
G1 X147.320 Y53.081 E176.08189
G1 X164.657 Y70.418 E177.31234
G1 X164.657 Y69.721 E177.34731
G1 X148.017 Y53.081 E178.52831
G1 X148.714 Y53.081 E178.56328
G1 X164.657 Y69.024 E179.69483
G1 X164.657 Y68.328 E179.72980
G1 X149.410 Y53.081 E180.81189
G1 X150.107 Y53.081 E180.84686
G1 X164.657 Y67.631 E181.87951
G1 X164.657 Y66.934 E181.91447
G1 X150.804 Y53.081 E182.89766
G1 X151.501 Y53.081 E182.93263
G1 X164.657 Y66.237 E183.86637
G1 X164.657 Y65.540 E183.90134
G1 X152.198 Y53.081 E184.78562
G1 X152.894 Y53.081 E184.82059
G1 X164.657 Y64.844 E185.65542
G1 X164.657 Y64.147 E185.69039
G1 X153.591 Y53.081 E186.47577
G1 X154.288 Y53.081 E186.51074
G1 X164.657 Y63.450 E187.24666
G1 X164.657 Y62.753 E187.28163
G1 X154.985 Y53.081 E187.96810
G1 X155.681 Y53.081 E188.00307
G1 X164.657 Y62.056 E188.64009
G1 X164.657 Y61.360 E188.67505
G1 X156.378 Y53.081 E189.26262
G1 X157.075 Y53.081 E189.29759
G1 X164.657 Y60.663 E189.83570
G1 X164.657 Y59.966 E189.87067
G1 X157.772 Y53.081 E190.35933
G1 X158.469 Y53.081 E190.39430
G1 X164.657 Y59.269 E190.83350
G1 X164.657 Y58.573 E190.86847
G1 X159.165 Y53.081 E191.25822
G1 X159.862 Y53.081 E191.29319
G1 X164.657 Y57.876 E191.63349
G1 X164.657 Y57.179 E191.66846
G1 X160.559 Y53.081 E191.95931
G1 X161.256 Y53.081 E191.99428
G1 X164.657 Y56.482 E192.23567
G1 X164.657 Y55.785 E192.27064
G1 X161.952 Y53.081 E192.46258
G1 X162.649 Y53.081 E192.49755
G1 X164.812 Y55.244 E192.65105
;LAYER_CHANGE
;Z:0.65
;HEIGHT:0.3
G1 Z0.650 F6600.000
M104 S200 ; set temperature
M140 S60 ; set bed temperature
G1 E188.65105 F2400.000
G92 E0
G1 Z0.750 F6600.000
G1 X166.776 Y54.812
G1 Z0.650
G1 E4.00000 F2400.000
;TYPE:Skirt
G1 F3600.000
G1 X166.842 Y55.112 E4.01362
G1 X166.691 Y108.806 E6.39522
G1 X166.501 Y109.652 E6.43368
G1 X166.146 Y110.179 E6.46186
G1 X164.315 Y112.002 E6.57650
G1 X163.775 Y112.331 E6.60452
G1 X163.164 Y112.477 E6.63239
G1 X134.996 Y112.484 E7.88178
G1 X134.153 Y112.295 E7.92010
G1 X133.615 Y111.931 E7.94889
G1 X131.301 Y109.609 E8.09431
G1 X130.956 Y109.038 E8.12388
G1 X130.815 Y108.390 E8.15329
G1 X130.968 Y54.724 E10.53363
G1 X131.158 Y53.878 E10.57210
G1 X131.513 Y53.351 E10.60028
G1 X133.339 Y51.532 E10.71461
G1 X133.871 Y51.205 E10.74232
G1 X134.478 Y51.054 E10.77003
G1 X162.653 Y51.046 E12.01974
G1 X163.416 Y51.196 E12.05422
G1 X164.067 Y51.621 E12.08871
G1 X166.406 Y53.979 E12.23599
G1 X166.711 Y54.512 E12.26324
G1 X166.764 Y54.753 E12.27421
G1 X166.430 Y54.827 F6600.000
G1 F3600.000
G1 X166.499 Y55.140 E12.28844
G1 X166.347 Y108.804 E14.66870
G1 X166.187 Y109.510 E14.70078
G1 X165.889 Y109.949 E14.72433
G1 X164.101 Y111.731 E14.83630
G1 X163.649 Y112.010 E14.85985
G1 X163.133 Y112.134 E14.88340
G1 X135.000 Y112.139 E16.13121
G1 X134.295 Y111.980 E16.16330
G1 X133.846 Y111.674 E16.18741
G1 X131.571 Y109.394 E16.33023
G1 X131.278 Y108.914 E16.35518
G1 X131.159 Y108.367 E16.37999
G1 X131.313 Y54.726 E18.75926
G1 X131.472 Y54.021 E18.79134
G1 X131.770 Y53.581 E18.81489
G1 X133.556 Y51.801 E18.92672
G1 X134.004 Y51.523 E18.95013
G1 X134.517 Y51.397 E18.97353
G1 X162.652 Y51.391 E20.22149
G1 X163.285 Y51.515 E20.25008
G1 X163.828 Y51.870 E20.27882
G1 X166.121 Y54.175 E20.42306
G1 X166.386 Y54.628 E20.44632
G1 X166.417 Y54.768 E20.45270
G1 X166.083 Y54.841 F6600.000
G1 F3600.000
G1 X166.155 Y55.170 E20.46763
G1 X166.002 Y108.800 E22.84636
G1 X165.874 Y109.365 E22.87208
G1 X165.632 Y109.719 E22.89106
G1 X163.885 Y111.463 E23.00058
G1 X163.519 Y111.690 E23.01969
G1 X163.100 Y111.790 E23.03880
G1 X135.004 Y111.794 E24.28497
G1 X134.436 Y111.665 E24.31081
G1 X134.079 Y111.420 E24.33004
G1 X131.839 Y109.177 E24.47062
G1 X131.601 Y108.791 E24.49073
G1 X131.504 Y108.348 E24.51084
G1 X131.658 Y54.731 E26.88906
G1 X131.785 Y54.165 E26.91478
G1 X132.027 Y53.812 E26.93376
G1 X133.773 Y52.069 E27.04316
G1 X134.138 Y51.841 E27.06227
G1 X134.554 Y51.740 E27.08125
G1 X162.652 Y51.736 E28.32754
G1 X163.158 Y51.836 E28.35040
G1 X163.591 Y52.121 E28.37339
G1 X165.842 Y54.379 E28.51485
G1 X166.070 Y54.783 E28.53540
G1 E24.53540 F2400.000
G92 E0
G1 Z0.750 F6600.000
G1 X161.686 Y107.607
G1 Z0.650
G1 E4.00000 F2400.000
;TYPE:Support material interface
;WIDTH:0.35
G1 F3600.000
G1 X161.686 Y56.051 E5.83663
G1 X160.400 Y56.051 E5.88243
G1 X160.400 Y107.479 E7.71448
G1 X159.115 Y107.479 E7.76028
G1 X159.115 Y56.051 E9.59234
G1 X157.829 Y56.051 E9.63814
G1 X157.829 Y107.479 E11.47019
G1 X156.543 Y107.479 E11.51599
G1 X156.543 Y56.051 E13.34804
G1 X155.258 Y56.051 E13.39384
G1 X155.258 Y107.479 E15.22589
G1 X153.972 Y107.479 E15.27169
G1 X153.972 Y56.051 E17.10375
G1 X152.687 Y56.051 E17.14954
G1 X152.687 Y107.479 E18.98160
G1 X151.401 Y107.479 E19.02740
G1 X151.401 Y56.051 E20.85945
G1 X150.115 Y56.051 E20.90525
G1 X150.115 Y107.479 E22.73730
G1 X148.830 Y107.479 E22.78310
G1 X148.830 Y56.051 E24.61515
G1 X147.544 Y56.051 E24.66095
G1 X147.544 Y107.479 E26.49301
G1 X146.258 Y107.479 E26.53881
G1 X146.258 Y56.051 E28.37086
G1 X144.973 Y56.051 E28.41666
G1 X144.973 Y107.479 E30.24871
G1 X143.687 Y107.479 E30.29451
G1 X143.687 Y56.051 E32.12656
G1 X142.402 Y56.051 E32.17236
G1 X142.402 Y107.479 E34.00442
G1 X141.116 Y107.479 E34.05021
G1 X141.116 Y56.051 E35.88227
G1 X139.830 Y56.051 E35.92807
G1 X139.830 Y107.479 E37.76012
G1 X138.545 Y107.479 E37.80592
G1 X138.545 Y56.051 E39.63797
G1 X137.259 Y56.051 E39.68377
G1 X137.259 Y107.479 E41.51582
G1 X135.973 Y107.479 E41.56162
G1 X135.973 Y55.923 E43.39826
;LAYER_CHANGE
;Z:1.25
;HEIGHT:0.6
G1 Z1.250 F6600.000
G1 E39.39826 F2400.000
G92 E0
G1 Z1.350 F6600.000
G1 X145.293 Y83.774
G1 Z1.250
G1 E4.00000 F2400.000
;TYPE:Overhang perimeter
;WIDTH:0.4
;HEIGHT:0.4
G1 F3600.000
G1 X145.253 Y83.529 E4.01297
G1 X145.258 Y82.961 E4.04266
G1 X145.359 Y82.402 E4.07235
G1 X145.535 Y81.917 E4.09925
G1 X145.829 Y81.380 E4.13126
G1 X146.194 Y80.934 E4.16137
G1 X146.624 Y80.562 E4.19106
G1 X147.109 Y80.267 E4.22075
G1 X147.638 Y80.059 E4.25043
G1 X148.194 Y79.943 E4.28012
G1 X148.709 Y79.924 E4.30703
G1 X149.318 Y79.995 E4.33904
G1 X149.868 Y80.167 E4.36915
G1 X150.374 Y80.425 E4.39884
G1 X150.829 Y80.765 E4.42852
G1 X151.221 Y81.177 E4.45821
G1 X151.537 Y81.649 E4.48790
G1 X151.769 Y82.168 E4.51758
G1 X151.910 Y82.718 E4.54727
G1 X151.957 Y83.284 E4.57696
G1 X151.935 Y83.532 E4.58993
G1 X152.251 Y83.680 E4.60815
G1 X153.207 Y84.352 E4.66921
G1 X154.034 Y85.178 E4.73027
G1 X154.708 Y86.133 E4.79132
G1 X155.208 Y87.189 E4.85238
G1 X155.521 Y88.315 E4.91344
G1 X155.636 Y89.478 E4.97450
G1 X155.551 Y90.644 E5.03555
G1 X155.267 Y91.777 E5.09661
G1 X154.794 Y92.846 E5.15767
