; generated by PrusaSlicer 2.3.1+win64 on 2021-07-04 at 00:32:55 UTC

; 

; external perimeters extrusion width = 0.45mm
; perimeters extrusion width = 0.45mm
; infill extrusion width = 0.45mm
; solid infill extrusion width = 0.45mm
; top infill extrusion width = 0.40mm
; support material extrusion width = 0.35mm
; first layer extrusion width = 0.42mm

M107
M190 S80 ; set bed temperature and wait for it to be reached
M104 S230 ; set temperature
;TYPE:Custom
G28 ; home all axes
G1 Z5 F5000 ; lift nozzle
M109 S230 ; set temperature and wait for it to be reached
G21 ; set units to millimeters
G90 ; use absolute coordinates
M82 ; use absolute distances for extrusion
G92 E0
; Filament gcode
;LAYER_CHANGE
;Z:0.35
;HEIGHT:0.35
G1 Z0.350 F6600.000
G1 E-4.00000 F2400.000
G92 E0
G1 Z0.450 F6600.000
G1 X144.316 Y60.811
G1 Z0.350
G1 E4.00000 F2400.000
;TYPE:Skirt
;WIDTH:0.42
G1 X144.701 Y60.192 E4.03659
G1 X146.527 Y58.368 E4.16610
G1 X147.062 Y58.032 E4.19781
G1 X147.677 Y57.875 E4.22969
G1 X175.859 Y57.866 E5.64404
G1 X176.619 Y58.015 E5.68288
G1 X177.271 Y58.439 E5.72190
G1 X179.610 Y60.796 E5.88855
G1 X179.915 Y61.325 E5.91921
G1 X180.048 Y61.918 E5.94969
G1 X179.898 Y110.697 E8.39773
G1 X179.857 Y111.596 E8.44288
G1 X179.730 Y112.100 E8.46898
G1 X179.302 Y112.766 E8.50869
G1 X173.343 Y118.725 E8.93166
G1 X172.915 Y119.045 E8.95846
G1 X172.419 Y119.242 E8.98527
G1 X171.927 Y119.304 E9.01014
G1 X152.390 Y119.304 E9.99059
G1 X151.651 Y119.162 E10.02840
G1 X150.982 Y118.731 E10.06829
G1 X144.583 Y112.332 E10.52248
G1 X144.217 Y111.800 E10.55489
G1 X144.035 Y111.180 E10.58729
G1 X144.174 Y61.547 E13.07817
G1 X144.305 Y60.870 E13.11279
G1 X144.638 Y60.935 F6600.000
G1 F2400.000
G1 X144.964 Y60.415 E13.14358
G1 X146.748 Y58.634 E13.27009
G1 X147.199 Y58.348 E13.29689
G1 X147.717 Y58.218 E13.32369
G1 X175.859 Y58.211 E14.73603
G1 X176.492 Y58.335 E14.76839
G1 X177.034 Y58.690 E14.80090
G1 X179.328 Y60.995 E14.96410
G1 X179.591 Y61.445 E14.99027
G1 X179.705 Y61.954 E15.01643
G1 X179.553 Y110.692 E17.46241
G1 X179.516 Y111.545 E17.50527
G1 X179.408 Y111.977 E17.52761
G1 X179.051 Y112.529 E17.56060
G1 X173.105 Y118.475 E17.98261
G1 X172.746 Y118.744 E18.00511
G1 X172.329 Y118.909 E18.02761
G1 X152.391 Y118.959 E19.02824
G1 X151.773 Y118.839 E19.05981
G1 X151.219 Y118.480 E19.09295
G1 X144.834 Y112.095 E19.54612
G1 X144.527 Y111.650 E19.57324
G1 X144.377 Y111.131 E19.60036
G1 X144.519 Y61.549 E22.08872
G1 X144.627 Y60.993 E22.11711
G1 X144.960 Y61.058 F6600.000
G1 F2400.000
G1 X145.224 Y60.642 E22.14186
G1 X146.969 Y58.899 E22.26562
G1 X147.334 Y58.665 E22.28738
G1 X147.758 Y58.560 E22.30928
G1 X175.859 Y58.556 E23.71957
G1 X176.364 Y58.656 E23.74543
G1 X176.797 Y58.940 E23.77144
G1 X179.047 Y61.197 E23.93136
G1 X179.267 Y61.564 E23.95283
G1 X179.361 Y61.982 E23.97431
G1 X179.208 Y110.690 E26.41882
G1 X179.174 Y111.495 E26.45925
G1 X179.086 Y111.853 E26.47774
G1 X178.800 Y112.292 E26.50402
G1 X172.864 Y118.228 E26.92532
G1 X172.241 Y118.575 E26.96112
G1 X152.394 Y118.614 E27.95715
G1 X151.899 Y118.518 E27.98245
G1 X151.458 Y118.231 E28.00888
G1 X145.087 Y111.860 E28.46107
G1 X144.840 Y111.504 E28.48283
G1 X144.719 Y111.088 E28.50459
G1 X144.864 Y61.550 E30.99068
G1 X144.949 Y61.117 E31.01281
G1 E27.01281
G92 E0
G1 Z0.450 F6600.000
G1 X178.019 Y62.064
G1 Z0.350
G1 E4.00000 F2400.000
;TYPE:Support material
G1 X175.856 Y59.901 E4.15350
G1 X175.159 Y59.901 E4.18847
G1 X177.864 Y62.605 E4.38041
G1 X177.864 Y63.302 E4.41538
G1 X174.462 Y59.901 E4.65677
G1 X173.766 Y59.901 E4.69174
G1 X177.864 Y63.999 E4.98259
G1 X177.864 Y64.696 E5.01756
G1 X173.069 Y59.901 E5.35786
G1 X172.372 Y59.901 E5.39282
G1 X177.864 Y65.392 E5.78258
G1 X177.864 Y66.089 E5.81755
G1 X171.675 Y59.901 E6.25675
G1 X170.978 Y59.901 E6.29172
G1 X177.864 Y66.786 E6.78038
G1 X177.864 Y67.483 E6.81535
G1 X170.282 Y59.901 E7.35346
G1 X169.585 Y59.901 E7.38843
G1 X177.864 Y68.180 E7.97599
G1 X177.864 Y68.876 E8.01096
G1 X168.888 Y59.901 E8.64798
G1 X168.191 Y59.901 E8.68295
G1 X177.864 Y69.573 E9.36942
G1 X177.864 Y70.270 E9.40439
G1 X167.495 Y59.901 E10.14031
G1 X166.798 Y59.901 E10.17528
G1 X177.864 Y70.967 E10.96066
G1 X177.864 Y71.663 E10.99563
G1 X166.101 Y59.901 E11.83046
G1 X165.404 Y59.901 E11.86543
G1 X177.864 Y72.360 E12.74971
G1 X177.864 Y73.057 E12.78468
G1 X164.707 Y59.901 E13.71842
G1 X164.011 Y59.901 E13.75338
G1 X177.864 Y73.754 E14.73657
G1 X177.864 Y74.451 E14.77154
G1 X163.314 Y59.901 E15.80419
G1 X162.617 Y59.901 E15.83915
G1 X177.864 Y75.147 E16.92125
G1 X177.864 Y75.844 E16.95622
G1 X161.920 Y59.901 E18.08777
G1 X161.224 Y59.901 E18.12274
G1 X177.864 Y76.541 E19.30374
G1 X177.864 Y77.238 E19.33871
G1 X160.527 Y59.901 E20.56916
G1 X159.830 Y59.901 E20.60413
G1 X177.864 Y77.935 E21.88404
G1 X177.864 Y78.631 E21.91901
G1 X159.133 Y59.901 E23.24837
G1 X158.436 Y59.901 E23.28334
G1 X177.864 Y79.328 E24.66215
G1 X177.864 Y80.025 E24.69712
G1 X157.740 Y59.901 E26.12539
G1 X157.043 Y59.901 E26.16036
G1 X177.864 Y80.722 E27.63808
G1 X177.864 Y81.418 E27.67305
G1 X156.346 Y59.901 E29.20022
G1 X155.649 Y59.901 E29.23519
G1 X177.864 Y82.115 E30.81182
G1 X177.864 Y82.812 E30.84679
G1 X154.952 Y59.901 E32.47287
G1 X154.256 Y59.901 E32.50783
G1 X177.864 Y83.509 E34.18337
G1 X177.864 Y84.206 E34.21834
G1 X153.559 Y59.901 E35.94332
G1 X152.862 Y59.901 E35.97829
G1 X177.864 Y84.902 E37.75273
G1 X177.864 Y85.599 E37.78770
G1 X152.165 Y59.901 E39.61159
G1 X151.469 Y59.901 E39.64656
G1 X177.864 Y86.296 E41.51991
G1 X177.864 Y86.993 E41.55487
G1 X150.772 Y59.901 E43.47767
G1 X150.075 Y59.901 E43.51264
G1 X177.864 Y87.689 E45.48489
G1 X177.864 Y88.386 E45.51986
G1 X149.378 Y59.901 E47.54157
G1 X148.681 Y59.901 E47.57653
G1 X177.864 Y89.083 E49.64769
G1 X177.864 Y89.780 E49.68266
G1 X147.985 Y59.901 E51.80327
G1 X147.865 Y59.901 E51.80926
G1 X147.577 Y60.190 E51.82975
G1 X177.864 Y90.477 E53.97932
G1 X177.864 Y91.173 E54.01429
G1 X147.228 Y60.538 E56.18859
G1 X146.880 Y60.886 E56.21332
G1 X177.864 Y91.870 E58.41234
G1 X177.864 Y92.567 E58.44731
G1 X146.531 Y61.235 E60.67106
G1 X146.209 Y61.557 E60.69394
G1 X146.209 Y61.609 E60.69655
G1 X177.864 Y93.264 E62.94318
G1 X177.864 Y93.961 E62.97815
G1 X146.209 Y62.306 E65.22479
G1 X146.209 Y63.003 E65.25976
G1 X177.864 Y94.657 E67.50639
G1 X177.864 Y95.354 E67.54136
G1 X146.209 Y63.700 E69.78800
G1 X146.209 Y64.396 E69.82296
G1 X177.864 Y96.051 E72.06960
G1 X177.864 Y96.748 E72.10457
G1 X146.209 Y65.093 E74.35120
G1 X146.209 Y65.790 E74.38617
G1 X177.864 Y97.444 E76.63281
G1 X177.864 Y98.141 E76.66777
G1 X146.209 Y66.487 E78.91441
G1 X146.209 Y67.183 E78.94938
G1 X177.864 Y98.838 E81.19601
G1 X177.864 Y99.535 E81.23098
G1 X146.209 Y67.880 E83.47762
G1 X146.209 Y68.577 E83.51258
G1 X177.864 Y100.232 E85.75922
G1 X177.864 Y100.928 E85.79419
G1 X146.209 Y69.274 E88.04082
G1 X146.209 Y69.971 E88.07579
G1 X177.864 Y101.625 E90.32243
G1 X177.864 Y102.322 E90.35739
G1 X146.209 Y70.667 E92.60403
G1 X146.209 Y71.364 E92.63900
G1 X177.864 Y103.019 E94.88563
G1 X177.864 Y103.715 E94.92060
G1 X146.209 Y72.061 E97.16724
G1 X146.209 Y72.758 E97.20221
G1 X177.864 Y104.412 E99.44884
G1 X177.864 Y105.109 E99.48381
G1 X146.209 Y73.454 E101.73044
G1 X146.209 Y74.151 E101.76541
G1 X177.864 Y105.806 E104.01205
G1 X177.864 Y106.503 E104.04702
G1 X146.209 Y74.848 E106.29365
G1 X146.209 Y75.545 E106.32862
G1 X177.864 Y107.199 E108.57525
G1 X177.864 Y107.896 E108.61022
G1 X146.209 Y76.242 E110.85686
G1 X146.209 Y76.938 E110.89183
G1 X177.864 Y108.593 E113.13846
G1 X177.864 Y109.290 E113.17343
G1 X146.209 Y77.635 E115.42006
G1 X146.209 Y78.332 E115.45503
G1 X177.864 Y109.987 E117.70167
G1 X177.864 Y110.683 E117.73664
G1 X146.209 Y79.029 E119.98327
G1 X146.209 Y79.726 E120.01824
G1 X177.837 Y111.354 E122.26299
G1 X177.489 Y111.702 E122.28772
G1 X146.209 Y80.422 E124.50775
G1 X146.209 Y81.119 E124.54272
G1 X177.140 Y112.050 E126.73802
G1 X176.792 Y112.399 E126.76274
G1 X146.209 Y81.816 E128.93332
G1 X146.209 Y82.513 E128.96829
G1 X176.443 Y112.747 E131.11414
G1 X176.207 Y112.983 E131.13091
G1 X175.983 Y112.983 E131.14216
G1 X146.209 Y83.209 E133.25532
G1 X146.209 Y83.906 E133.29029
G1 X175.286 Y112.983 E135.35400
G1 X174.589 Y112.983 E135.38897
G1 X146.209 Y84.603 E137.40323
G1 X146.209 Y85.300 E137.43820
G1 X173.893 Y112.983 E139.40300
G1 X173.578 Y112.983 E139.41880
G1 X173.578 Y113.366 E139.43797
G1 X146.209 Y85.997 E141.38044
G1 X146.209 Y86.693 E141.41541
G1 X173.578 Y114.062 E143.35788
G1 X173.578 Y114.759 E143.39285
G1 X146.209 Y87.390 E145.33531
G1 X146.209 Y88.087 E145.37028
G1 X173.578 Y115.456 E147.31275
G1 X173.578 Y115.613 E147.32062
G1 X173.308 Y115.883 E147.33978
G1 X146.209 Y88.784 E149.26309
G1 X146.209 Y89.480 E149.29806
G1 X172.960 Y116.231 E151.19664
G1 X172.611 Y116.579 E151.22137
G1 X146.209 Y90.177 E153.09522
G1 X146.209 Y90.874 E153.13019
G1 X172.263 Y116.928 E154.97932
G1 X171.907 Y117.269 E155.00405
G1 X146.209 Y91.571 E156.82795
G1 X146.209 Y92.268 E156.86291
G1 X171.210 Y117.269 E158.63735
G1 X170.514 Y117.269 E158.67232
G1 X146.209 Y92.964 E160.39731
G1 X146.209 Y93.661 E160.43228
G1 X169.817 Y117.269 E162.10781
G1 X169.120 Y117.269 E162.14278
G1 X146.209 Y94.358 E163.76886
G1 X146.209 Y95.055 E163.80383
G1 X168.423 Y117.269 E165.38046
G1 X167.727 Y117.269 E165.41542
G1 X146.209 Y95.752 E166.94260
G1 X146.209 Y96.448 E166.97757
G1 X167.030 Y117.269 E168.45529
G1 X166.333 Y117.269 E168.49026
G1 X146.209 Y97.145 E169.91852
G1 X146.209 Y97.842 E169.95349
G1 X165.636 Y117.269 E171.33231
G1 X164.939 Y117.269 E171.36728
G1 X146.209 Y98.539 E172.69664
G1 X146.209 Y99.235 E172.73161
G1 X164.243 Y117.269 E174.01151
G1 X163.546 Y117.269 E174.04648
G1 X146.209 Y99.932 E175.27694
G1 X146.209 Y100.629 E175.31191
G1 X162.849 Y117.269 E176.49291
G1 X162.152 Y117.269 E176.52788
G1 X146.209 Y101.326 E177.65943
G1 X146.209 Y102.023 E177.69440
G1 X161.455 Y117.269 E178.77649
G1 X160.759 Y117.269 E178.81146
G1 X146.209 Y102.719 E179.84410
G1 X146.209 Y103.416 E179.87907
G1 X160.062 Y117.269 E180.86226
G1 X159.365 Y117.269 E180.89723
G1 X146.209 Y104.113 E181.83097
G1 X146.209 Y104.810 E181.86594
G1 X158.668 Y117.269 E182.75022
G1 X157.972 Y117.269 E182.78519
G1 X146.209 Y105.506 E183.62002
G1 X146.209 Y106.203 E183.65499
G1 X157.275 Y117.269 E184.44036
G1 X156.578 Y117.269 E184.47533
G1 X146.209 Y106.900 E185.21126
G1 X146.209 Y107.597 E185.24623
G1 X155.881 Y117.269 E185.93270
G1 X155.184 Y117.269 E185.96767
G1 X146.209 Y108.294 E186.60468
G1 X146.209 Y108.990 E186.63965
G1 X154.488 Y117.269 E187.22722
G1 X153.791 Y117.269 E187.26219
G1 X150.495 Y113.973 E187.49613
G1 X150.495 Y114.670 E187.53110
G1 X153.094 Y117.269 E187.71559
G1 X152.397 Y117.269 E187.75056
G1 X150.339 Y115.211 E187.89662
G1 E183.89662
G92 E0
G1 Z0.450 F6600.000
G1 X149.660 Y113.139
G1 Z0.350
G1 E4.00000 F2400.000
G1 X146.209 Y109.687 E4.24496
G1 X146.209 Y110.384 E4.27993
G1 X148.809 Y112.983 E4.46442
G1 X148.112 Y112.983 E4.49939
G1 X146.054 Y110.926 E4.64545
;LAYER_CHANGE
;Z:0.65
;HEIGHT:0.3
G1 Z0.650 F6600.000
M104 S200 ; set temperature
M140 S60 ; set bed temperature
G1 E0.64545 F2400.000
G92 E0
G1 Z0.750 F6600.000
G1 X144.400 Y112.066
G1 Z0.650
G1 E4.00000 F2400.000
;TYPE:Skirt
G1 F3600.000
G1 X144.217 Y111.800 E4.01432
G1 X144.035 Y111.180 E4.04296
G1 X144.174 Y61.547 E6.24443
G1 X144.316 Y60.811 E6.27769
G1 X144.701 Y60.192 E6.31002
G1 X146.527 Y58.368 E6.42449
G1 X147.062 Y58.032 E6.45251
G1 X147.677 Y57.875 E6.48068
G1 X175.859 Y57.866 E7.73070
G1 X176.619 Y58.015 E7.76503
G1 X177.271 Y58.439 E7.79952
G1 X179.610 Y60.796 E7.94681
G1 X179.915 Y61.325 E7.97390
G1 X180.048 Y61.918 E8.00084
G1 X179.898 Y110.697 E10.16444
G1 X179.857 Y111.596 E10.20434
G1 X179.730 Y112.100 E10.22741
G1 X179.302 Y112.766 E10.26251
G1 X173.343 Y118.725 E10.63633
G1 X172.915 Y119.045 E10.66002
G1 X172.419 Y119.242 E10.68371
G1 X171.927 Y119.304 E10.70570
G1 X152.390 Y119.304 E11.57223
G1 X151.651 Y119.162 E11.60564
G1 X150.982 Y118.731 E11.64090
G1 X144.583 Y112.332 E12.04232
G1 X144.434 Y112.115 E12.05398
G1 X144.715 Y111.922 F6600.000
G1 F3600.000
G1 X144.527 Y111.650 E12.06859
G1 X144.377 Y111.131 E12.09256
G1 X144.519 Y61.549 E14.29180
G1 X144.638 Y60.934 E14.31956
G1 X144.964 Y60.415 E14.34676
G1 X146.748 Y58.634 E14.45857
G1 X147.199 Y58.348 E14.48226
G1 X147.717 Y58.218 E14.50595
G1 X175.859 Y58.211 E15.75418
G1 X176.492 Y58.335 E15.78278
G1 X177.034 Y58.690 E15.81152
G1 X179.328 Y60.995 E15.95576
G1 X179.591 Y61.445 E15.97888
G1 X179.705 Y61.954 E16.00201
G1 X179.553 Y110.692 E18.16379
G1 X179.516 Y111.545 E18.20167
G1 X179.408 Y111.977 E18.22141
G1 X179.051 Y112.529 E18.25057
G1 X173.105 Y118.475 E18.62355
G1 X172.746 Y118.744 E18.64343
G1 X172.329 Y118.909 E18.66331
G1 X152.391 Y118.959 E19.54768
G1 X151.773 Y118.839 E19.57558
G1 X151.219 Y118.480 E19.60488
G1 X144.834 Y112.095 E20.00539
G1 X144.749 Y111.971 E20.01208
G1 X145.029 Y111.777 F6600.000
G1 F3600.000
G1 X144.840 Y111.504 E20.02680
G1 X144.719 Y111.088 E20.04603
G1 X144.864 Y61.550 E22.24326
G1 X144.960 Y61.058 E22.26550
G1 X145.224 Y60.642 E22.28736
G1 X146.969 Y58.899 E22.39674
G1 X147.334 Y58.665 E22.41597
G1 X147.758 Y58.560 E22.43533
G1 X175.859 Y58.556 E23.68175
G1 X176.364 Y58.656 E23.70461
G1 X176.797 Y58.940 E23.72760
G1 X179.047 Y61.197 E23.86894
G1 X179.267 Y61.564 E23.88792
G1 X179.361 Y61.982 E23.90690
G1 X179.208 Y110.690 E26.06738
G1 X179.174 Y111.495 E26.10311
G1 X179.086 Y111.853 E26.11945
G1 X178.800 Y112.292 E26.14268
G1 X172.864 Y118.228 E26.51503
G1 X172.241 Y118.575 E26.54667
G1 X152.394 Y118.614 E27.42698
G1 X151.899 Y118.518 E27.44934
G1 X151.458 Y118.231 E27.47269
G1 X145.063 Y111.826 E27.87416
G1 E23.87416 F2400.000
G92 E0
G1 Z0.750 F6600.000
G1 X149.180 Y62.743
G1 Z0.650
G1 E4.00000 F2400.000
;TYPE:Support material interface
;WIDTH:0.35
G1 F3600.000
G1 X149.180 Y110.013 E5.68396
G1 X150.466 Y110.013 E5.72976
G1 X150.466 Y62.871 E7.40914
G1 X151.751 Y62.871 E7.45494
G1 X151.751 Y110.013 E9.13432
G1 X153.037 Y110.013 E9.18012
G1 X153.037 Y62.871 E10.85950
G1 X154.323 Y62.871 E10.90530
G1 X154.323 Y114.299 E12.73736
G1 X155.608 Y114.299 E12.78316
G1 X155.608 Y62.871 E14.61521
G1 X156.894 Y62.871 E14.66101
G1 X156.894 Y114.299 E16.49306
G1 X158.179 Y114.299 E16.53886
G1 X158.179 Y62.871 E18.37091
G1 X159.465 Y62.871 E18.41671
G1 X159.465 Y114.299 E20.24877
G1 X160.751 Y114.299 E20.29456
G1 X160.751 Y62.871 E22.12662
G1 X162.036 Y62.871 E22.17242
G1 X162.036 Y114.299 E24.00447
G1 X163.322 Y114.299 E24.05027
G1 X163.322 Y62.871 E25.88232
G1 X164.608 Y62.871 E25.92812
G1 X164.608 Y114.299 E27.76018
G1 X165.893 Y114.299 E27.80597
G1 X165.893 Y62.871 E29.63803
G1 X167.179 Y62.871 E29.68383
G1 X167.179 Y114.299 E31.51588
G1 X168.464 Y114.299 E31.56168
G1 X168.464 Y62.871 E33.39373
G1 X169.750 Y62.871 E33.43953
G1 X169.750 Y114.299 E35.27158
G1 X170.608 Y114.299 E35.30213
G1 X170.608 Y110.013 E35.45480
G1 X171.036 Y110.013 E35.47005
G1 X171.036 Y62.871 E37.14944
G1 X172.321 Y62.871 E37.19524
G1 X172.321 Y110.013 E38.87462
G1 X173.607 Y110.013 E38.92042
G1 X173.607 Y62.871 E40.59980
G1 X174.892 Y62.871 E40.64560
G1 X174.892 Y110.142 E42.32956
;LAYER_CHANGE
;Z:1.25
;HEIGHT:0.6
G1 Z1.250 F6600.000
G1 E38.32956 F2400.000
G92 E0
G1 Z1.350 F6600.000
G1 X165.005 Y89.778
G1 Z1.250
G1 E4.00000 F2400.000
;TYPE:Overhang perimeter
;WIDTH:0.4
;HEIGHT:0.4
G1 F3600.000
G1 X165.224 Y89.871 E4.01242
G1 X166.197 Y90.498 E4.07290
G1 X167.049 Y91.281 E4.13337
G1 X167.757 Y92.196 E4.19384
G1 X168.299 Y93.219 E4.25431
G1 X168.660 Y94.319 E4.31478
G1 X168.830 Y95.464 E4.37526
G1 X168.803 Y96.621 E4.43573
G1 X168.581 Y97.757 E4.49620
G1 X168.169 Y98.838 E4.55667
G1 X167.580 Y99.835 E4.61714
G1 X166.830 Y100.717 E4.67761
G1 X165.942 Y101.459 E4.73809
G1 X164.942 Y102.041 E4.79856
G1 X163.857 Y102.444 E4.85903
G1 X162.719 Y102.657 E4.91950
G1 X161.562 Y102.675 E4.97997
G1 X160.418 Y102.497 E5.04045
G1 X159.321 Y102.127 E5.10092
G1 X158.303 Y101.577 E5.16139
G1 X157.393 Y100.862 E5.22186
G1 X156.616 Y100.003 E5.28233
G1 X155.997 Y99.025 E5.34281
G1 X155.552 Y97.957 E5.40328
G1 X155.295 Y96.828 E5.46375
